; generated by PrusaSlicer 2.5.0+MacOS-arm64 on 2023-03-15 at 20:38:47 UTC


;
;
; 

; external perimeters extrusion width = 0.25mm
; perimeters extrusion width = 0.25mm
; infill extrusion width = 0.25mm
; solid infill extrusion width = 0.25mm
; top infill extrusion width = 0.25mm
; first layer extrusion width = 0.30mm

M73 P0 R78
M73 Q0 S78
M201 X1000 Y1000 Z200 E5000 ; sets maximum accelerations, mm/sec^2
M203 X200 Y200 Z12 E120 ; sets maximum feedrates, mm / sec
M204 P1250 R1250 T1250 ; sets acceleration (P, T) and retract acceleration (R), mm/sec^2
M205 X8.00 Y8.00 Z0.40 E4.50 ; sets the jerk limits, mm/sec
M205 S0 T0 ; sets the minimum extruding and travel feed rate, mm/sec
M107
;TYPE:Custom
M862.3 P "MK3S" ; printer model check
M862.1 P0.25 ; nozzle diameter check
M115 U3.12.1 ; tell printer latest fw version
G90 ; use absolute coordinates
M83 ; extruder relative mode
M104 S220 ; set extruder temp
M140 S60 ; set bed temp
M190 S60 ; wait for bed temp
M109 S220 ; wait for extruder temp
G28 W ; home all without mesh bed level
G80 ; mesh bed leveling
G1 Z0.2 F720
G1 Y-3 F1000 ; go outside print area
G92 E0
G1 X60 E8 F700 ; intro line
G1 X100 E12.5 F700 ; intro line
G92 E0
M221 S95

; Don't change E value below. Excessive value can damage the printer.
M907 E430 ; set extruder motor current
G21 ; set units to millimeters
G90 ; use absolute coordinates
M83 ; use relative distances for extrusion
M900 K0.05 ; Filament gcode LA 1.5
M900 K30 ; Filament gcode LA 1.0
M107
;LAYER_CHANGE
;Z:0.2
;HEIGHT:0.2
;BEFORE_LAYER_CHANGE
G92 E0.0
;0.2


G1 E-.8 F2100
G1 Z.15 F720
G1 Z.2
;AFTER_LAYER_CHANGE
;0.2
G1 Z.35
G1 X83.264 Y95.602 F10800
G1 Z.2 F720
G1 E.8 F2100
M204 S500
;TYPE:Skirt/Brim
;WIDTH:0.3
G1 F1200
G1 X84.286 Y94.763 E.02825
G1 X85.506 Y94.258 E.02822
G1 X86.588 Y94.118 E.02332
G1 X163.638 Y94.129 E1.64705
G1 X164.494 Y94.258 E.0185
G1 X165.325 Y94.556 E.01886
G1 X166.423 Y95.289 E.02822
G1 X167.01 Y95.936 E.01868
G1 X167.455 Y96.673 E.01839
G1 X167.853 Y97.96 E.0288
G1 X167.907 Y98.613 E.014
G1 X167.907 Y113.625 E.32091
G1 X167.516 Y114.895 E.0284
G1 X166.478 Y115.725 E.0284
G1 X165.65 Y115.882 E.01802
G1 X84.35 Y115.882 E1.73789
G1 X83.08 Y115.491 E.0284
G1 X82.25 Y114.453 E.0284
G1 X82.093 Y113.625 E.01802
G1 X82.093 Y98.613 E.32091
G1 X82.147 Y97.96 E.014
G1 X82.531 Y96.7 E.02815
G1 X83.244 Y95.633 E.02743
M204 S1000
; printing object jamb.stl id:0 copy 0
;WIPE_START
G1 F8640
M73 P0 R77
G1 X84.286 Y94.763 E-.31346
G1 X85.506 Y94.258 E-.30487
G1 X86.114 Y94.179 E-.14166
;WIPE_END
G1 E-.04 F2100
G1 Z.35 F720
G1 X85.014 Y110.961 F10800
G1 Z.2 F720
G1 E.8 F2100
M204 S500
;TYPE:Perimeter
;WIDTH:0.299999
G1 F1200
G1 X85.014 Y98.731 E.26143
G1 X85.032 Y98.475 E.00549
G1 X85.138 Y98.019 E.01
G1 X85.382 Y97.626 E.0099
G1 X85.721 Y97.309 E.00991
G1 X86.131 Y97.122 E.00963
G1 X86.621 Y97.039 E.01063
G1 X163.294 Y97.039 E1.63898
G1 X163.55 Y97.057 E.00549
G1 X164.007 Y97.163 E.01003
G1 X164.398 Y97.406 E.00984
G1 X164.716 Y97.746 E.00995
G1 X164.907 Y98.167 E.0099
G1 X164.986 Y98.646 E.01036
G1 X164.986 Y110.961 E.26324
G1 X85.052 Y110.961 E1.70869
M204 S1000
G1 X84.757 Y111.218 F10800
M204 S500
G1 F1200
G1 X84.757 Y98.731 E.26692
G1 X84.776 Y98.444 E.00615
G1 X84.899 Y97.92 E.0115
G1 X85.184 Y97.462 E.01154
G1 X85.577 Y97.094 E.01151
G1 X86.067 Y96.873 E.01149
G1 X86.608 Y96.782 E.01173
G1 X163.294 Y96.782 E1.63925
G1 X163.576 Y96.801 E.00604
G1 X164.105 Y96.924 E.01162
G1 X164.563 Y97.209 E.01152
G1 X164.931 Y97.602 E.01151
G1 X165.154 Y98.095 E.01157
G1 X165.243 Y98.633 E.01165
G1 X165.243 Y111.218 E.26901
G1 X84.795 Y111.218 E1.71968
M204 S1000
G1 X84.475 Y111.603 F10800
M204 S500
;TYPE:External perimeter
;WIDTH:0.25542
G1 F1200
G1 X84.475 Y113.5 E.03351
M204 S1000
;WIPE_START
G1 F8640
G1 X84.475 Y111.603 E-.4379
;WIPE_END
G1 E-.3621 F2100
G1 Z.35 F720
G1 X84.577 Y111.478 F10800
G1 Z.2 F720
G1 E.8 F2100
M204 S500
;WIDTH:0.296695
G1 F1200
G1 X84.475 Y111.603 E.00341
G1 X84.498 Y111.396 E.0044
;WIDTH:0.299999
G1 X84.5 Y98.731 E.27074
G1 X84.541 Y98.215 E.01105
G1 X84.661 Y97.821 E.0088
G1 X84.855 Y97.459 E.0088
G1 X85.116 Y97.14 E.0088
G1 X85.434 Y96.879 E.0088
G1 X85.789 Y96.689 E.00861
G1 X86.191 Y96.566 E.00899
G1 X86.595 Y96.525 E.00869
G1 X163.294 Y96.525 E1.63953
G1 X163.801 Y96.565 E.01087
G1 X164.204 Y96.686 E.00898
G1 X164.566 Y96.879 E.00879
G1 X164.884 Y97.14 E.0088
G1 X165.145 Y97.459 E.0088
G1 X165.339 Y97.821 E.0088
G1 X165.459 Y98.215 E.0088
G1 X165.5 Y98.62 E.00869
G1 X165.502 Y111.396 E.27311
;WIDTH:0.296695
G1 X165.525 Y111.603 E.0044
G1 X165.421 Y111.477 E.00345
;WIDTH:0.299999
G1 X84.614 Y111.477 E1.72736
M204 S1000
;WIPE_START
G1 F8640
M73 P1 R77
M73 Q1 S78
G1 X84.475 Y111.603 E-.0434
G1 X84.498 Y111.396 E-.0481
G1 X84.499 Y108.501 E-.6685
;WIPE_END
G1 E-.04 F2100
G1 Z.35 F720
G1 X165.525 Y113.5 F10800
G1 Z.2 F720
G1 E.8 F2100
M204 S500
;WIDTH:0.25542
G1 F1200
G1 X165.525 Y111.603 E.03351
M204 S1000
;WIPE_START
G1 F8640
G1 X165.525 Y113.5 E-.4379
;WIPE_END
G1 E-.3621 F2100
G1 Z.35 F720
G1 X164.895 Y98.519 F10800
G1 Z.2 F720
G1 E.8 F2100
M204 S500
;TYPE:Solid infill
;WIDTH:0.300084
G1 F1200
G1 X163.636 Y97.26 E.03808
G1 X163.245 Y97.232 E.00839
G1 X164.793 Y98.78 E.04681
G1 X164.793 Y99.144 E.00778
G1 X162.881 Y97.232 E.05781
G1 X162.517 Y97.232 E.00778
G1 X164.793 Y99.507 E.06881
G1 X164.793 Y99.871 E.00778
M73 Q1 S77
G1 X162.154 Y97.232 E.0798
G1 X161.79 Y97.232 E.00778
G1 X164.793 Y100.235 E.0908
G1 X164.793 Y100.598 E.00778
G1 X161.426 Y97.232 E.1018
G1 X161.063 Y97.232 E.00778
G1 X164.793 Y100.962 E.1128
G1 X164.793 Y101.326 E.00778
G1 X160.699 Y97.232 E.1238
G1 X160.335 Y97.232 E.00778
G1 X164.793 Y101.69 E.1348
G1 X164.793 Y102.053 E.00778
G1 X159.972 Y97.232 E.14579
G1 X159.608 Y97.232 E.00778
G1 X164.793 Y102.417 E.15679
G1 X164.793 Y102.781 E.00778
G1 X159.244 Y97.232 E.16779
G1 X158.881 Y97.232 E.00778
G1 X164.793 Y103.144 E.17879
G1 X164.793 Y103.508 E.00778
G1 X158.517 Y97.232 E.18979
G1 X158.153 Y97.232 E.00778
G1 X164.793 Y103.872 E.20078
G1 X164.793 Y104.235 E.00778
G1 X157.79 Y97.232 E.21178
G1 X157.426 Y97.232 E.00778
G1 X164.793 Y104.599 E.22278
G1 X164.793 Y104.963 E.00778
G1 X157.062 Y97.232 E.23378
G1 X156.699 Y97.232 E.00778
G1 X164.793 Y105.326 E.24478
G1 X164.793 Y105.69 E.00778
G1 X156.335 Y97.232 E.25578
G1 X155.971 Y97.232 E.00778
G1 X164.793 Y106.054 E.26677
G1 X164.793 Y106.418 E.00778
G1 X155.607 Y97.232 E.27777
G1 X155.244 Y97.232 E.00778
G1 X164.793 Y106.781 E.28877
G1 X164.793 Y107.145 E.00778
G1 X154.88 Y97.232 E.29977
G1 X154.516 Y97.232 E.00778
G1 X164.793 Y107.509 E.31077
G1 X164.793 Y107.872 E.00778
G1 X154.153 Y97.232 E.32177
G1 X153.789 Y97.232 E.00778
G1 X164.793 Y108.236 E.33276
G1 X164.793 Y108.6 E.00778
G1 X153.425 Y97.232 E.34376
G1 X153.062 Y97.232 E.00778
G1 X164.793 Y108.963 E.35476
G1 X164.793 Y109.327 E.00778
G1 X152.698 Y97.232 E.36576
G1 X152.334 Y97.232 E.00778
G1 X164.793 Y109.691 E.37676
G1 X164.793 Y110.054 E.00778
G1 X151.971 Y97.232 E.38776
G1 X151.607 Y97.232 E.00778
G1 X164.793 Y110.418 E.39875
G1 X164.793 Y110.768 E.00748
G1 X164.779 Y110.768 E.0003
G1 X151.243 Y97.232 E.40933
G1 X150.88 Y97.232 E.00778
G1 X164.415 Y110.768 E.40933
G1 X164.052 Y110.768 E.00778
G1 X150.516 Y97.232 E.40933
G1 X150.152 Y97.232 E.00778
G1 X163.688 Y110.768 E.40933
G1 X163.324 Y110.768 E.00778
G1 X149.788 Y97.232 E.40933
G1 X149.425 Y97.232 E.00778
G1 X162.961 Y110.768 E.40933
G1 X162.597 Y110.768 E.00778
G1 X149.061 Y97.232 E.40933
G1 X148.697 Y97.232 E.00778
G1 X162.233 Y110.768 E.40933
G1 X161.87 Y110.768 E.00778
G1 X148.334 Y97.232 E.40933
G1 X147.97 Y97.232 E.00778
G1 X161.506 Y110.768 E.40933
G1 X161.142 Y110.768 E.00778
G1 X147.606 Y97.232 E.40933
G1 X147.243 Y97.232 E.00778
M73 P1 R76
G1 X160.778 Y110.768 E.40933
G1 X160.415 Y110.768 E.00778
G1 X146.879 Y97.232 E.40933
G1 X146.515 Y97.232 E.00778
G1 X160.051 Y110.768 E.40933
G1 X159.687 Y110.768 E.00778
G1 X146.152 Y97.232 E.40933
G1 X145.788 Y97.232 E.00778
G1 X159.324 Y110.768 E.40933
G1 X158.96 Y110.768 E.00778
G1 X145.424 Y97.232 E.40933
G1 X145.061 Y97.232 E.00778
G1 X158.596 Y110.768 E.40933
G1 X158.233 Y110.768 E.00778
G1 X144.697 Y97.232 E.40933
G1 X144.333 Y97.232 E.00778
G1 X157.869 Y110.768 E.40933
G1 X157.505 Y110.768 E.00778
G1 X143.97 Y97.232 E.40933
G1 X143.606 Y97.232 E.00778
G1 X157.142 Y110.768 E.40933
G1 X156.778 Y110.768 E.00778
G1 X143.242 Y97.232 E.40933
G1 X142.878 Y97.232 E.00778
G1 X156.414 Y110.768 E.40933
G1 X156.051 Y110.768 E.00778
G1 X142.515 Y97.232 E.40933
G1 X142.151 Y97.232 E.00778
M73 P2 R76
M73 Q2 S77
G1 X155.687 Y110.768 E.40933
G1 X155.323 Y110.768 E.00778
G1 X141.787 Y97.232 E.40933
G1 X141.424 Y97.232 E.00778
G1 X154.96 Y110.768 E.40933
G1 X154.596 Y110.768 E.00778
G1 X141.06 Y97.232 E.40933
G1 X140.696 Y97.232 E.00778
G1 X154.232 Y110.768 E.40933
G1 X153.868 Y110.768 E.00778
G1 X140.333 Y97.232 E.40933
G1 X139.969 Y97.232 E.00778
G1 X153.505 Y110.768 E.40933
G1 X153.141 Y110.768 E.00778
G1 X139.605 Y97.232 E.40933
G1 X139.242 Y97.232 E.00778
G1 X152.777 Y110.768 E.40933
G1 X152.414 Y110.768 E.00778
G1 X138.878 Y97.232 E.40933
G1 X138.514 Y97.232 E.00778
G1 X152.05 Y110.768 E.40933
G1 X151.686 Y110.768 E.00778
G1 X138.151 Y97.232 E.40933
G1 X137.787 Y97.232 E.00778
G1 X151.323 Y110.768 E.40933
G1 X150.959 Y110.768 E.00778
G1 X137.423 Y97.232 E.40933
G1 X137.06 Y97.232 E.00778
G1 X150.595 Y110.768 E.40933
G1 X150.232 Y110.768 E.00778
G1 X136.696 Y97.232 E.40933
G1 X136.332 Y97.232 E.00778
G1 X149.868 Y110.768 E.40933
G1 X149.504 Y110.768 E.00778
G1 X135.968 Y97.232 E.40933
G1 X135.605 Y97.232 E.00778
M73 Q2 S76
G1 X149.141 Y110.768 E.40933
G1 X148.777 Y110.768 E.00778
G1 X135.241 Y97.232 E.40933
G1 X134.877 Y97.232 E.00778
G1 X148.413 Y110.768 E.40933
G1 X148.05 Y110.768 E.00778
G1 X134.514 Y97.232 E.40933
G1 X134.15 Y97.232 E.00778
G1 X147.686 Y110.768 E.40933
G1 X147.322 Y110.768 E.00778
G1 X133.786 Y97.232 E.40933
G1 X133.423 Y97.232 E.00778
G1 X146.958 Y110.768 E.40933
G1 X146.595 Y110.768 E.00778
G1 X133.059 Y97.232 E.40933
G1 X132.695 Y97.232 E.00778
G1 X146.231 Y110.768 E.40933
G1 X145.867 Y110.768 E.00778
G1 X132.332 Y97.232 E.40933
G1 X131.968 Y97.232 E.00778
G1 X145.504 Y110.768 E.40933
G1 X145.14 Y110.768 E.00778
G1 X131.604 Y97.232 E.40933
G1 X131.241 Y97.232 E.00778
G1 X144.776 Y110.768 E.40933
G1 X144.413 Y110.768 E.00778
G1 X130.877 Y97.232 E.40933
G1 X130.513 Y97.232 E.00778
G1 X144.049 Y110.768 E.40933
G1 X143.685 Y110.768 E.00778
G1 X130.15 Y97.232 E.40933
G1 X129.786 Y97.232 E.00778
G1 X143.322 Y110.768 E.40933
G1 X142.958 Y110.768 E.00778
G1 X129.422 Y97.232 E.40933
G1 X129.058 Y97.232 E.00778
G1 X142.594 Y110.768 E.40933
G1 X142.231 Y110.768 E.00778
G1 X128.695 Y97.232 E.40933
G1 X128.331 Y97.232 E.00778
G1 X141.867 Y110.768 E.40933
G1 X141.503 Y110.768 E.00778
G1 X127.967 Y97.232 E.40933
G1 X127.604 Y97.232 E.00778
G1 X141.14 Y110.768 E.40933
G1 X140.776 Y110.768 E.00778
G1 X127.24 Y97.232 E.40933
G1 X126.876 Y97.232 E.00778
G1 X140.412 Y110.768 E.40933
G1 X140.048 Y110.768 E.00778
G1 X126.513 Y97.232 E.40933
G1 X126.149 Y97.232 E.00778
G1 X139.685 Y110.768 E.40933
G1 X139.321 Y110.768 E.00778
G1 X125.785 Y97.232 E.40933
G1 X125.422 Y97.232 E.00778
M73 P2 R75
G1 X138.957 Y110.768 E.40933
G1 X138.594 Y110.768 E.00778
M73 P3 R75
G1 X125.058 Y97.232 E.40933
G1 X124.694 Y97.232 E.00778
M73 Q3 S76
G1 X138.23 Y110.768 E.40933
G1 X137.866 Y110.768 E.00778
G1 X124.331 Y97.232 E.40933
G1 X123.967 Y97.232 E.00778
G1 X137.503 Y110.768 E.40933
G1 X137.139 Y110.768 E.00778
G1 X123.603 Y97.232 E.40933
G1 X123.24 Y97.232 E.00778
G1 X136.775 Y110.768 E.40933
G1 X136.412 Y110.768 E.00778
G1 X122.876 Y97.232 E.40933
G1 X122.512 Y97.232 E.00778
G1 X136.048 Y110.768 E.40933
G1 X135.684 Y110.768 E.00778
G1 X122.148 Y97.232 E.40933
G1 X121.785 Y97.232 E.00778
G1 X135.321 Y110.768 E.40933
G1 X134.957 Y110.768 E.00778
G1 X121.421 Y97.232 E.40933
G1 X121.057 Y97.232 E.00778
G1 X134.593 Y110.768 E.40933
G1 X134.229 Y110.768 E.00778
G1 X120.694 Y97.232 E.40933
G1 X120.33 Y97.232 E.00778
G1 X133.866 Y110.768 E.40933
G1 X133.502 Y110.768 E.00778
G1 X119.966 Y97.232 E.40933
G1 X119.603 Y97.232 E.00778
G1 X133.138 Y110.768 E.40933
G1 X132.775 Y110.768 E.00778
G1 X119.239 Y97.232 E.40933
G1 X118.875 Y97.232 E.00778
G1 X132.411 Y110.768 E.40933
G1 X132.047 Y110.768 E.00778
G1 X118.512 Y97.232 E.40933
G1 X118.148 Y97.232 E.00778
G1 X131.684 Y110.768 E.40933
G1 X131.32 Y110.768 E.00778
G1 X117.784 Y97.232 E.40933
G1 X117.421 Y97.232 E.00778
G1 X130.956 Y110.768 E.40933
G1 X130.593 Y110.768 E.00778
G1 X117.057 Y97.232 E.40933
G1 X116.693 Y97.232 E.00778
G1 X130.229 Y110.768 E.40933
G1 X129.865 Y110.768 E.00778
G1 X116.329 Y97.232 E.40933
G1 X115.966 Y97.232 E.00778
G1 X129.502 Y110.768 E.40933
G1 X129.138 Y110.768 E.00778
G1 X115.602 Y97.232 E.40933
G1 X115.238 Y97.232 E.00778
G1 X128.774 Y110.768 E.40933
G1 X128.411 Y110.768 E.00778
G1 X114.875 Y97.232 E.40933
G1 X114.511 Y97.232 E.00778
G1 X128.047 Y110.768 E.40933
G1 X127.683 Y110.768 E.00778
G1 X114.147 Y97.232 E.40933
G1 X113.784 Y97.232 E.00778
M73 Q3 S75
G1 X127.319 Y110.768 E.40933
G1 X126.956 Y110.768 E.00778
G1 X113.42 Y97.232 E.40933
G1 X113.056 Y97.232 E.00778
G1 X126.592 Y110.768 E.40933
G1 X126.228 Y110.768 E.00778
G1 X112.693 Y97.232 E.40933
G1 X112.329 Y97.232 E.00778
G1 X125.865 Y110.768 E.40933
G1 X125.501 Y110.768 E.00778
G1 X111.965 Y97.232 E.40933
G1 X111.602 Y97.232 E.00778
G1 X125.137 Y110.768 E.40933
G1 X124.774 Y110.768 E.00778
G1 X111.238 Y97.232 E.40933
G1 X110.874 Y97.232 E.00778
G1 X124.41 Y110.768 E.40933
G1 X124.046 Y110.768 E.00778
G1 X110.511 Y97.232 E.40933
G1 X110.147 Y97.232 E.00778
G1 X123.683 Y110.768 E.40933
G1 X123.319 Y110.768 E.00778
G1 X109.783 Y97.232 E.40933
G1 X109.419 Y97.232 E.00778
G1 X122.955 Y110.768 E.40933
G1 X122.592 Y110.768 E.00778
G1 X109.056 Y97.232 E.40933
G1 X108.692 Y97.232 E.00778
G1 X122.228 Y110.768 E.40933
G1 X121.864 Y110.768 E.00778
G1 X108.328 Y97.232 E.40933
G1 X107.965 Y97.232 E.00778
M73 P4 R75
G1 X121.501 Y110.768 E.40933
G1 X121.137 Y110.768 E.00778
M73 Q4 S75
G1 X107.601 Y97.232 E.40933
G1 X107.237 Y97.232 E.00778
G1 X120.773 Y110.768 E.40933
G1 X120.409 Y110.768 E.00778
G1 X106.874 Y97.232 E.40933
G1 X106.51 Y97.232 E.00778
G1 X120.046 Y110.768 E.40933
G1 X119.682 Y110.768 E.00778
G1 X106.146 Y97.232 E.40933
G1 X105.783 Y97.232 E.00778
G1 X119.318 Y110.768 E.40933
G1 X118.955 Y110.768 E.00778
G1 X105.419 Y97.232 E.40933
G1 X105.055 Y97.232 E.00778
G1 X118.591 Y110.768 E.40933
G1 X118.227 Y110.768 E.00778
G1 X104.692 Y97.232 E.40933
G1 X104.328 Y97.232 E.00778
G1 X117.864 Y110.768 E.40933
G1 X117.5 Y110.768 E.00778
G1 X103.964 Y97.232 E.40933
G1 X103.601 Y97.232 E.00778
G1 X117.136 Y110.768 E.40933
G1 X116.773 Y110.768 E.00778
M73 P4 R74
G1 X103.237 Y97.232 E.40933
G1 X102.873 Y97.232 E.00778
G1 X116.409 Y110.768 E.40933
G1 X116.045 Y110.768 E.00778
G1 X102.509 Y97.232 E.40933
G1 X102.146 Y97.232 E.00778
G1 X115.682 Y110.768 E.40933
G1 X115.318 Y110.768 E.00778
G1 X101.782 Y97.232 E.40933
G1 X101.418 Y97.232 E.00778
G1 X114.954 Y110.768 E.40933
G1 X114.591 Y110.768 E.00778
G1 X101.055 Y97.232 E.40933
G1 X100.691 Y97.232 E.00778
G1 X114.227 Y110.768 E.40933
G1 X113.863 Y110.768 E.00778
G1 X100.327 Y97.232 E.40933
G1 X99.964 Y97.232 E.00778
G1 X113.499 Y110.768 E.40933
G1 X113.136 Y110.768 E.00778
G1 X99.6 Y97.232 E.40933
G1 X99.236 Y97.232 E.00778
G1 X112.772 Y110.768 E.40933
G1 X112.408 Y110.768 E.00778
G1 X98.873 Y97.232 E.40933
G1 X98.509 Y97.232 E.00778
G1 X112.045 Y110.768 E.40933
G1 X111.681 Y110.768 E.00778
G1 X98.145 Y97.232 E.40933
G1 X97.782 Y97.232 E.00778
G1 X111.317 Y110.768 E.40933
G1 X110.954 Y110.768 E.00778
G1 X97.418 Y97.232 E.40933
G1 X97.054 Y97.232 E.00778
G1 X110.59 Y110.768 E.40933
G1 X110.226 Y110.768 E.00778
G1 X96.691 Y97.232 E.40933
G1 X96.327 Y97.232 E.00778
G1 X109.863 Y110.768 E.40933
G1 X109.499 Y110.768 E.00778
G1 X95.963 Y97.232 E.40933
G1 X95.599 Y97.232 E.00778
G1 X109.135 Y110.768 E.40933
G1 X108.772 Y110.768 E.00778
G1 X95.236 Y97.232 E.40933
G1 X94.872 Y97.232 E.00778
G1 X108.408 Y110.768 E.40933
