; generated by PrusaSlicer 2.5.0+MacOS-arm64 on 2023-03-15 at 20:36:32 UTC


;
;
; 

; external perimeters extrusion width = 0.65mm
; perimeters extrusion width = 0.65mm
; infill extrusion width = 0.65mm
; solid infill extrusion width = 0.65mm
; top infill extrusion width = 0.60mm
; first layer extrusion width = 0.65mm

M73 P0 R18
M73 Q0 S18
M201 X1000 Y1000 Z200 E5000 ; sets maximum accelerations, mm/sec^2
M203 X200 Y200 Z12 E120 ; sets maximum feedrates, mm / sec
M204 P1250 R1250 T1250 ; sets acceleration (P, T) and retract acceleration (R), mm/sec^2
M205 X8.00 Y8.00 Z0.40 E4.50 ; sets the jerk limits, mm/sec
M205 S0 T0 ; sets the minimum extruding and travel feed rate, mm/sec
M107
;TYPE:Custom
M862.3 P "MK3S" ; printer model check
M862.1 P0.6 ; nozzle diameter check
M115 U3.12.1 ; tell printer latest fw version
G90 ; use absolute coordinates
M83 ; extruder relative mode
M104 S220 ; set extruder temp
M140 S60 ; set bed temp
M190 S60 ; wait for bed temp
M109 S220 ; wait for extruder temp
G28 W ; home all without mesh bed level
G80 ; mesh bed leveling

G1 Z0.2 F720
G1 Y-3 F1000 ; go outside print area
G92 E0
G1 X60 E9 F1000 ; intro line
G1 X100 E12.5 F1000 ; intro line

G92 E0
M221 S95
G21 ; set units to millimeters
G90 ; use absolute coordinates
M83 ; use relative distances for extrusion
M900 K0.04 ; Filament gcode LA 1.5
M900 K18 ; Filament gcode LA 1.0
M107
;LAYER_CHANGE
;Z:0.2
;HEIGHT:0.2
;BEFORE_LAYER_CHANGE
G92 E0.0
;0.2


G1 E-.8 F2100
G1 Z.4 F720
;AFTER_LAYER_CHANGE
;0.2
G1 X82.994 Y95.38 F10800
G1 Z.2 F720
G1 E.8 F1500
M204 S800
;TYPE:Skirt/Brim
;WIDTH:0.65
G1 F1200
G1 X84.105 Y94.465 E.07266
G1 X85.404 Y93.923 E.07105
G1 X86.588 Y93.768 E.06025
G1 X163.673 Y93.781 E3.89119
G1 X164.578 Y93.92 E.0462
M73 P1 R17
M73 Q1 S18
G1 X165.49 Y94.247 E.04891
G1 X166.645 Y95.019 E.07012
G1 X167.281 Y95.714 E.04756
G1 X167.773 Y96.526 E.04794
G1 X167.974 Y97.007 E.0263
G1 X168.201 Y97.925 E.04773
G1 X168.257 Y98.613 E.03483
G1 X168.257 Y113.625 E.75781
G1 X167.865 Y115 E.0722
G1 X166.806 Y115.962 E.0722
G1 X165.65 Y116.232 E.05992
G1 X84.35 Y116.232 E4.10393
G1 X82.975 Y115.84 E.0722
G1 X82.013 Y114.781 E.0722
G1 X81.743 Y113.625 E.05992
G1 X81.743 Y98.613 E.75781
G1 X81.799 Y97.925 E.03483
G1 X82.222 Y96.535 E.07334
G1 X82.944 Y95.455 E.06557
M204 S1000
; printing object jamb.stl id:0 copy 0
;WIPE_START
G1 F8640
G1 X84.105 Y94.465 E-.35233
G1 X85.404 Y93.923 E-.32501
G1 X85.759 Y93.877 E-.08267
;WIPE_END
G1 E-.04 F2100
G1 Z.6 F720
G1 X85.299 Y110.693 F10800
G1 Z.2 F720
G1 E.8 F1500
M204 S800
;TYPE:Perimeter
;WIDTH:0.649999
G1 F1200
G1 X85.439 Y109.817 E.04477
G1 X85.476 Y109.268 E.02779
G1 X85.482 Y98.67 E.53498
G1 X85.572 Y98.199 E.02418
G1 X85.813 Y97.838 E.02191
G1 X86.174 Y97.597 E.02191
G1 X86.645 Y97.507 E.02417
G1 X163.355 Y97.507 E3.87228
G1 X163.826 Y97.597 E.02417
M73 P2 R17
M73 Q2 S18
G1 X164.187 Y97.838 E.02191
G1 X164.428 Y98.199 E.02191
G1 X164.518 Y98.67 E.02418
G1 X164.528 Y109.345 E.53886
G1 X164.571 Y109.901 E.02818
G1 X164.701 Y110.693 E.0405
G1 X164.508 Y110.688 E.00974
G1 X163.947 Y110.558 E.02908
G1 X163.411 Y110.504 E.02718
G1 X162.906 Y110.493 E.0255
G1 X86.711 Y110.504 E3.84626
G1 X86.493 Y110.509 E.01099
M73 Q2 S17
G1 X85.991 Y110.565 E.02547
G1 X85.492 Y110.688 E.02597
G1 X85.389 Y110.691 E.0052
M204 S1000
;WIPE_START
G1 F8640
G1 X85.439 Y109.817 E-.20204
G1 X85.476 Y109.268 E-.12711
G1 X85.477 Y107.402 E-.43085
;WIPE_END
G1 E-.04 F2100
G1 Z.6 F720
G1 X84.475 Y111.603 F10800
G1 Z.2 F720
G1 E.8 F1500
M204 S800
;TYPE:External perimeter
;WIDTH:0.55292
G1 F1200
G1 X84.475 Y113.112 E.06398
M204 S1000
;WIPE_START
G1 F8640
G1 X84.475 Y111.603 E-.34834
;WIPE_END
G1 E-.45166 F2100
G1 Z.6 F720
G1 X84.579 Y111.423 F10800
G1 Z.2 F720
G1 E.8 F1500
M204 S800
;WIDTH:0.590371
G1 F1200
G1 X84.475 Y111.603 E.00948
G1 X84.552 Y111.396 E.01006
;WIDTH:0.620185
G1 X84.639 Y110.917 E.02337
;WIDTH:0.649999
G1 X84.834 Y109.775 E.05852
G1 X84.868 Y109.267 E.02566
G1 X84.875 Y98.73 E.5319
G1 X84.894 Y98.456 E.01388
G1 X85.009 Y97.966 E.02542
G1 X85.275 Y97.537 E.02546
G1 X85.643 Y97.193 E.02546
G1 X86.104 Y96.984 E.02556
G1 X86.614 Y96.9 E.02608
G1 X163.293 Y96.9 E3.87068
G1 X163.569 Y96.919 E.01394
M73 P3 R17
M73 Q3 S17
G1 X164.059 Y97.034 E.02542
G1 X164.487 Y97.3 E.02546
G1 X164.832 Y97.668 E.02546
G1 X165.041 Y98.129 E.02556
G1 X165.125 Y98.639 E.02608
G1 X165.131 Y108.925 E.51922
G1 X165.145 Y109.475 E.02779
G1 X165.213 Y110.066 E.02999
G1 X165.386 Y111.092 E.05255
;WIDTH:0.620185
G1 X165.448 Y111.396 E.0149
;WIDTH:0.590371
G1 X165.525 Y111.603 E.01006
G1 X165.421 Y111.423 E.00948
;WIDTH:0.620185
G1 X165.117 Y111.361 E.0149
;WIDTH:0.649999
G1 X164.813 Y111.3 E.01567
G1 X164.445 Y111.3 E.01855
G1 X163.941 Y111.168 E.02629
G1 X163.413 Y111.111 E.02685
G1 X162.906 Y111.101 E.02556
G1 X86.711 Y111.111 E3.84626
G1 X86.262 Y111.146 E.02273
G1 X85.649 Y111.275 E.03162
G1 X85.187 Y111.3 E.02334
G1 X84.883 Y111.361 E.01567
;WIDTH:0.620185
G1 X84.667 Y111.405 E.01058
M204 S1000
;WIPE_START
G1 F8640
G1 X84.475 Y111.603 E-.06372
G1 X84.552 Y111.396 E-.05102
G1 X84.639 Y110.917 E-.11242
G1 X84.834 Y109.775 E-.26767
G1 X84.868 Y109.267 E-.11736
G1 X84.869 Y108.627 E-.1478
;WIPE_END
G1 E-.04 F2100
G1 Z.6 F720
G1 X165.525 Y113.112 F10800
G1 Z.2 F720
G1 E.8 F1500
M204 S800
;WIDTH:0.55292
G1 F1200
G1 X165.525 Y111.603 E.06398
M204 S1000
;WIPE_START
G1 F8640
G1 X165.525 Y113.112 E-.34834
;WIPE_END
G1 E-.45166 F2100
G1 Z.6 F720
G1 X162.532 Y97.689 F10800
G1 Z.2 F720
G1 E.8 F1500
M204 S800
;TYPE:Solid infill
;WIDTH:0.651112
G1 F1200
G1 X164.063 Y99.22 E.10949
G1 X164.063 Y100.081 E.04353
G1 X161.945 Y97.963 E.1515
G1 X161.085 Y97.963 E.0435
G1 X164.064 Y100.942 E.21306
G1 X164.064 Y101.802 E.04353
G1 X160.225 Y97.963 E.27461
G1 X159.365 Y97.963 E.0435
G1 X164.065 Y102.663 E.33616
G1 X164.065 Y103.524 E.04353
G1 X158.504 Y97.963 E.39772
G1 X157.644 Y97.963 E.0435
G1 X164.066 Y104.384 E.45927
G1 X164.067 Y105.245 E.04353
G1 X156.784 Y97.963 E.52082
G1 X155.924 Y97.963 E.0435
G1 X164.067 Y106.106 E.58238
G1 X164.068 Y106.966 E.04353
G1 X155.064 Y97.963 E.64393
G1 X154.204 Y97.963 E.0435
M73 Q4 S17
G1 X164.068 Y107.827 E.70549
M73 P4 R17
G1 X164.069 Y108.688 E.04353
G1 X153.344 Y97.963 E.76704
G1 X152.484 Y97.963 E.0435
G1 X164.088 Y109.567 E.82995
G1 X164.15 Y110.132 E.02871
G1 X163.738 Y110.077 E.02101
G1 X151.624 Y97.963 E.8664
G1 X150.763 Y97.963 E.0435
G1 X162.839 Y110.038 E.86363
G1 X161.979 Y110.038 E.04349
G1 X149.903 Y97.963 E.86364
G1 X149.043 Y97.963 E.0435
G1 X161.119 Y110.038 E.86365
G1 X160.259 Y110.038 E.04349
G1 X148.183 Y97.963 E.86366
G1 X147.323 Y97.963 E.0435
G1 X159.399 Y110.039 E.86367
G1 X158.539 Y110.039 E.04349
G1 X146.463 Y97.963 E.86367
G1 X145.603 Y97.963 E.0435
G1 X157.679 Y110.039 E.86368
G1 X156.819 Y110.039 E.04349
G1 X144.743 Y97.963 E.86369
G1 X143.883 Y97.963 E.0435
G1 X155.959 Y110.039 E.8637
G1 X155.099 Y110.039 E.04349
M73 P5 R17
M73 Q5 S17
G1 X143.022 Y97.963 E.86371
G1 X142.162 Y97.963 E.0435
G1 X154.239 Y110.039 E.86371
G1 X153.379 Y110.039 E.04349
G1 X141.302 Y97.963 E.86372
G1 X140.442 Y97.963 E.0435
G1 X152.519 Y110.04 E.86373
G1 X151.659 Y110.04 E.04349
G1 X139.582 Y97.963 E.86374
G1 X138.722 Y97.963 E.0435
G1 X150.799 Y110.04 E.86375
G1 X149.939 Y110.04 E.04349
G1 X137.862 Y97.963 E.86376
G1 X137.002 Y97.963 E.0435
G1 X149.079 Y110.04 E.86376
G1 X148.219 Y110.04 E.04349
G1 X136.141 Y97.963 E.86377
G1 X135.281 Y97.963 E.0435
G1 X147.359 Y110.04 E.86378
G1 X146.499 Y110.04 E.04349
G1 X134.421 Y97.963 E.86379
G1 X133.561 Y97.963 E.0435
G1 X145.639 Y110.04 E.8638
G1 X144.779 Y110.041 E.04349
M73 P6 R17
M73 Q6 S17
G1 X132.701 Y97.963 E.8638
G1 X131.841 Y97.963 E.0435
G1 X143.919 Y110.041 E.86381
G1 X143.059 Y110.041 E.04349
G1 X130.981 Y97.963 E.86382
G1 X130.121 Y97.963 E.0435
M73 P6 R16
G1 X142.199 Y110.041 E.86383
G1 X141.339 Y110.041 E.04349
G1 X129.261 Y97.963 E.86384
G1 X128.4 Y97.963 E.0435
G1 X140.479 Y110.041 E.86385
G1 X139.619 Y110.041 E.04349
G1 X127.54 Y97.963 E.86385
G1 X126.68 Y97.963 E.0435
G1 X138.759 Y110.041 E.86386
G1 X137.899 Y110.041 E.04349
G1 X125.82 Y97.963 E.86387
G1 X124.96 Y97.963 E.0435
G1 X137.039 Y110.042 E.86388
G1 X136.179 Y110.042 E.04349
G1 X124.1 Y97.963 E.86389
G1 X123.24 Y97.963 E.0435
G1 X135.319 Y110.042 E.86389
G1 X134.459 Y110.042 E.04349
M73 P7 R16
M73 Q7 S17
G1 X122.38 Y97.963 E.8639
G1 X121.52 Y97.963 E.0435
G1 X133.599 Y110.042 E.86391
G1 X132.739 Y110.042 E.04349
G1 X120.659 Y97.963 E.86392
G1 X119.799 Y97.963 E.0435
G1 X131.879 Y110.042 E.86393
G1 X131.019 Y110.042 E.04349
G1 X118.939 Y97.963 E.86394
G1 X118.079 Y97.963 E.0435
G1 X130.159 Y110.042 E.86394
G1 X129.299 Y110.043 E.04349
G1 X117.219 Y97.963 E.86395
G1 X116.359 Y97.963 E.0435
G1 X128.439 Y110.043 E.86396
G1 X127.579 Y110.043 E.04349
M73 Q7 S16
G1 X115.499 Y97.963 E.86397
G1 X114.639 Y97.963 E.0435
G1 X126.719 Y110.043 E.86398
G1 X125.859 Y110.043 E.04349
G1 X113.779 Y97.963 E.86398
G1 X112.918 Y97.963 E.0435
G1 X124.999 Y110.043 E.86399
G1 X124.139 Y110.043 E.04349
M73 P8 R16
M73 Q8 S16
G1 X112.058 Y97.963 E.864
G1 X111.198 Y97.963 E.0435
G1 X123.279 Y110.043 E.86401
G1 X122.419 Y110.044 E.04349
G1 X110.338 Y97.963 E.86402
G1 X109.478 Y97.963 E.0435
G1 X121.559 Y110.044 E.86403
G1 X120.699 Y110.044 E.04349
G1 X108.618 Y97.963 E.86403
G1 X107.758 Y97.963 E.0435
G1 X119.839 Y110.044 E.86404
G1 X118.979 Y110.044 E.04349
G1 X106.898 Y97.963 E.86405
G1 X106.038 Y97.963 E.0435
G1 X118.119 Y110.044 E.86406
G1 X117.259 Y110.044 E.04349
G1 X105.177 Y97.963 E.86407
G1 X104.317 Y97.963 E.0435
G1 X116.399 Y110.044 E.86407
G1 X115.539 Y110.044 E.04349
G1 X103.457 Y97.963 E.86408
G1 X102.597 Y97.963 E.0435
G1 X114.679 Y110.045 E.86409
M73 P9 R16
G1 X113.819 Y110.045 E.04349
M73 Q9 S16
G1 X101.737 Y97.963 E.8641
G1 X100.877 Y97.963 E.0435
G1 X112.959 Y110.045 E.86411
G1 X112.099 Y110.045 E.04349
G1 X100.017 Y97.963 E.86411
G1 X99.157 Y97.963 E.0435
G1 X111.239 Y110.045 E.86412
G1 X110.379 Y110.045 E.04349
G1 X98.297 Y97.963 E.86413
G1 X97.436 Y97.963 E.0435
G1 X109.519 Y110.045 E.86414
G1 X108.659 Y110.045 E.04349
G1 X96.576 Y97.963 E.86415
G1 X95.716 Y97.963 E.0435
G1 X107.799 Y110.045 E.86416
G1 X106.939 Y110.046 E.04349
G1 X94.856 Y97.963 E.86416
G1 X93.996 Y97.963 E.0435
G1 X106.079 Y110.046 E.86417
G1 X105.219 Y110.046 E.04349
G1 X93.136 Y97.963 E.86418
G1 X92.276 Y97.963 E.0435
M73 P10 R16
G1 X104.359 Y110.046 E.86419
G1 X103.499 Y110.046 E.04349
M73 Q10 S16
G1 X91.416 Y97.963 E.8642
G1 X90.555 Y97.963 E.0435
G1 X102.639 Y110.046 E.8642
G1 X101.779 Y110.046 E.04349
G1 X89.695 Y97.963 E.86421
G1 X88.835 Y97.963 E.0435
G1 X100.919 Y110.046 E.86422
G1 X100.059 Y110.046 E.04349
G1 X87.975 Y97.963 E.86423
G1 X87.115 Y97.963 E.0435
G1 X99.199 Y110.047 E.86424
G1 X98.339 Y110.047 E.04349
G1 X86.325 Y98.033 E.85923
G1 X86.137 Y98.162 E.01154
G1 X86.055 Y98.261 E.00649
G1 X85.995 Y98.374 E.00649
G1 X85.955 Y98.522 E.00777
G1 X97.479 Y110.047 E.82421
G1 X96.619 Y110.047 E.04349
G1 X85.937 Y99.365 E.76396
G1 X85.937 Y100.225 E.04347
G1 X95.759 Y110.047 E.70249
G1 X94.899 Y110.047 E.04349
G1 X85.936 Y101.084 E.64102
G1 X85.936 Y101.944 E.04347
G1 X94.039 Y110.047 E.57956
G1 X93.179 Y110.047 E.04349
M73 P11 R16
G1 X85.935 Y102.803 E.51809
G1 X85.934 Y103.663 E.04347
G1 X92.319 Y110.048 E.45662
G1 X91.459 Y110.048 E.04349
M73 Q11 S16
G1 X85.934 Y104.522 E.39516
G1 X85.933 Y105.382 E.04347
G1 X90.599 Y110.048 E.33369
G1 X89.739 Y110.048 E.04349
G1 X85.933 Y106.242 E.27222
G1 X85.932 Y107.101 E.04347
G1 X88.879 Y110.048 E.21076
G1 X88.019 Y110.048 E.04349
G1 X85.932 Y107.961 E.14929
G1 X85.931 Y108.82 E.04347
G1 X87.159 Y110.048 E.08782
G1 X86.586 Y110.048 E.02898
G1 X86.325 Y110.074 E.01327
G1 X85.649 Y109.398 E.04836
M204 S1000
; stop printing object jamb.stl id:0 copy 0
M106 S84.15
;LAYER_CHANGE
;Z:0.4
;HEIGHT:0.2
;BEFORE_LAYER_CHANGE
G92 E0.0
;0.4


;WIPE_START
G1 F8640
G1 X86.325 Y110.074 E-.2208
G1 X86.586 Y110.048 E-.06058
G1 X87.159 Y110.048 E-.1323
G1 X86.099 Y108.988 E-.34633
;WIPE_END
G1 E-.04 F2100
G1 Z.6 F720
;AFTER_LAYER_CHANGE
;0.4
G1 X81.743 Y108.988 F10800
G1 Z.4 F720
G1 E.8 F1500
;TYPE:Skirt/Brim
;WIDTH:0.65
G1 F3000
G1 X81.743 Y98.613 E.52372
G1 X81.799 Y97.925 E.03483
G1 X82.222 Y96.535 E.07334
G1 X82.994 Y95.38 E.07012
G1 X84.105 Y94.465 E.07266
G1 X85.404 Y93.923 E.07105
G1 X86.588 Y93.768 E.06025
G1 X163.673 Y93.781 E3.89119
G1 X164.578 Y93.92 E.0462
G1 X165.49 Y94.247 E.04891
G1 X166.645 Y95.019 E.07012
G1 X167.281 Y95.714 E.04756
G1 X167.773 Y96.526 E.04794
G1 X167.974 Y97.007 E.0263
G1 X168.201 Y97.925 E.04773
G1 X168.257 Y98.613 E.03483
G1 X168.257 Y113.625 E.75781
G1 X167.865 Y115 E.0722
G1 X166.806 Y115.962 E.0722
G1 X165.65 Y116.232 E.05992
G1 X84.35 Y116.232 E4.10393
G1 X82.975 Y115.84 E.0722
G1 X82.013 Y114.781 E.0722
G1 X81.743 Y113.625 E.05992
G1 X81.743 Y109.078 E.22954
; printing object jamb.stl id:0 copy 0
;WIPE_START
G1 F8640
G1 X81.743 Y105.786 E-.76
;WIPE_END
G1 E-.04 F2100
G1 Z.8 F720
G1 X85.282 Y110.693 F10800
G1 Z.4 F720
G1 E.8 F1500
M204 S800
;TYPE:Perimeter
;WIDTH:0.649999
G1 F2700
G1 X85.29 Y98.588 E.61102
G1 X85.387 Y98.122 E.02403
G1 X85.59 Y97.796 E.01941
M73 P11 R15
G1 X85.87 Y97.533 E.01941
G1 X86.221 Y97.374 E.01941
G1 X86.634 Y97.307 E.02117
G1 X163.294 Y97.307 E3.86968
G1 X163.437 Y97.314 E.0072
G1 X163.907 Y97.414 E.02427
G1 X164.225 Y97.611 E.01887
G1 X164.492 Y97.895 E.01971
G1 X164.651 Y98.245 E.01938
G1 X164.718 Y98.659 E.0212
G1 X164.718 Y110.693 E.60743
G1 X85.372 Y110.693 E4.00528
M204 S1000
;WIPE_START
G1 F8640
M73 P12 R15
M73 Q12 S16
G1 X85.35 Y107.401 E-.76
;WIPE_END
G1 E-.04 F2100
G1 Z.8 F720
G1 X84.475 Y113.5 F10800
G1 Z.4 F720
G1 E.8 F1500
M204 S800
;TYPE:External perimeter
;WIDTH:0.55292
G1 F2100
G1 X84.475 Y111.603 E.08042
M204 S1000
G1 X84.579 Y111.423 F10800
M204 S800
;WIDTH:0.590372
G1 F2100
G1 X84.475 Y111.603 E.00948
G1 X84.552 Y111.396 E.01006
;WIDTH:0.620186
G1 X84.614 Y107.698 E.17754
;WIDTH:0.649999
G1 X84.675 Y104 E.18671
G1 X84.675 Y98.731 E.26598
G1 X84.695 Y98.436 E.01492
G1 X84.823 Y97.889 E.02837
G1 X85.12 Y97.411 E.02843
G1 X85.531 Y97.026 E.02843
G1 X86.046 Y96.793 E.02853
G1 X86.604 Y96.7 E.02854
G1 X163.294 Y96.7 E3.87122
G1 X163.574 Y96.718 E.01414
G1 X164.138 Y96.849 E.02922
G1 X164.616 Y97.146 E.02844
G1 X164.999 Y97.556 E.02833
G1 X165.232 Y98.072 E.02855
G1 X165.325 Y98.629 E.02852
G1 X165.325 Y104 E.27112
G1 X165.386 Y107.698 E.18671
;WIDTH:0.620186
G1 X165.448 Y111.396 E.17754
;WIDTH:0.590372
G1 X165.525 Y111.603 E.01006
G1 X165.421 Y111.423 E.00948
;WIDTH:0.620186
G1 X161.723 Y111.361 E.17754
;WIDTH:0.649999
G1 X158.025 Y111.3 E.18671
G1 X91.975 Y111.3 E3.33412
G1 X88.277 Y111.361 E.18671
;WIDTH:0.620186
G1 X84.669 Y111.421 E.17322
M204 S1000
;WIPE_START
G1 F8640
G1 X84.475 Y111.603 E-.06137
G1 X84.552 Y111.396 E-.05102
G1 X84.599 Y108.592 E-.64761
;WIPE_END
G1 E-.04 F2100
G1 Z.8 F720
G1 X165.525 Y111.603 F10800
G1 Z.4 F720
G1 E.8 F1500
M204 S800
;WIDTH:0.55292
G1 F2100
G1 X165.525 Y113.5 E.08042
M204 S1000
;WIPE_START
G1 F8640
G1 X165.525 Y111.603 E-.4379
;WIPE_END
G1 E-.3621 F2100
G1 Z.8 F720
G1 X164.536 Y109.276 F10800
G1 Z.4 F720
G1 E.8 F1500
;TYPE:Solid infill
;WIDTH:0.65346
G1 F4200
G1 X163.574 Y110.237 E.06902
G1 X162.711 Y110.237 E.04383
G1 X164.263 Y108.686 E.11139
G1 X164.262 Y107.823 E.04383
G1 X161.848 Y110.237 E.17338
G1 X160.984 Y110.237 E.04383
G1 X164.262 Y106.959 E.23537
G1 X164.262 Y106.096 E.04383
G1 X160.121 Y110.237 E.29736
G1 X159.257 Y110.237 E.04383
G1 X164.262 Y105.232 E.35935
G1 X164.262 Y104.369 E.04383
G1 X158.394 Y110.237 E.42134
G1 X157.53 Y110.237 E.04383
G1 X164.262 Y103.505 E.48333
G1 X164.262 Y102.642 E.04383
G1 X156.667 Y110.237 E.54531
G1 X155.804 Y110.237 E.04383
G1 X164.262 Y101.779 E.6073
G1 X164.262 Y100.915 E.04383
M73 P13 R15
G1 X154.94 Y110.237 E.66929
G1 X154.077 Y110.237 E.04383
G1 X164.262 Y100.052 E.73128
G1 X164.262 Y99.188 E.04383
G1 X153.213 Y110.237 E.79327
G1 X152.35 Y110.237 E.04383
G1 X164.214 Y98.373 E.85178
G1 X164.112 Y98.149 E.0125
M73 Q13 S16
G1 X164.005 Y98.02 E.00852
G1 X163.833 Y97.891 E.01092
G1 X151.486 Y110.237 E.88644
