; generated by PrusaSlicer 2.5.0+MacOS-arm64 on 2023-03-14 at 12:23:58 UTC


;
;
; 

; external perimeters extrusion width = 0.65mm
; perimeters extrusion width = 0.65mm
; infill extrusion width = 0.65mm
; solid infill extrusion width = 0.65mm
; top infill extrusion width = 0.60mm
; first layer extrusion width = 0.65mm

M73 P0 R125
M73 Q0 S126
M201 X1000 Y1000 Z200 E5000 ; sets maximum accelerations, mm/sec^2
M203 X200 Y200 Z12 E120 ; sets maximum feedrates, mm / sec
M204 P1250 R1250 T1250 ; sets acceleration (P, T) and retract acceleration (R), mm/sec^2
M205 X8.00 Y8.00 Z0.40 E4.50 ; sets the jerk limits, mm/sec
M205 S0 T0 ; sets the minimum extruding and travel feed rate, mm/sec
M107
;TYPE:Custom
M862.3 P "MK3S" ; printer model check
M862.1 P0.6 ; nozzle diameter check
M115 U3.12.1 ; tell printer latest fw version
G90 ; use absolute coordinates
M83 ; extruder relative mode
M104 S230 ; set extruder temp
M140 S60 ; set bed temp
M190 S60 ; wait for bed temp
M109 S230 ; wait for extruder temp
G28 W ; home all without mesh bed level
G80 ; mesh bed leveling

G1 Z0.2 F720
G1 Y-3 F1000 ; go outside print area
G92 E0
G1 X60 E9 F1000 ; intro line
G1 X100 E12.5 F1000 ; intro line

G92 E0
M221 S95
G21 ; set units to millimeters
G90 ; use absolute coordinates
M83 ; use relative distances for extrusion
M900 K0.04 ; Filament gcode LA 1.5
M900 K18 ; Filament gcode LA 1.0
M107
;LAYER_CHANGE
;Z:0.2
;HEIGHT:0.2
;BEFORE_LAYER_CHANGE
G92 E0.0
;0.2


G1 E-.8 F2100
G1 Z.4 F720
;AFTER_LAYER_CHANGE
;0.2
G1 X103.574 Y89.494 F10800
G1 Z.2 F720
G1 E.8 F1500
M204 S800
;TYPE:Skirt/Brim
;WIDTH:0.65
G1 F1200
G1 X104.134 Y88.977 E.03849
G1 X105.111 Y88.505 E.05477
G1 X106.246 Y88.343 E.05786
G1 X147.491 Y88.313 E2.082
G1 X148.203 Y88.364 E.03603
G1 X148.859 Y88.526 E.03414
G1 X149.411 Y88.776 E.03056
G1 X149.883 Y89.107 E.0291
G1 X150.417 Y89.698 E.0402
G1 X150.664 Y90.135 E.02533
G1 X150.854 Y90.684 E.02932
G1 X150.936 Y91.251 E.02892
G1 X150.951 Y118.73 E1.38715
G1 X150.829 Y119.45 E.03684
G1 X150.617 Y119.976 E.02863
G1 X150.26 Y120.512 E.0325
G1 X149.701 Y121.032 E.03854
G1 X148.713 Y121.51 E.05543
G1 X147.574 Y121.672 E.05802
G1 X106.275 Y121.687 E2.08474
G1 X105.421 Y121.599 E.04333
G1 X104.62 Y121.33 E.04265
G1 X103.981 Y120.924 E.03823
G1 X103.472 Y120.387 E.03738
G1 X103.044 Y119.563 E.04686
G1 X102.888 Y118.602 E.04915
G1 X102.873 Y91.431 E1.37153
G1 X102.946 Y90.765 E.03386
G1 X103.198 Y90.063 E.0376
G1 X103.524 Y89.569 E.0299
M204 S1000
; printing object SmartTemperatureTower_PLA_Plus_195-235.stl id:0 copy 0
;WIPE_START
G1 F8640
G1 X104.134 Y88.977 E-.19628
G1 X105.111 Y88.505 E-.25052
G1 X106.246 Y88.343 E-.26469
G1 X106.456 Y88.343 E-.04851
;WIPE_END
G1 E-.04 F2100
G1 Z.6 F720
G1 X141.714 Y105.663 F10800
G1 Z.2 F720
G1 E.8 F1500
M204 S800
;TYPE:Perimeter
;WIDTH:0.651013
G1 F1200
G1 X141.916 Y105.824 E.01307
;WIDTH:0.649999
G1 X142.633 Y106.51 E.0501
G1 X143.128 Y107.068 E.03763
G1 X143.465 Y107.496 E.0275
G1 X143.746 Y107.95 E.02698
G1 X143.985 Y108.41 E.02617
G1 X144.185 Y108.969 E.02995
G1 X144.28 Y109.536 E.02905
G1 X144.273 Y110.38 E.04258
G1 X144.076 Y111.677 E.06624
G1 X144.001 Y112.47 E.04022
;WIDTH:0.678969
G1 X144 Y112.805 E.01773
;WIDTH:0.707939
G1 X143.999 Y113.141 E.01854
;WIDTH:0.753969
G1 X143.989 Y113.222 E.00485
;WIDTH:0.799999
G1 X143.979 Y113.304 E.00517
;WIDTH:0.846028
G1 X143.97 Y113.385 E.00548
;WIDTH:0.892058
G1 X143.96 Y113.467 E.00579
;WIDTH:0.938087
G1 X143.95 Y113.548 E.00611
G1 X144.112 Y114.129 E.04488
;WIDTH:0.917734
G1 X144.355 Y114.754 E.04879
;WIDTH:0.93825
G1 X144.602 Y115.228 E.0398
G1 X144.875 Y115.685 E.0396
;WIDTH:0.917248
G1 X145.195 Y116.102 E.03825
;WIDTH:0.869867
G1 X145.553 Y116.602 E.04227
G1 X146.318 Y117.578 E.08531
G1 X145.455 Y117.225 E.06415
G1 X144.969 Y116.942 E.03865
G1 X144.562 Y116.63 E.03527
;WIDTH:0.895209
G1 X144.338 Y116.377 E.02393
;WIDTH:0.920551
G1 X144.115 Y116.124 E.02464
;WIDTH:0.93825
G1 X143.806 Y115.635 E.04307
G1 X143.517 Y115.018 E.0507
;WIDTH:0.918784
G1 X143.283 Y114.368 E.05036
;WIDTH:0.938087
G1 X143.099 Y113.815 E.04338
G1 X143.039 Y113.734 E.00743
;WIDTH:0.890073
G1 X142.98 Y113.654 E.00704
;WIDTH:0.842058
G1 X142.921 Y113.573 E.00664
;WIDTH:0.794043
G1 X142.862 Y113.493 E.00624
;WIDTH:0.746029
G1 X142.803 Y113.413 E.00584
;WIDTH:0.698014
G1 X142.744 Y113.332 E.00544
;WIDTH:0.649999
G1 X142.403 Y112.685 E.03693
G1 X142 Y112.083 E.03652
G1 X141.606 Y111.607 E.03122
G1 X140.878 Y110.937 E.04994
G1 X140.324 Y110.555 E.03397
G1 X139.827 Y110.294 E.02837
G1 X139.126 Y109.993 E.03851
G1 X138.645 Y109.817 E.02583
G1 X137.548 Y109.533 E.0572
G1 X136.391 Y109.327 E.05935
G1 X135.168 Y109.175 E.06221
G1 X133.539 Y109.039 E.08248
G1 X131.831 Y108.953 E.08634
G1 X130.59 Y108.919 E.06268
;WIDTH:0.644538
G1 X130.281 Y108.936 E.01547
;WIDTH:0.595703
G1 X129.972 Y108.952 E.01421
;WIDTH:0.546868
G1 X129.456 Y108.954 E.02163
;WIDTH:0.516265
G1 X128.853 Y108.963 E.02375
;WIDTH:0.487873
G1 X127.916 Y108.958 E.03465
;WIDTH:0.498503
G1 X126.923 Y108.947 E.03765
;WIDTH:0.535686
G1 X126.342 Y108.932 E.02381
;WIDTH:0.580584
G1 X126.208 Y108.91 E.00603
;WIDTH:0.625481
G1 X126.075 Y108.888 E.00654
;WIDTH:0.670379
G1 X125.942 Y108.866 E.00704
;WIDTH:0.715277
G1 X125.809 Y108.845 E.00755
;WIDTH:0.760174
G1 X125.676 Y108.823 E.00805
;WIDTH:0.805072
G1 X125.542 Y108.801 E.00855
;WIDTH:0.849969
G1 X125.409 Y108.78 E.00906
;WIDTH:0.894867
G1 X125.276 Y108.758 E.00956
;WIDTH:0.939764
G1 X125.143 Y108.736 E.01006
G1 X124.599 Y108.76 E.04063
;WIDTH:0.937381
G1 X123.034 Y108.777 E.11634
G1 X123.636 Y108.18 E.06303
G1 X123.667 Y107.741 E.03277
G1 X123.845 Y107.803 E.01402
G1 X124.409 Y107.893 E.04252
;WIDTH:0.939764
G1 X125.065 Y107.846 E.04903
G1 X125.437 Y107.734 E.02899
G1 X125.538 Y108.081 E.0269
G1 X125.631 Y108.121 E.00751
;WIDTH:0.894867
G1 X125.723 Y108.161 E.00714
;WIDTH:0.849969
G1 X125.816 Y108.201 E.00676
;WIDTH:0.805072
G1 X125.908 Y108.241 E.00638
;WIDTH:0.760174
G1 X126.001 Y108.281 E.00601
;WIDTH:0.715277
G1 X126.093 Y108.321 E.00563
;WIDTH:0.670379
G1 X126.186 Y108.361 E.00526
;WIDTH:0.625481
G1 X126.278 Y108.401 E.00488
;WIDTH:0.580584
G1 X126.37 Y108.441 E.0045
;WIDTH:0.535686
G1 X127.373 Y108.505 E.04118
;WIDTH:0.488219
G1 X127.955 Y108.519 E.02152
;WIDTH:0.490501
G1 X128.926 Y108.516 E.03617
;WIDTH:0.517279
G1 X129.455 Y108.481 E.0209
;WIDTH:0.546868
G1 X129.956 Y108.449 E.02102
;WIDTH:0.595703
G1 X130.182 Y108.39 E.01075
;WIDTH:0.644538
G1 X130.408 Y108.33 E.0117
;WIDTH:0.649999
G1 X130.679 Y108.025 E.02062
G1 X130.774 Y107.748 E.01479
G1 X130.783 Y107.532 E.01089
G1 X131.193 Y107.684 E.02209
G1 X131.825 Y107.773 E.0322
G1 X132.364 Y107.712 E.02741
G1 X132.866 Y107.549 E.02664
G1 X133.259 Y107.311 E.02317
G1 X133.637 Y107.116 E.02149
G1 X133.857 Y107.246 E.01286
G1 X134.092 Y107.443 E.0155
G1 X134.546 Y107.661 E.02543
G1 X135.124 Y107.759 E.02961
G1 X135.434 Y107.758 E.01566
G1 X136.007 Y107.642 E.02948
G1 X136.794 Y107.261 E.04413
G1 X136.878 Y107.369 E.00691
G1 X137.049 Y107.436 E.00927
G1 X137.559 Y107.575 E.02666
G1 X139.395 Y107.789 E.0933
G1 X139.939 Y107.695 E.02788
G1 X140.503 Y107.463 E.0308
G1 X140.835 Y107.199 E.02138
G1 X141.244 Y106.781 E.02952
G1 X141.504 Y106.33 E.02629
;WIDTH:0.651013
G1 X141.687 Y105.749 E.03082
M204 S1000
;WIPE_START
G1 F8640
G1 X141.916 Y105.824 E-.05564
G1 X142.633 Y106.51 E-.22915
G1 X143.128 Y107.068 E-.17212
G1 X143.465 Y107.496 E-.12577
G1 X143.746 Y107.95 E-.12339
G1 X143.854 Y108.157 E-.05392
;WIPE_END
G1 E-.04 F2100
G1 Z.6 F720
G1 X122.715 Y105.744 F10800
G1 Z.2 F720
M73 Q0 S125
G1 E.8 F1500
M204 S800
;TYPE:External perimeter
;WIDTH:0.55292
G1 F1200
G1 X122.666 Y105.089 E.02784
G1 X122.692 Y104.251 E.03557
M204 S1000
;WIPE_START
G1 F8640
G1 X122.666 Y105.089 E-.1937
G1 X122.715 Y105.744 E-.15161
;WIPE_END
G1 E-.4547 F2100
G1 Z.6 F720
G1 X120.829 Y105.44 F10800
G1 Z.2 F720
G1 E.8 F1500
M204 S800
;WIDTH:0.628494
G1 F1200
G1 X120.836 Y104.507 E.04544
;WIDTH:0.612454
G1 X120.813 Y104.385 E.00587
;WIDTH:0.603204
G1 X120.736 Y104.255 E.00707
;WIDTH:0.578062
G1 X120.659 Y104.124 E.00675
M204 S1000
;WIPE_START
G1 F8640
G1 X120.736 Y104.255 E-.03502
G1 X120.813 Y104.385 E-.03502
G1 X120.836 Y104.507 E-.02863
G1 X120.829 Y105.44 E-.21549
;WIPE_END
G1 E-.48585 F2100
G1 Z.6 F720
G1 X117.272 Y105.408 F10800
G1 Z.2 F720
G1 E.8 F1500
M204 S800
;WIDTH:0.55292
G1 F1200
G1 X117.283 Y104.551 E.03636
;WIDTH:0.597705
G1 X117.315 Y104.469 E.00409
;WIDTH:0.642489
G1 X117.348 Y104.386 E.00442
;WIDTH:0.687274
G1 X117.381 Y104.304 E.00475
;WIDTH:0.732058
G1 X117.413 Y104.221 E.00509
G1 X117.308 Y103.986 E.01476
;WIDTH:0.696768
G1 X117.202 Y103.751 E.014
G1 X117.308 Y103.986 E.014
;WIDTH:0.732058
G1 X117.413 Y104.221 E.01476
G1 X117.479 Y104.26 E.00437
;WIDTH:0.687274
G1 X117.544 Y104.299 E.00409
;WIDTH:0.642489
G1 X117.61 Y104.338 E.0038
;WIDTH:0.597705
G1 X117.675 Y104.377 E.00352
;WIDTH:0.55292
G1 X117.885 Y104.423 E.00911
G1 X118.441 Y104.332 E.02389
G1 X118.735 Y104.327 E.01248
M204 S1000
;WIPE_START
G1 F8640
G1 X118.441 Y104.332 E-.06794
G1 X117.885 Y104.423 E-.13009
G1 X117.675 Y104.377 E-.04961
G1 X117.61 Y104.338 E-.01761
G1 X117.544 Y104.299 E-.01761
G1 X117.479 Y104.26 E-.01761
G1 X117.413 Y104.221 E-.01761
G1 X117.308 Y103.986 E-.05946
G1 X117.202 Y103.751 E-.05946
G1 X117.308 Y103.986 E-.05946
G1 X117.413 Y104.221 E-.05946
G1 X117.381 Y104.304 E-.02049
G1 X117.348 Y104.386 E-.02049
G1 X117.315 Y104.469 E-.02049
G1 X117.283 Y104.551 E-.02049
G1 X117.276 Y105.08 E-.12211
;WIPE_END
G1 E-.04 F2100
G1 Z.6 F720
G1 X115.303 Y104.327 F10800
G1 Z.2 F720
G1 E.8 F1500
M204 S800
G1 F1200
G1 X115.009 Y104.332 E.01248
G1 X114.408 Y104.427 E.0258
M204 S1000
;WIPE_START
G1 F8640
G1 X114.453 Y104.423 E-.01044
G1 X115.009 Y104.332 E-.13009
G1 X115.303 Y104.327 E-.06794
;WIPE_END
G1 E-.59152 F2100
G1 Z.6 F720
G1 X141.736 Y104.338 F10800
G1 Z.2 F720
G1 E.8 F1500
M204 S800
;TYPE:Perimeter
;WIDTH:0.649999
G1 F1200
G1 X141.411 Y103.55 E.043
G1 X141.106 Y103.259 E.02127
G1 X141.103 Y103.195 E.00322
G1 X141.427 Y102.804 E.02565
G1 X141.582 Y102.43 E.02042
G1 X141.593 Y102.223 E.01043
G1 X141.515 Y101.905 E.01653
G1 X141.42 Y101.742 E.00956
G1 X141.147 Y101.49 E.01875
G1 X140.627 Y101.151 E.03131
G1 X140.122 Y100.955 E.02735
G1 X139.553 Y100.846 E.02926
;WIDTH:0.692721
G1 X138.827 Y100.816 E.03928
G1 X137.998 Y100.989 E.04572
;WIDTH:0.657868
G1 X137.549 Y101.211 E.02563
;WIDTH:0.651186
G1 X137.082 Y101.568 E.02973
;WIDTH:0.649999
G1 X136.827 Y101.925 E.02213
G1 X136.624 Y102.389 E.02561
G1 X136.087 Y102.165 E.02936
G1 X135.718 Y102.089 E.01902
G1 X135.353 Y102.091 E.01841
G1 X135.06 Y102.141 E.01503
G1 X134.009 Y102.255 E.05337
G1 X133.52 Y102.367 E.02532
G1 X133.277 Y102.463 E.01318
G1 X133.14 Y102.4 E.00761
G1 X132.925 Y102.262 E.0129
;WIDTH:0.69771
G1 X132.834 Y102.205 E.00586
;WIDTH:0.745421
G1 X132.742 Y102.149 E.00629
;WIDTH:0.793132
G1 X132.65 Y102.092 E.00672
;WIDTH:0.840843
G1 X132.559 Y102.036 E.00714
;WIDTH:0.888553
G1 X132.467 Y101.979 E.00757
G1 X131.993 Y101.962 E.03338
;WIDTH:0.895201
G1 X131.236 Y102.042 E.0539
;WIDTH:0.908434
G1 X130.626 Y102.082 E.04402
;WIDTH:0.935851
G1 X130.328 Y102.141 E.02253
;WIDTH:0.963268
G1 X130.031 Y102.199 E.02322
G1 X129.755 Y102.144 E.02152
;WIDTH:0.930592
G1 X129.479 Y102.089 E.02076
;WIDTH:0.897916
G1 X128.898 Y102.045 E.04144
;WIDTH:0.861411
G1 X127.88 Y102.041 E.06927
;WIDTH:0.883517
G1 X126.94 Y102.092 E.06576
G1 X126.839 Y102.124 E.00743
;WIDTH:0.855447
G1 X126.738 Y102.156 E.00718
;WIDTH:0.827376
G1 X126.557 Y102.243 E.01311
;WIDTH:0.783032
G1 X126.375 Y102.33 E.01237
;WIDTH:0.738688
G1 X126.194 Y102.417 E.01163
;WIDTH:0.694344
G1 X126.013 Y102.504 E.01089
;WIDTH:0.649999
G1 X125.961 Y102.584 E.00478
G1 X125.649 Y102.362 E.01931
G1 X125.307 Y102.198 E.01915
;WIDTH:0.697298
G1 X125.135 Y102.131 E.01003
;WIDTH:0.744597
G1 X124.963 Y102.065 E.01076
;WIDTH:0.791896
G1 X124.791 Y101.999 E.01148
;WIDTH:0.806419
G1 X124.579 Y101.964 E.01363
;WIDTH:0.844048
G1 X123.987 Y102.005 E.03953
G1 X123.899 Y102.05 E.00663
;WIDTH:0.803317
G1 X123.81 Y102.095 E.0063
;WIDTH:0.762586
G1 X123.721 Y102.14 E.00596
;WIDTH:0.721854
G1 X123.485 Y102.272 E.01525
;WIDTH:0.685927
G1 X123.25 Y102.404 E.01444
;WIDTH:0.649999
G1 X122.829 Y102.783 E.02859
G1 X122.396 Y102.375 E.03005
;WIDTH:0.69825
G1 X122.269 Y102.302 E.00798
;WIDTH:0.746501
G1 X122.142 Y102.23 E.00856
;WIDTH:0.794752
G1 X122.015 Y102.157 E.00915
;WIDTH:0.843003
G1 X121.888 Y102.084 E.00974
;WIDTH:0.891253
G1 X121.761 Y102.011 E.01032
;WIDTH:0.901052
G1 X121.064 Y101.991 E.04973
G1 X120.997 Y102.04 E.00592
;WIDTH:0.85921
G1 X120.93 Y102.089 E.00563
;WIDTH:0.817368
G1 X120.863 Y102.138 E.00534
;WIDTH:0.775526
G1 X120.796 Y102.187 E.00505
;WIDTH:0.733684
G1 X120.729 Y102.235 E.00476
;WIDTH:0.691842
G1 X120.662 Y102.284 E.00447
;WIDTH:0.649999
G1 X120.207 Y102.539 E.02632
G1 X119.837 Y102.313 E.02186
G1 X119.208 Y102.096 E.03362
G1 X118.704 Y102.053 E.02551
G1 X118.423 Y102.081 E.01424
G1 X117.919 Y102.222 E.02644
G1 X117.058 Y102.719 E.05018
G1 X116.228 Y102.186 E.04978
G1 X116.012 Y102.129 E.01129
G1 X115.519 Y102.046 E.02525
G1 X114.878 Y102.072 E.03238
G1 X114.162 Y102.27 E.03753
G1 X113.646 Y102.552 E.02965
G1 X113.381 Y102.79 E.01798
G1 X113.18 Y103.192 E.02272
G1 X113.129 Y103.761 E.02881
G1 X113.273 Y104.097 E.01846
G1 X113.212 Y104.133 E.00357
G1 X112.992 Y104.659 E.02881
;WIDTH:0.644021
G1 X112.916 Y105.352 E.03482
;WIDTH:0.649999
G1 X113.001 Y105.946 E.0303
G1 X113.123 Y106.327 E.0202
G1 X113.393 Y106.816 E.02818
G1 X113.618 Y107.1 E.01834
G1 X114.055 Y107.416 E.0272
G1 X114.53 Y107.649 E.02667
G1 X115.1 Y107.769 E.02945
G1 X115.646 Y107.779 E.02752
G1 X116.212 Y107.675 E.02904
G1 X116.809 Y107.384 E.03354
G1 X117.222 Y106.977 E.02928
G1 X117.719 Y107.435 E.03414
G1 X118.046 Y107.601 E.01852
G1 X118.55 Y107.74 E.02636
G1 X119.115 Y107.773 E.02857
G1 X119.637 Y107.674 E.02686
G1 X120.099 Y107.458 E.02575
G1 X120.05 Y107.976 E.02626
G1 X120.097 Y108.195 E.0113
G1 X120.351 Y108.574 E.02305
;WIDTH:0.69157
G1 X120.454 Y108.64 E.00662
;WIDTH:0.733141
G1 X120.558 Y108.707 E.00705
;WIDTH:0.774711
G1 X120.661 Y108.773 E.00747
;WIDTH:0.816282
G1 X120.765 Y108.839 E.0079
;WIDTH:0.857852
G1 X120.868 Y108.905 E.00832
G1 X120.732 Y108.936 E.00947
;WIDTH:0.816282
G1 X120.595 Y108.966 E.00899
;WIDTH:0.774711
G1 X120.459 Y108.997 E.00851
;WIDTH:0.733141
G1 X120.323 Y109.028 E.00802
;WIDTH:0.69157
G1 X120.186 Y109.058 E.00754
;WIDTH:0.649999
G1 X119.153 Y109.133 E.05228
G1 X117.67 Y109.302 E.07537
G1 X116.411 Y109.515 E.06442
G1 X115.153 Y109.845 E.06568
G1 X114.419 Y110.106 E.03932
G1 X113.797 Y110.406 E.03482
G1 X113.404 Y110.644 E.02318
G1 X112.875 Y111.02 E.03281
G1 X112.389 Y111.454 E.03289
G1 X111.774 Y112.18 E.04802
G1 X111.388 Y112.776 E.03586
G1 X111.095 Y113.342 E.03217
;WIDTH:0.693227
G1 X111.044 Y113.41 E.0046
;WIDTH:0.736455
G1 X110.992 Y113.478 E.00491
;WIDTH:0.779683
G1 X110.941 Y113.546 E.00522
;WIDTH:0.822911
G1 X110.889 Y113.613 E.00552
;WIDTH:0.866139
G1 X110.838 Y113.681 E.00583
;WIDTH:0.895708
G1 X110.762 Y113.828 E.01173
;WIDTH:0.925276
G1 X110.687 Y113.975 E.01213
G1 X110.515 Y114.495 E.04017
;WIDTH:0.929053
G1 X110.303 Y115.064 E.04473
;WIDTH:0.930841
G1 X109.995 Y115.723 E.05366
G1 X109.63 Y116.252 E.04748
;WIDTH:0.912064
G1 X109.232 Y116.684 E.04245
;WIDTH:0.870066
G1 X108.677 Y117.069 E.04647
G1 X107.994 Y117.421 E.05282
G1 X107.523 Y117.593 E.03447
G1 X108.313 Y116.582 E.0882
G1 X108.646 Y116.114 E.03952
;WIDTH:0.895102
G1 X108.816 Y115.89 E.01994
;WIDTH:0.920138
G1 X108.986 Y115.665 E.02053
;WIDTH:0.931169
G1 X109.251 Y115.239 E.0371
G1 X109.494 Y114.703 E.04344
;WIDTH:0.929053
G1 X109.742 Y114.101 E.04793
;WIDTH:0.938148
G1 X109.889 Y113.558 E.04189
G1 X109.877 Y113.466 E.00695
;WIDTH:0.890124
G1 X109.865 Y113.373 E.00658
;WIDTH:0.842099
G1 X109.852 Y113.281 E.0062
;WIDTH:0.794074
G1 X109.84 Y113.188 E.00583
;WIDTH:0.746049
G1 X109.828 Y113.095 E.00546
;WIDTH:0.698024
G1 X109.816 Y113.003 E.00509
;WIDTH:0.649999
G1 X109.828 Y112.307 E.03515
G1 X109.756 Y111.65 E.03332
G1 X109.571 Y110.47 E.06033
G1 X109.533 Y109.763 E.03575
