; generated by PrusaSlicer 2.5.0+MacOS-arm64 on 2023-03-08 at 19:02:48 UTC


;
;
; 

; external perimeters extrusion width = 0.65mm
; perimeters extrusion width = 0.65mm
; infill extrusion width = 0.65mm
; solid infill extrusion width = 0.65mm
; top infill extrusion width = 0.60mm
; first layer extrusion width = 0.65mm

M73 P0 R87
M73 Q0 S88
M201 X1000 Y1000 Z200 E5000 ; sets maximum accelerations, mm/sec^2
M203 X200 Y200 Z12 E120 ; sets maximum feedrates, mm / sec
M204 P1250 R1250 T1250 ; sets acceleration (P, T) and retract acceleration (R), mm/sec^2
M205 X8.00 Y8.00 Z0.40 E4.50 ; sets the jerk limits, mm/sec
M205 S0 T0 ; sets the minimum extruding and travel feed rate, mm/sec
M107
;TYPE:Custom
M862.3 P "MK3S" ; printer model check
M862.1 P0.6 ; nozzle diameter check
M115 U3.11.0 ; tell printer latest fw version
G90 ; use absolute coordinates
M83 ; extruder relative mode
M104 S185 ; set extruder temp
M140 S60 ; set bed temp
M190 S60 ; wait for bed temp
M109 S185 ; wait for extruder temp
G28 W ; home all without mesh bed level
G80 ; mesh bed leveling

G1 Z0.2 F720
G1 Y-3 F1000 ; go outside print area
G92 E0
G1 X60 E9 F1000 ; intro line
G1 X100 E12.5 F1000 ; intro line

G92 E0
M221 S95
G21 ; set units to millimeters
G90 ; use absolute coordinates
M83 ; use relative distances for extrusion
M900 K0.04 ; Filament gcode LA 1.5
M900 K18 ; Filament gcode LA 1.0
M107
;LAYER_CHANGE
;Z:0.2
;HEIGHT:0.2
;BEFORE_LAYER_CHANGE
G92 E0.0
;0.2


M73 Q0 S87
G1 E-.8 F2100
G1 Z.4 F720
;AFTER_LAYER_CHANGE
;0.2
G1 X101.811 Y89.327 F10800
G1 Z.2 F720
G1 E.8 F1500
M204 S800
;TYPE:Skirt/Brim
;WIDTH:0.65
G1 F1200
G1 X102.269 Y88.945 E.03011
G1 X103.143 Y88.522 E.049
G1 X104.375 Y88.343 E.06286
G1 X145.611 Y88.313 E2.08153
G1 X146.295 Y88.366 E.03463
G1 X146.935 Y88.523 E.03329
G1 X147.94 Y89.082 E.05804
G1 X148.346 Y89.489 E.02898
G1 X148.672 Y89.977 E.02963
G1 X148.892 Y90.507 E.029
G1 X149.014 Y91.151 E.03308
G1 X149.032 Y118.794 E1.3954
G1 X148.918 Y119.442 E.03319
G1 X148.682 Y120.017 E.03139
G1 X148.204 Y120.671 E.04088
G1 X147.703 Y121.089 E.03291
G1 X147.243 Y121.345 E.0266
G1 X146.646 Y121.551 E.03186
G1 X145.629 Y121.671 E.0517
G1 X104.264 Y121.685 E2.08806
G1 X103.404 Y121.575 E.04378
G1 X102.709 Y121.331 E.03716
G1 X102.038 Y120.9 E.04026
G1 X101.504 Y120.312 E.04011
G1 X101.113 Y119.51 E.04505
G1 X100.974 Y118.602 E.04636
G1 X100.959 Y91.431 E1.37153
G1 X101.033 Y90.764 E.03387
G1 X101.317 Y89.999 E.0412
G1 X101.758 Y89.4 E.03757
M204 S1000
; printing object temperature-tower-170-210.stl id:0 copy 0
;WIPE_START
G1 F8640
G1 X102.269 Y88.945 E-.158
G1 X103.143 Y88.522 E-.22415
G1 X104.375 Y88.343 E-.28754
G1 X104.767 Y88.342 E-.09031
;WIPE_END
G1 E-.04 F2100
G1 Z.6 F720
G1 X121.121 Y108.777 F10800
G1 Z.2 F720
G1 E.8 F1500
M204 S800
;TYPE:Perimeter
;WIDTH:0.937874
G1 F1200
G1 X121.723 Y108.18 E.06306
G1 X121.754 Y107.735 E.03319
G1 X122.029 Y107.833 E.02175
G1 X122.503 Y107.892 E.03557
;WIDTH:0.920518
G1 X122.868 Y107.88 E.02665
;WIDTH:0.94719
G1 X123.516 Y107.742 E.04975
G1 X123.617 Y108.075 E.02618
G1 X123.682 Y108.116 E.00578
;WIDTH:0.898979
G1 X123.747 Y108.157 E.00547
;WIDTH:0.850768
G1 X123.812 Y108.198 E.00516
;WIDTH:0.802557
G1 X123.877 Y108.239 E.00486
;WIDTH:0.754346
G1 X123.942 Y108.28 E.00455
;WIDTH:0.706135
G1 X124.007 Y108.322 E.00424
;WIDTH:0.657924
G1 X124.157 Y108.361 E.00793
;WIDTH:0.617178
G1 X124.307 Y108.401 E.0074
;WIDTH:0.576432
G1 X124.457 Y108.441 E.00688
;WIDTH:0.535686
G1 X125.461 Y108.505 E.04124
;WIDTH:0.488205
G1 X126.041 Y108.519 E.02147
;WIDTH:0.491512
G1 X127.013 Y108.517 E.03625
;WIDTH:0.518491
G1 X127.527 Y108.483 E.02039
;WIDTH:0.54547
G1 X128.042 Y108.449 E.02155
;WIDTH:0.594928
G1 X128.268 Y108.39 E.0107
;WIDTH:0.644386
G1 X128.493 Y108.331 E.01166
;WIDTH:0.649999
G1 X128.803 Y107.947 E.0249
G1 X128.872 Y107.545 E.0206
G1 X129.198 Y107.659 E.01741
G1 X129.447 Y107.717 E.01293
G1 X129.987 Y107.765 E.02735
G1 X130.408 Y107.727 E.02134
G1 X130.983 Y107.539 E.03052
G1 X131.72 Y107.116 E.04291
G1 X131.993 Y107.312 E.01693
G1 X132.472 Y107.603 E.02831
G1 X133.167 Y107.753 E.03586
G1 X133.519 Y107.759 E.01778
G1 X134.094 Y107.641 E.02962
G1 X134.881 Y107.261 E.04411
G1 X134.965 Y107.369 E.00694
G1 X135.139 Y107.436 E.00937
G1 X135.826 Y107.605 E.03575
G1 X136.708 Y107.696 E.04477
G1 X137.241 Y107.783 E.02723
G1 X137.915 Y107.728 E.03415
G1 X138.527 Y107.493 E.03312
G1 X138.78 Y107.332 E.01513
G1 X139.15 Y106.995 E.02527
G1 X139.468 Y106.562 E.02711
G1 X139.592 Y106.329 E.01332
;WIDTH:0.659898
G1 X139.817 Y105.673 E.03557
G1 X140.004 Y105.823 E.01226
;WIDTH:0.649999
G1 X140.585 Y106.373 E.04041
G1 X141.282 Y107.145 E.05251
G1 X141.789 Y107.853 E.04396
G1 X142.122 Y108.495 E.03653
G1 X142.31 Y109.082 E.03108
G1 X142.385 Y109.639 E.0284
G1 X142.351 Y110.46 E.04145
G1 X142.124 Y111.966 E.07687
G1 X142.083 Y112.625 E.03333
;WIDTH:0.678913
G1 X142.083 Y112.877 E.01336
;WIDTH:0.707827
G1 X142.084 Y113.13 E.01396
;WIDTH:0.753878
G1 X142.074 Y113.213 E.00498
;WIDTH:0.799929
G1 X142.065 Y113.297 E.0053
;WIDTH:0.84598
G1 X142.055 Y113.381 E.00562
;WIDTH:0.892031
G1 X142.046 Y113.464 E.00594
;WIDTH:0.938082
G1 X142.036 Y113.548 E.00627
G1 X142.205 Y114.145 E.04619
;WIDTH:0.933733
G1 X142.633 Y115.141 E.08027
G1 X142.911 Y115.597 E.03958
;WIDTH:0.929164
G1 X143.245 Y116.085 E.04354
;WIDTH:0.900154
G1 X143.627 Y116.612 E.0464
G1 X144.36 Y117.546 E.08465
G1 X143.942 Y117.394 E.03168
G1 X143.056 Y116.924 E.0715
G1 X142.511 Y116.486 E.04988
;WIDTH:0.929164
G1 X142.156 Y116.062 E.04073
;WIDTH:0.933733
G1 X141.844 Y115.551 E.04436
G1 X141.609 Y115.025 E.04269
;WIDTH:0.924403
G1 X141.369 Y114.367 E.05128
;WIDTH:0.938082
G1 X141.185 Y113.815 E.04334
G1 X141.126 Y113.734 E.00744
;WIDTH:0.890069
G1 X141.067 Y113.654 E.00704
;WIDTH:0.842055
G1 X141.007 Y113.573 E.00664
;WIDTH:0.794041
G1 X140.948 Y113.493 E.00624
;WIDTH:0.746027
G1 X140.889 Y113.413 E.00584
;WIDTH:0.698013
G1 X140.83 Y113.332 E.00544
;WIDTH:0.649999
G1 X140.489 Y112.685 E.03693
G1 X140.075 Y112.07 E.03741
G1 X139.442 Y111.351 E.04836
G1 X138.851 Y110.852 E.03904
G1 X138.125 Y110.396 E.04327
G1 X137.407 Y110.057 E.04009
G1 X136.731 Y109.823 E.03611
G1 X136.11 Y109.653 E.03248
G1 X135.446 Y109.495 E.03445
G1 X134.207 Y109.288 E.06341
G1 X133 Y109.149 E.06135
G1 X131.327 Y109.021 E.08469
G1 X129.907 Y108.952 E.07179
G1 X128.673 Y108.918 E.06228
;WIDTH:0.644386
G1 X128.416 Y108.929 E.01287
;WIDTH:0.608248
G1 X128.159 Y108.94 E.01209
;WIDTH:0.57211
G1 X127.902 Y108.951 E.01132
;WIDTH:0.535972
G1 X126.939 Y108.965 E.0395
;WIDTH:0.488822
G1 X126.002 Y108.958 E.03472
;WIDTH:0.498503
G1 X125.009 Y108.947 E.03764
;WIDTH:0.535686
G1 X124.428 Y108.932 E.02381
;WIDTH:0.576432
G1 X124.226 Y108.912 E.00899
;WIDTH:0.617178
G1 X124.024 Y108.893 E.00968
;WIDTH:0.657924
G1 X123.823 Y108.874 E.01036
;WIDTH:0.706135
G1 X123.722 Y108.85 E.00572
;WIDTH:0.754346
G1 X123.621 Y108.827 E.00613
;WIDTH:0.802557
G1 X123.52 Y108.803 E.00655
;WIDTH:0.850768
G1 X123.419 Y108.78 E.00696
;WIDTH:0.898979
G1 X123.318 Y108.756 E.00738
;WIDTH:0.94719
G1 X123.217 Y108.732 E.00779
G1 X122.685 Y108.759 E.04006
;WIDTH:0.937874
G1 X121.211 Y108.775 E.10968
M204 S1000
;WIPE_START
G1 F8640
G1 X121.723 Y108.18 E-.18118
G1 X121.754 Y107.735 E-.10297
G1 X122.029 Y107.833 E-.06748
G1 X122.503 Y107.892 E-.11036
G1 X122.868 Y107.88 E-.08431
G1 X123.516 Y107.742 E-.15278
G1 X123.593 Y107.994 E-.06092
;WIPE_END
G1 E-.04 F2100
G1 Z.6 F720
G1 X120.802 Y105.744 F10800
G1 Z.2 F720
G1 E.8 F1500
M204 S800
;TYPE:External perimeter
;WIDTH:0.55292
G1 F1200
G1 X120.752 Y105.089 E.02785
G1 X120.779 Y104.251 E.03557
M204 S1000
;WIPE_START
G1 F8640
G1 X120.752 Y105.089 E-.19366
G1 X120.802 Y105.744 E-.15166
;WIPE_END
G1 E-.45468 F2100
G1 Z.6 F720
G1 X118.921 Y105.33 F10800
G1 Z.2 F720
G1 E.8 F1500
M204 S800
;WIDTH:0.616002
G1 F1200
G1 X118.929 Y104.723 E.02892
;WIDTH:0.62491
G1 X118.898 Y104.396 E.01591
G1 X118.822 Y104.26 E.00755
;WIDTH:0.588915
G1 X118.745 Y104.124 E.00708
M204 S1000
;WIPE_START
G1 F8640
G1 X118.822 Y104.26 E-.03603
G1 X118.898 Y104.396 E-.03603
G1 X118.929 Y104.723 E-.07589
G1 X118.921 Y105.33 E-.14015
;WIPE_END
G1 E-.51189 F2100
G1 Z.6 F720
G1 X115.355 Y105.496 F10800
G1 Z.2 F720
G1 E.8 F1500
M204 S800
;WIDTH:0.55292
G1 F1200
G1 X115.381 Y104.467 E.04365
;WIDTH:0.597705
G1 X115.411 Y104.406 E.00315
;WIDTH:0.64249
G1 X115.44 Y104.344 E.00341
;WIDTH:0.687275
G1 X115.47 Y104.283 E.00366
;WIDTH:0.73206
G1 X115.5 Y104.221 E.00392
G1 X115.394 Y103.986 E.01476
;WIDTH:0.696768
G1 X115.289 Y103.751 E.014
G1 X115.394 Y103.986 E.014
;WIDTH:0.73206
G1 X115.5 Y104.221 E.01476
G1 X115.565 Y104.26 E.00437
;WIDTH:0.687275
G1 X115.631 Y104.299 E.00409
;WIDTH:0.64249
G1 X115.696 Y104.338 E.0038
;WIDTH:0.597705
G1 X115.762 Y104.377 E.00352
;WIDTH:0.55292
G1 X115.972 Y104.423 E.00911
G1 X116.528 Y104.332 E.02389
G1 X116.822 Y104.327 E.01248
M204 S1000
;WIPE_START
G1 F8640
G1 X116.528 Y104.332 E-.06795
G1 X115.972 Y104.423 E-.13009
G1 X115.762 Y104.377 E-.04961
G1 X115.696 Y104.338 E-.01761
G1 X115.631 Y104.299 E-.01761
G1 X115.565 Y104.26 E-.01761
G1 X115.5 Y104.221 E-.01761
G1 X115.394 Y103.986 E-.05946
G1 X115.289 Y103.751 E-.05946
G1 X115.394 Y103.986 E-.05946
G1 X115.5 Y104.221 E-.05946
G1 X115.47 Y104.283 E-.01578
G1 X115.44 Y104.344 E-.01578
G1 X115.411 Y104.406 E-.01578
G1 X115.381 Y104.467 E-.01578
G1 X115.359 Y104.973 E-.11673
G1 X115.358 Y105.077 E-.0242
;WIPE_END
G1 E-.04 F2100
G1 Z.6 F720
G1 X113.39 Y104.327 F10800
G1 Z.2 F720
G1 E.8 F1500
M204 S800
G1 F1200
G1 X113.096 Y104.332 E.01248
G1 X112.494 Y104.427 E.0258
M204 S1000
;WIPE_START
G1 F8640
G1 X112.54 Y104.423 E-.01044
G1 X113.096 Y104.332 E-.13009
G1 X113.39 Y104.327 E-.06795
;WIPE_END
G1 E-.59152 F2100
G1 Z.6 F720
G1 X110.314 Y105.469 F10800
G1 Z.2 F720
G1 E.8 F1500
M204 S800
;TYPE:Perimeter
;WIDTH:0.649999
G1 F1200
G1 X110.39 Y105.341 E.0075
;WIDTH:0.642694
G1 X110.444 Y105.052 E.01465
;WIDTH:0.643949
G1 X110.393 Y104.689 E.01833
;WIDTH:0.649999
G1 X110.301 Y104.504 E.01044
G1 X110.171 Y104.351 E.01017
G1 X109.414 Y103.635 E.05255
G1 X108.718 Y102.863 E.05245
G1 X108.212 Y102.156 E.04391
G1 X107.88 Y101.514 E.03649
G1 X107.692 Y100.928 E.03105
G1 X107.618 Y100.37 E.0284
G1 X107.652 Y99.55 E.04147
G1 X107.879 Y98.043 E.07692
G1 X107.918 Y97.504 E.02727
;WIDTH:0.67901
G1 X107.918 Y97.195 E.01636
;WIDTH:0.708021
G1 X107.918 Y96.885 E.0171
;WIDTH:0.754046
G1 X107.928 Y96.802 E.00498
;WIDTH:0.800071
G1 X107.937 Y96.718 E.0053
;WIDTH:0.846096
G1 X107.947 Y96.634 E.00562
;WIDTH:0.892121
G1 X107.956 Y96.551 E.00595
;WIDTH:0.938145
G1 X107.966 Y96.467 E.00627
G1 X107.795 Y95.863 E.04676
;WIDTH:0.933565
G1 X107.369 Y94.874 E.07975
G1 X107.091 Y94.418 E.03957
;WIDTH:0.929279
G1 X106.757 Y93.93 E.04353
;WIDTH:0.900402
G1 X106.371 Y93.398 E.04691
G1 X105.641 Y92.468 E.08428
G1 X106.061 Y92.621 E.03185
G1 X106.946 Y93.091 E.07148
G1 X107.486 Y93.523 E.04935
;WIDTH:0.929279
G1 X107.845 Y93.953 E.04124
;WIDTH:0.933565
G1 X108.158 Y94.463 E.04434
G1 X108.393 Y94.989 E.04268
;WIDTH:0.92446
G1 X108.631 Y95.641 E.05087
;WIDTH:0.938145
G1 X108.817 Y96.199 E.04379
G1 X108.877 Y96.28 E.00743
;WIDTH:0.890121
G1 X108.936 Y96.36 E.00703
;WIDTH:0.842097
G1 X108.995 Y96.441 E.00664
;WIDTH:0.794072
G1 X109.054 Y96.521 E.00624
;WIDTH:0.746048
G1 X109.113 Y96.601 E.00584
;WIDTH:0.698024
G1 X109.173 Y96.682 E.00544
;WIDTH:0.649999
G1 X109.514 Y97.329 E.03693
G1 X109.928 Y97.944 E.03741
G1 X110.468 Y98.569 E.04172
G1 X110.772 Y98.845 E.02073
G1 X111.295 Y99.254 E.03351
G1 X111.945 Y99.648 E.03834
G1 X112.597 Y99.955 E.0364
G1 X113.501 Y100.262 E.04822
G1 X114.558 Y100.516 E.05484
G1 X115.8 Y100.722 E.06359
G1 X117.265 Y100.885 E.07439
G1 X117.859 Y100.927 E.03007
;WIDTH:0.691558
G1 X118.692 Y101.007 E.04515
;WIDTH:0.732808
G1 X118.786 Y101.033 E.00559
;WIDTH:0.774058
G1 X118.88 Y101.059 E.00592
;WIDTH:0.815307
G1 X118.974 Y101.085 E.00626
;WIDTH:0.856557
G1 X119.068 Y101.111 E.00659
;WIDTH:0.897806
G1 X119.162 Y101.138 E.00692
G1 X119.904 Y101.165 E.05283
;WIDTH:0.89092
G1 X120.027 Y101.146 E.00875
;WIDTH:0.842736
G1 X120.15 Y101.126 E.00826
;WIDTH:0.794552
G1 X120.272 Y101.107 E.00776
;WIDTH:0.746368
G1 X120.395 Y101.088 E.00726
;WIDTH:0.698184
G1 X120.518 Y101.069 E.00676
;WIDTH:0.649999
G1 X121.449 Y101.098 E.04703
;WIDTH:0.695035
G1 X121.628 Y101.124 E.00981
;WIDTH:0.740071
G1 X121.807 Y101.15 E.01049
;WIDTH:0.785107
G1 X121.986 Y101.176 E.01116
;WIDTH:0.830142
G1 X122.165 Y101.202 E.01184
G1 X122.975 Y101.198 E.05305
;WIDTH:0.791832
G1 X123.159 Y101.175 E.01152
;WIDTH:0.744555
G1 X123.343 Y101.152 E.0108
;WIDTH:0.697277
G1 X123.526 Y101.129 E.01007
;WIDTH:0.649999
G1 X124.192 Y101.132 E.03361
;WIDTH:0.698492
G1 X124.325 Y101.157 E.00736
;WIDTH:0.746984
G1 X124.457 Y101.182 E.0079
;WIDTH:0.795477
G1 X124.59 Y101.207 E.00844
;WIDTH:0.843969
G1 X124.723 Y101.231 E.00899
;WIDTH:0.892461
G1 X124.855 Y101.256 E.00953
G1 X125.45 Y101.246 E.04201
;WIDTH:0.866558
G1 X126.048 Y101.231 E.04099
;WIDTH:0.867232
G1 X127.138 Y101.227 E.07468
;WIDTH:0.91514
G1 X127.621 Y101.244 E.03505
;WIDTH:0.963047
G1 X128.104 Y101.261 E.03698
G1 X128.374 Y101.24 E.02078
;WIDTH:0.935595
G1 X128.645 Y101.218 E.02016
;WIDTH:0.908142
G1 X129.718 Y101.169 E.07727
;WIDTH:0.873815
G1 X130.235 Y101.144 E.03579
G1 X130.383 Y101.114 E.01041
;WIDTH:0.829052
G1 X130.531 Y101.084 E.00985
;WIDTH:0.784289
G1 X130.678 Y101.054 E.00929
;WIDTH:0.739526
G1 X130.826 Y101.024 E.00873
;WIDTH:0.694763
G1 X130.974 Y100.994 E.00817
;WIDTH:0.649999
G1 X131.648 Y100.959 E.0341
G1 X133.29 Y100.819 E.08316
G1 X134.835 Y100.608 E.07872
;WIDTH:0.653209
G1 X135.498 Y100.483 E.03423
;WIDTH:0.656334
G1 X136.184 Y100.326 E.03589
;WIDTH:0.681017
G1 X136.965 Y100.112 E.04295
G1 X137.775 Y99.774 E.04659
;WIDTH:0.649999
G1 X138.417 Y99.429 E.03679
G1 X138.84 Y99.133 E.02607
G1 X139.262 Y98.794 E.02733
G1 X139.685 Y98.384 E.02971
G1 X140.139 Y97.827 E.03629
G1 X140.528 Y97.224 E.03621
;WIDTH:0.652616
G1 X140.898 Y96.48 E.04213
;WIDTH:0.701646
G1 X140.962 Y96.388 E.00613
;WIDTH:0.750676
G1 X141.025 Y96.296 E.00659
;WIDTH:0.799706
G1 X141.089 Y96.204 E.00705
;WIDTH:0.848736
G1 X141.153 Y96.112 E.0075
;WIDTH:0.897766
G1 X141.216 Y96.019 E.00796
;WIDTH:0.908638
G1 X141.331 Y95.71 E.02375
;WIDTH:0.926449
G1 X141.612 Y94.932 E.06077
;WIDTH:0.933721
G1 X141.863 Y94.381 E.04485
G1 X142.183 Y93.874 E.04442
;WIDTH:0.929167
G1 X142.513 Y93.498 E.03688
;WIDTH:0.901939
G1 X143.156 Y92.99 E.05851
G1 X143.65 Y92.72 E.04019
G1 X144.331 Y92.453 E.05228
G1 X143.378 Y93.7 E.11214
;WIDTH:0.929167
G1 X142.9 Y94.391 E.06189
;WIDTH:0.933721
G1 X142.622 Y94.847 E.03959
G1 X142.427 Y95.273 E.03471
;WIDTH:0.926449
G1 X142.142 Y96.012 E.05817
;WIDTH:0.908638
G1 X142.08 Y96.269 E.01905
;WIDTH:0.897766
G1 X142.082 Y96.413 E.01022
;WIDTH:0.848213
G1 X142.084 Y96.557 E.00963
;WIDTH:0.79866
G1 X142.086 Y96.701 E.00903
;WIDTH:0.749106
G1 X142.087 Y96.844 E.00844
;WIDTH:0.699553
G1 X142.089 Y96.988 E.00785
;WIDTH:0.649999
G1 X142.093 Y97.799 E.04093
G1 X142.161 Y98.355 E.02827
G1 X142.347 Y99.539 E.06052
G1 X142.385 Y100.147 E.03075
G1 X142.342 Y100.718 E.02889
G1 X142.192 Y101.305 E.0306
G1 X141.984 Y101.77 E.02572
G1 X141.592 Y102.422 E.0384
G1 X141.041 Y103.125 E.04509
G1 X140.296 Y103.899 E.05425
G1 X139.793 Y104.363 E.03451
G1 X139.594 Y103.765 E.03177
G1 X139.18 Y103.239 E.03383
G1 X139.476 Y102.869 E.0239
G1 X139.684 Y102.433 E.02438
G1 X139.667 Y102.035 E.02012
G1 X139.519 Y101.73 E.01714
G1 X139.298 Y101.519 E.0154
G1 X138.703 Y101.14 E.03559
G1 X138.207 Y100.953 E.02678
G1 X137.639 Y100.846 E.02918
;WIDTH:0.692715
G1 X136.913 Y100.816 E.03926
G1 X136.205 Y100.949 E.03891
;WIDTH:0.653209
G1 X135.716 Y101.162 E.02704
G1 X135.166 Y101.565 E.03461
;WIDTH:0.649999
G1 X134.964 Y101.847 E.01753
G1 X134.717 Y102.392 E.03017
G1 X134.169 Y102.157 E.03008
G1 X133.772 Y102.083 E.02042
G1 X133.33 Y102.1 E.0223
G1 X132.093 Y102.254 E.06296
G1 X131.604 Y102.367 E.02532
G1 X131.364 Y102.463 E.01307
G1 X130.935 Y102.295 E.02327
;WIDTH:0.694763
G1 X130.802 Y102.231 E.00799
;WIDTH:0.739526
G1 X130.669 Y102.166 E.00854
;WIDTH:0.784289
G1 X130.536 Y102.102 E.00909
