; generated by PrusaSlicer 2.5.0+MacOS-arm64 on 2023-03-08 at 14:15:55 UTC


;
;
; 

; external perimeters extrusion width = 0.65mm
; perimeters extrusion width = 0.65mm
; infill extrusion width = 0.65mm
; solid infill extrusion width = 0.65mm
; top infill extrusion width = 0.60mm
; first layer extrusion width = 0.65mm

M73 P0 R31
M73 C26
M73 Q0 S31
M73 D26
M201 X1000 Y1000 Z200 E5000 ; sets maximum accelerations, mm/sec^2
M203 X200 Y200 Z12 E120 ; sets maximum feedrates, mm / sec
M204 P1250 R1250 T1250 ; sets acceleration (P, T) and retract acceleration (R), mm/sec^2
M205 X8.00 Y8.00 Z0.40 E4.50 ; sets the jerk limits, mm/sec
M205 S0 T0 ; sets the minimum extruding and travel feed rate, mm/sec
M107
;TYPE:Custom
M862.3 P "MK3S" ; printer model check
M862.1 P0.6 ; nozzle diameter check
M115 U3.11.0 ; tell printer latest fw version
G90 ; use absolute coordinates
M83 ; extruder relative mode
M104 S240 ; set extruder temp
M140 S85 ; set bed temp
M190 S85 ; wait for bed temp
M109 S240 ; wait for extruder temp
G28 W ; home all without mesh bed level
G80 ; mesh bed leveling

G1 Z0.2 F720
G1 Y-3 F1000 ; go outside print area
G92 E0
G1 X60 E9 F1000 ; intro line
G1 X100 E12.5 F1000 ; intro line

G92 E0
M221 S95
G21 ; set units to millimeters
G90 ; use absolute coordinates
M83 ; use relative distances for extrusion
M900 K0.04 ; Filament gcode LA 1.5
M900 K24 ; Filament gcode LA 1.0
M107
;LAYER_CHANGE
;Z:0.2
;HEIGHT:0.2
;BEFORE_LAYER_CHANGE
G92 E0.0
;0.2


G1 E-1 F2100
G1 Z.2 F720
;AFTER_LAYER_CHANGE
;0.2
G1 Z.4
G1 X105.242 Y73.386 F10800
G1 Z.2 F720
G1 E1 F1500
M204 S800
;TYPE:Skirt/Brim
;WIDTH:0.65
G1 F1200
G1 X106.27 Y72.391 E.0722
G1 X107.5 Y72.082 E.06403
G1 X142.5 Y72.082 E1.76676
G1 X143.875 Y72.474 E.0722
G1 X144.758 Y73.386 E.06403
G1 X162.258 Y103.696 E1.76676
G1 X162.606 Y105.084 E.0722
G1 X162.258 Y106.304 E.06403
G1 X144.758 Y136.614 E1.76676
G1 X143.73 Y137.609 E.0722
G1 X142.5 Y137.918 E.06403
G1 X107.5 Y137.918 E1.76676
G1 X106.125 Y137.526 E.0722
G1 X105.242 Y136.615 E.06402
G1 X87.742 Y106.304 E1.76677
G1 X87.394 Y104.916 E.0722
M73 C25
G1 X87.742 Y103.696 E.06403
G1 X105.197 Y73.464 E1.76222
M204 S1000
; printing object zari-keychain.stl id:0 copy 0
;WIPE_START
G1 F8640
G1 X106.27 Y72.391 E-.35028
G1 X107.5 Y72.082 E-.29288
G1 X108.829 Y72.082 E-.30683
;WIPE_END
G1 E-.05 F2100
G1 Z.4 F720
G1 X91.307 Y105 F10800
G1 Z.2 F720
M73 P1 R31
M73 Q1 S31
G1 E1 F1500
M204 S800
;TYPE:Perimeter
;WIDTH:0.649999
G1 F1200
G1 X108.154 Y75.821 E1.70077
G1 X141.846 Y75.821 E1.70077
M73 P1 R30
M73 D25
G1 X158.693 Y105 E1.70077
G1 X141.846 Y134.179 E1.70077
G1 X108.154 Y134.179 E1.70077
G1 X91.352 Y105.078 E1.69623
M204 S1000
M73 Q1 S30
G1 X90.606 Y105 F10800
M204 S800
;TYPE:External perimeter
G1 F1200
G1 X107.803 Y75.214 E1.73616
G1 X142.197 Y75.214 E1.73616
G1 X159.394 Y105 E1.73616
G1 X142.197 Y134.786 E1.73616
G1 X107.803 Y134.786 E1.73616
G1 X90.651 Y105.078 E1.73161
M204 S1000
M73 P2 R30
M73 Q2 S30
G1 X91.126 Y104.7 F10800
;WIPE_START
G1 F8640
G1 X92.7 Y101.51 E-.95
;WIPE_END
G1 E-.05 F2100
G1 Z.4 F720
G1 X143.446 Y78.956 F10800
G1 Z.2 F720
G1 E1 F1500
M204 S800
;TYPE:Solid infill
;WIDTH:0.653777
G1 F1200
G1 X140.766 Y76.276 E.19248
G1 X139.903 Y76.276 E.04388
G1 X143.88 Y80.254 E.28569
G1 X145.06 Y82.298 E.11988
G1 X139.039 Y76.276 E.43252
G1 X138.175 Y76.276 E.04388
G1 X146.24 Y84.342 E.57934
G1 X147.42 Y86.386 E.11988
G1 X137.311 Y76.276 E.72616
G1 X136.447 Y76.276 E.04388
G1 X148.6 Y88.43 E.87299
G1 X149.78 Y90.474 E.11988
G1 X135.583 Y76.276 E1.01981
G1 X134.719 Y76.276 E.04388
G1 X150.96 Y92.518 E1.16663
G1 X152.14 Y94.562 E.11988
G1 X133.855 Y76.276 E1.31345
G1 X132.991 Y76.276 E.04388
G1 X153.32 Y96.605 E1.46028
G1 X154.501 Y98.649 E.11988
G1 X132.128 Y76.276 E1.6071
G1 X131.264 Y76.276 E.04388
G1 X155.681 Y100.693 E1.75392
G1 X156.861 Y102.737 E.11988
G1 X130.4 Y76.276 E1.90074
G1 X129.536 Y76.276 E.04388
G1 X158.041 Y104.781 E2.04757
G1 X158.167 Y105 E.01282
M73 P3 R30
M73 Q3 S30
G1 X157.885 Y105.489 E.02869
G1 X128.672 Y76.276 E2.0984
G1 X127.808 Y76.276 E.04388
G1 X157.568 Y106.037 E2.13774
G1 X157.252 Y106.584 E.03212
G1 X126.944 Y76.276 E2.17708
G1 X126.08 Y76.276 E.04388
G1 X156.936 Y107.132 E2.21643
G1 X156.62 Y107.68 E.03212
G1 X125.217 Y76.276 E2.25577
G1 X124.353 Y76.276 E.04388
G1 X156.304 Y108.227 E2.29511
G1 X155.987 Y108.775 E.03212
G1 X123.489 Y76.276 E2.33445
G1 X122.625 Y76.276 E.04388
G1 X155.671 Y109.323 E2.37379
G1 X155.355 Y109.871 E.03212
G1 X121.761 Y76.276 E2.41313
G1 X120.897 Y76.276 E.04388
M73 P4 R30
M73 C24
M73 Q4 S30
G1 X155.039 Y110.418 E2.45247
G1 X154.723 Y110.966 E.03212
M73 P4 R29
G1 X120.033 Y76.276 E2.49181
G1 X119.169 Y76.276 E.04388
M73 D24
G1 X154.406 Y111.514 E2.53115
G1 X154.09 Y112.061 E.03212
G1 X118.305 Y76.276 E2.57049
G1 X117.442 Y76.276 E.04388
M73 Q4 S29
G1 X153.774 Y112.609 E2.60984
G1 X153.458 Y113.157 E.03212
G1 X116.578 Y76.276 E2.64918
G1 X115.714 Y76.276 E.04388
G1 X153.142 Y113.704 E2.68852
G1 X152.825 Y114.252 E.03212
M73 P5 R29
M73 Q5 S29
G1 X114.85 Y76.276 E2.72786
G1 X113.986 Y76.276 E.04388
G1 X152.509 Y114.8 E2.7672
G1 X152.193 Y115.347 E.03212
G1 X113.122 Y76.276 E2.80654
G1 X112.258 Y76.276 E.04388
G1 X151.877 Y115.895 E2.84588
G1 X151.561 Y116.443 E.03212
G1 X111.394 Y76.276 E2.88522
G1 X110.531 Y76.276 E.04388
G1 X151.244 Y116.99 E2.92456
G1 X150.928 Y117.538 E.03212
G1 X109.667 Y76.276 E2.9639
G1 X108.803 Y76.276 E.04388
M73 P6 R29
M73 Q6 S29
G1 X150.612 Y118.086 E3.00325
G1 X150.296 Y118.633 E.03212
G1 X108.242 Y76.579 E3.02084
G1 X107.925 Y77.127 E.03212
G1 X149.98 Y119.181 E3.02084
G1 X149.663 Y119.729 E.03212
G1 X107.609 Y77.675 E3.02084
G1 X107.293 Y78.222 E.03212
G1 X149.347 Y120.276 E3.02084
G1 X149.031 Y120.824 E.03212
G1 X106.977 Y78.77 E3.02084
G1 X106.661 Y79.318 E.03212
M73 P7 R29
M73 Q7 S29
G1 X148.715 Y121.372 E3.02084
G1 X148.399 Y121.919 E.03212
G1 X106.344 Y79.865 E3.02084
M73 C23
G1 X106.028 Y80.413 E.03212
M73 P7 R28
G1 X148.082 Y122.467 E3.02084
G1 X147.766 Y123.015 E.03212
M73 D23
G1 X105.712 Y80.961 E3.02084
G1 X105.396 Y81.508 E.03212
G1 X147.45 Y123.563 E3.02084
G1 X147.134 Y124.11 E.03212
M73 Q7 S28
G1 X105.08 Y82.056 E3.02084
G1 X104.763 Y82.604 E.03212
M73 P8 R28
M73 Q8 S28
G1 X146.818 Y124.658 E3.02084
G1 X146.501 Y125.206 E.03212
G1 X104.447 Y83.151 E3.02084
G1 X104.131 Y83.699 E.03212
G1 X146.185 Y125.753 E3.02084
G1 X145.869 Y126.301 E.03212
G1 X103.815 Y84.247 E3.02084
G1 X103.499 Y84.794 E.03212
G1 X145.553 Y126.849 E3.02084
G1 X145.237 Y127.396 E.03212
G1 X103.182 Y85.342 E3.02084
G1 X102.866 Y85.89 E.03212
M73 P9 R28
M73 Q9 S28
G1 X144.92 Y127.944 E3.02084
G1 X144.604 Y128.492 E.03212
G1 X102.55 Y86.437 E3.02084
G1 X102.234 Y86.985 E.03212
G1 X144.288 Y129.039 E3.02084
G1 X143.972 Y129.587 E.03212
G1 X101.918 Y87.533 E3.02084
G1 X101.601 Y88.081 E.03212
G1 X143.656 Y130.135 E3.02084
G1 X143.339 Y130.682 E.03212
G1 X101.285 Y88.628 E3.02084
G1 X100.969 Y89.176 E.03212
G1 X143.023 Y131.23 E3.02084
G1 X142.707 Y131.778 E.03212
M73 P10 R28
M73 Q10 S28
G1 X100.653 Y89.724 E3.02084
G1 X100.337 Y90.271 E.03212
G1 X142.391 Y132.325 E3.02084
G1 X142.075 Y132.873 E.03212
M73 C22
G1 X100.02 Y90.819 E3.02084
G1 X99.704 Y91.367 E.03212
M73 P10 R27
G1 X141.758 Y133.421 E3.02084
G1 X141.584 Y133.724 E.01776
M73 D22
G1 X141.197 Y133.724 E.01962
G1 X99.388 Y91.914 E3.00324
G1 X99.072 Y92.462 E.03212
G1 X140.333 Y133.724 E2.9639
G1 X139.469 Y133.724 E.04388
M73 P11 R27
M73 Q11 S27
G1 X98.756 Y93.01 E2.92456
G1 X98.439 Y93.557 E.03212
G1 X138.606 Y133.724 E2.88522
G1 X137.742 Y133.724 E.04388
G1 X98.123 Y94.105 E2.84588
G1 X97.807 Y94.653 E.03212
G1 X136.878 Y133.724 E2.80654
G1 X136.014 Y133.724 E.04388
G1 X97.491 Y95.2 E2.7672
G1 X97.175 Y95.748 E.03212
G1 X135.15 Y133.724 E2.72786
G1 X134.286 Y133.724 E.04388
M73 P12 R27
G1 X96.858 Y96.296 E2.68852
G1 X96.542 Y96.843 E.03212
M73 Q12 S27
G1 X133.422 Y133.724 E2.64918
G1 X132.558 Y133.724 E.04388
G1 X96.226 Y97.391 E2.60984
G1 X95.91 Y97.939 E.03212
G1 X131.695 Y133.724 E2.57049
G1 X130.831 Y133.724 E.04388
G1 X95.594 Y98.486 E2.53115
G1 X95.277 Y99.034 E.03212
G1 X129.967 Y133.724 E2.49181
G1 X129.103 Y133.724 E.04388
G1 X94.961 Y99.582 E2.45247
G1 X94.645 Y100.129 E.03212
G1 X128.239 Y133.724 E2.41313
G1 X127.375 Y133.724 E.04388
M73 P13 R27
M73 Q13 S27
G1 X94.329 Y100.677 E2.37379
G1 X94.013 Y101.225 E.03212
G1 X126.511 Y133.724 E2.33445
G1 X125.647 Y133.724 E.04388
G1 X93.696 Y101.773 E2.29511
G1 X93.38 Y102.32 E.03212
G1 X124.783 Y133.724 E2.25577
G1 X123.92 Y133.724 E.04388
G1 X93.064 Y102.868 E2.21643
G1 X92.748 Y103.416 E.03212
M73 C21
G1 X123.056 Y133.724 E2.17708
G1 X122.192 Y133.724 E.04388
M73 P13 R26
G1 X92.432 Y103.963 E2.13774
G1 X92.115 Y104.511 E.03212
M73 D21
G1 X121.328 Y133.724 E2.0984
G1 X120.464 Y133.724 E.04388
M73 P14 R26
M73 Q14 S27
G1 X91.959 Y105.219 E2.04756
G1 X93.139 Y107.263 E.11988
M73 Q14 S26
G1 X119.6 Y133.724 E1.90074
G1 X118.736 Y133.724 E.04388
G1 X94.319 Y109.307 E1.75392
G1 X95.499 Y111.351 E.11988
G1 X117.872 Y133.724 E1.6071
G1 X117.009 Y133.724 E.04388
G1 X96.68 Y113.395 E1.46027
G1 X97.86 Y115.438 E.11988
G1 X116.145 Y133.724 E1.31345
G1 X115.281 Y133.724 E.04388
G1 X99.04 Y117.482 E1.16663
G1 X100.22 Y119.526 E.11988
G1 X114.417 Y133.724 E1.01981
G1 X113.553 Y133.724 E.04388
G1 X101.4 Y121.57 E.87298
G1 X102.58 Y123.614 E.11988
G1 X112.689 Y133.724 E.72616
G1 X111.825 Y133.724 E.04388
G1 X103.76 Y125.658 E.57934
G1 X104.94 Y127.702 E.11988
G1 X110.961 Y133.724 E.43252
G1 X110.097 Y133.724 E.04388
G1 X106.12 Y129.746 E.28569
G1 X107.3 Y131.79 E.11988
G1 X109.507 Y133.997 E.15849
M204 S1000
; stop printing object zari-keychain.stl id:0 copy 0
;LAYER_CHANGE
;Z:0.4
;HEIGHT:0.2
;BEFORE_LAYER_CHANGE
G92 E0.0
;0.4


;WIPE_START
G1 F8640
G1 X107.3 Y131.79 E-.72051
G1 X106.803 Y130.93 E-.22949
;WIPE_END
G1 E-.05 F2100
G1 Z.4 F720
;AFTER_LAYER_CHANGE
;0.4
M104 S250 ; set temperature
M140 S90 ; set bed temperature
G1 Z.6
G1 X103.171 Y133.027 F10800
G1 Z.4 F720
G1 E1 F1500
;TYPE:Skirt/Brim
;WIDTH:0.65
G1 F3000
G1 X87.742 Y106.304 E1.55764
G1 X87.394 Y104.916 E.0722
G1 X87.742 Y103.696 E.06403
G1 X105.242 Y73.386 E1.76676
G1 X106.27 Y72.391 E.0722
M73 P15 R26
G1 X107.5 Y72.082 E.06403
G1 X142.5 Y72.082 E1.76676
G1 X143.875 Y72.474 E.0722
M73 Q15 S26
G1 X144.758 Y73.386 E.06403
G1 X162.258 Y103.696 E1.76676
G1 X162.606 Y105.084 E.0722
G1 X162.258 Y106.304 E.06403
G1 X144.758 Y136.614 E1.76676
G1 X143.73 Y137.609 E.0722
G1 X142.5 Y137.918 E.06403
G1 X107.5 Y137.918 E1.76676
G1 X106.125 Y137.526 E.0722
G1 X105.242 Y136.615 E.06402
G1 X103.216 Y133.105 E.20458
; printing object zari-keychain.stl id:0 copy 0
;WIPE_START
G1 F8640
G1 X101.159 Y129.542 E-.95
;WIPE_END
G1 E-.05 F2100
G1 Z.6 F720
G1 X91.076 Y105 F10800
G1 Z.4 F720
G1 E1 F1500
M204 S800
;TYPE:Perimeter
;WIDTH:0.649999
G1 F2700
G1 X108.038 Y75.621 E1.71243
G1 X141.962 Y75.621 E1.71243
G1 X158.924 Y105 E1.71243
G1 X141.962 Y134.379 E1.71243
G1 X108.038 Y134.379 E1.71243
G1 X91.121 Y105.078 E1.70789
M204 S1000
G1 X90.375 Y105 F10800
M204 S800
;TYPE:External perimeter
G1 F2100
G1 X107.688 Y75.014 E1.74782
G1 X142.312 Y75.014 E1.74782
G1 X159.625 Y105 E1.74782
G1 X142.312 Y134.986 E1.74782
G1 X107.688 Y134.986 E1.74782
G1 X90.42 Y105.078 E1.74327
M204 S1000
G1 X90.895 Y104.7 F10800
;WIPE_START
G1 F8640
G1 X92.469 Y101.51 E-.95
;WIPE_END
G1 E-.05 F2100
G1 Z.6 F720
G1 X143.557 Y131.252 F10800
G1 Z.4 F720
G1 E1 F1500
;TYPE:Solid infill
;WIDTH:0.652238
G1 F4200
G1 X140.885 Y133.923 E.19145
G1 X140.023 Y133.923 E.04366
G1 X143.988 Y129.959 E.28405
G1 X145.165 Y127.92 E.11928
G1 X139.162 Y133.924 E.43014
G1 X138.3 Y133.923 E.04366
G1 X146.342 Y125.881 E.57622
G1 X147.519 Y123.843 E.11928
G1 X137.438 Y133.923 E.7223
G1 X136.577 Y133.923 E.04366
G1 X148.696 Y121.804 E.86839
G1 X149.873 Y119.765 E.11928
G1 X135.715 Y133.923 E1.01447
G1 X134.853 Y133.924 E.04366
G1 X151.051 Y117.726 E1.16055
G1 X152.228 Y115.687 E.11928
G1 X133.992 Y133.923 E1.30664
G1 X133.13 Y133.923 E.04366
G1 X153.405 Y113.649 E1.45272
G1 X154.582 Y111.61 E.11928
M73 P16 R26
G1 X132.268 Y133.923 E1.5988
G1 X131.406 Y133.923 E.04366
M73 Q16 S26
G1 X155.759 Y109.571 E1.74489
G1 X156.936 Y107.532 E.11928
G1 X130.545 Y133.924 E1.89097
G1 X129.683 Y133.923 E.04366
G1 X158.113 Y105.493 E2.03706
G1 X158.398 Y105 E.02886
G1 X158.159 Y104.586 E.02423
G1 X128.821 Y133.923 E2.10207
G1 X127.96 Y133.923 E.04366
G1 X157.843 Y104.04 E2.14122
G1 X157.528 Y103.493 E.03196
G1 X127.098 Y133.923 E2.18036
G1 X126.236 Y133.924 E.04366
G1 X157.213 Y102.947 E2.2195
G1 X156.897 Y102.401 E.03196
G1 X125.374 Y133.923 E2.25865
G1 X124.513 Y133.923 E.04366
G1 X156.582 Y101.854 E2.29779
G1 X156.266 Y101.308 E.03196
G1 X123.651 Y133.923 E2.33693
G1 X122.789 Y133.924 E.04366
G1 X155.951 Y100.762 E2.37607
G1 X155.636 Y100.215 E.03196
G1 X121.928 Y133.924 E2.41522
G1 X121.066 Y133.923 E.04366
G1 X155.32 Y99.669 E2.45436
G1 X155.005 Y99.123 E.03196
G1 X120.204 Y133.923 E2.4935
G1 X119.343 Y133.923 E.04366
G1 X154.689 Y98.577 E2.53265
G1 X154.374 Y98.03 E.03196
G1 X118.481 Y133.924 E2.57179
G1 X117.619 Y133.923 E.04366
G1 X154.059 Y97.484 E2.61093
G1 X153.743 Y96.938 E.03196
G1 X116.757 Y133.923 E2.65008
G1 X115.896 Y133.923 E.04366
G1 X153.428 Y96.391 E2.68922
G1 X153.112 Y95.845 E.03196
G1 X115.034 Y133.923 E2.72836
G1 X114.172 Y133.924 E.04366
M73 C20
G1 X152.797 Y95.299 E2.7675
G1 X152.482 Y94.752 E.03196
G1 X113.311 Y133.923 E2.80665
G1 X112.449 Y133.923 E.04366
G1 X152.166 Y94.206 E2.84579
G1 X151.851 Y93.66 E.03196
G1 X111.587 Y133.923 E2.88493
G1 X110.725 Y133.923 E.04366
M73 P17 R25
G1 X151.535 Y93.114 E2.92408
G1 X151.22 Y92.567 E.03196
M73 Q17 S26
M73 D20
G1 X109.864 Y133.924 E2.96322
G1 X109.002 Y133.923 E.04366
G1 X150.905 Y92.021 E3.00236
G1 X150.589 Y91.475 E.03196
G1 X108.242 Y133.822 E3.03421
G1 X107.927 Y133.275 E.03196
G1 X150.274 Y90.928 E3.03421
G1 X149.958 Y90.382 E.03196
G1 X107.611 Y132.729 E3.03421
G1 X107.296 Y132.183 E.03196
G1 X149.643 Y89.836 E3.03421
G1 X149.328 Y89.289 E.03196
M73 Q17 S25
G1 X106.981 Y131.636 E3.03421
G1 X106.665 Y131.09 E.03196
G1 X149.012 Y88.743 E3.03421
G1 X148.697 Y88.197 E.03196
G1 X106.35 Y130.544 E3.03421
G1 X106.034 Y129.998 E.03196
G1 X148.381 Y87.651 E3.03421
G1 X148.066 Y87.104 E.03196
G1 X105.719 Y129.451 E3.03421
G1 X105.404 Y128.905 E.03196
G1 X147.75 Y86.558 E3.03421
G1 X147.435 Y86.012 E.03196
G1 X105.088 Y128.359 E3.03421
G1 X104.773 Y127.812 E.03196
G1 X147.12 Y85.465 E3.03421
G1 X146.804 Y84.919 E.03196
G1 X104.457 Y127.266 E3.03421
G1 X104.142 Y126.72 E.03196
G1 X146.489 Y84.373 E3.03421
G1 X146.173 Y83.826 E.03196
G1 X103.827 Y126.173 E3.03421
G1 X103.511 Y125.627 E.03196
G1 X145.858 Y83.28 E3.03421
G1 X145.543 Y82.734 E.03196
G1 X103.196 Y125.081 E3.03421
G1 X102.88 Y124.535 E.03196
M73 P18 R25
G1 X145.227 Y82.188 E3.03421
G1 X144.912 Y81.641 E.03196
M73 Q18 S25
G1 X102.565 Y123.988 E3.03421
G1 X102.249 Y123.442 E.03196
G1 X144.596 Y81.095 E3.03421
G1 X144.281 Y80.549 E.03196
G1 X101.934 Y122.896 E3.03421
G1 X101.619 Y122.349 E.03196
G1 X143.966 Y80.002 E3.03421
G1 X143.65 Y79.456 E.03196
G1 X101.303 Y121.803 E3.03421
G1 X100.988 Y121.257 E.03196
G1 X143.335 Y78.91 E3.03421
G1 X143.019 Y78.364 E.03196
G1 X100.672 Y120.71 E3.03421
G1 X100.357 Y120.164 E.03196
G1 X142.704 Y77.817 E3.03421
G1 X142.389 Y77.271 E.03196
G1 X100.042 Y119.618 E3.03421
G1 X99.726 Y119.072 E.03196
G1 X142.073 Y76.725 E3.03421
G1 X141.758 Y76.178 E.03196
G1 X99.411 Y118.525 E3.03421
G1 X99.095 Y117.979 E.03196
G1 X140.998 Y76.076 E3.00236
G1 X140.136 Y76.076 E.04366
G1 X98.78 Y117.433 E2.96321
G1 X98.465 Y116.886 E.03196
G1 X139.274 Y76.076 E2.92407
G1 X138.413 Y76.076 E.04366
G1 X98.149 Y116.34 E2.88493
G1 X97.834 Y115.794 E.03196
G1 X137.551 Y76.076 E2.84579
G1 X136.689 Y76.076 E.04366
G1 X97.518 Y115.247 E2.80664
G1 X97.203 Y114.701 E.03196
G1 X135.828 Y76.076 E2.7675
G1 X134.966 Y76.076 E.04366
G1 X96.888 Y114.155 E2.72836
G1 X96.572 Y113.609 E.03196
M73 P19 R25
G1 X134.104 Y76.076 E2.68921
G1 X133.243 Y76.076 E.04366
M73 Q19 S25
G1 X96.257 Y113.062 E2.65007
G1 X95.941 Y112.516 E.03196
