; generated by PrusaSlicer 2.5.0+MacOS-arm64 on 2023-03-08 at 15:50:14 UTC


;
;
; 

; external perimeters extrusion width = 0.65mm
; perimeters extrusion width = 0.65mm
; infill extrusion width = 0.65mm
; solid infill extrusion width = 0.65mm
; top infill extrusion width = 0.60mm
; first layer extrusion width = 0.65mm

M73 P0 R42
M73 Q0 S42
M201 X1000 Y1000 Z200 E5000 ; sets maximum accelerations, mm/sec^2
M203 X200 Y200 Z12 E120 ; sets maximum feedrates, mm / sec
M204 P1250 R1250 T1250 ; sets acceleration (P, T) and retract acceleration (R), mm/sec^2
M205 X8.00 Y8.00 Z0.40 E4.50 ; sets the jerk limits, mm/sec
M205 S0 T0 ; sets the minimum extruding and travel feed rate, mm/sec
M107
;TYPE:Custom
M862.3 P "MK3S" ; printer model check
M862.1 P0.6 ; nozzle diameter check
M115 U3.11.0 ; tell printer latest fw version
G90 ; use absolute coordinates
M83 ; extruder relative mode
M104 S185 ; set extruder temp
M140 S60 ; set bed temp
M190 S60 ; wait for bed temp
M109 S185 ; wait for extruder temp
G28 W ; home all without mesh bed level
G80 ; mesh bed leveling

G1 Z0.2 F720
G1 Y-3 F1000 ; go outside print area
G92 E0
G1 X60 E9 F1000 ; intro line
G1 X100 E12.5 F1000 ; intro line

G92 E0
M221 S95
G21 ; set units to millimeters
G90 ; use absolute coordinates
M83 ; use relative distances for extrusion
M900 K0.04 ; Filament gcode LA 1.5
M900 K18 ; Filament gcode LA 1.0
M107
;LAYER_CHANGE
;Z:0.2
;HEIGHT:0.2
;BEFORE_LAYER_CHANGE
G92 E0.0
;0.2


G1 E-.8 F2100
G1 Z.4 F720
;AFTER_LAYER_CHANGE
;0.2
G1 X100.971 Y23.48 F10800
G1 Z.2 F720
G1 E.8 F1500
M204 S800
;TYPE:Skirt/Brim
;WIDTH:0.65
G1 F1200
G1 X103.72 Y11.657 E.61277
G1 X103.927 Y11.083 E.03079
G1 X106.429 Y6.069 E.28284
G1 X107.395 Y5.014 E.0722
G1 X108.762 Y4.627 E.07174
G1 X152.063 Y4.627 E2.1858
G1 X153.439 Y5.019 E.0722
M73 P0 R41
G1 X154.392 Y6.062 E.07135
G1 X177.293 Y51.595 E2.57277
G1 X177.571 Y52.766 E.06077
G1 X177.571 Y138.823 E4.34404
G1 X177.222 Y140.126 E.06812
G1 X143.496 Y198.541 E3.40489
G1 X142.541 Y199.496 E.06812
G1 X132.966 Y205.024 E.55813
G1 X131.663 Y205.373 E.06812
G1 X129.163 Y205.373 E.1262
G1 X127.859 Y205.024 E.06812
G1 X117.881 Y199.209 E.583
G1 X74.579 Y161.709 E2.89154
G1 X74.028 Y161.042 E.04368
G1 X72.778 Y158.876 E.1262
G1 X72.429 Y157.573 E.06812
G1 X72.429 Y146.516 E.55813
G1 X72.497 Y145.926 E.03
M73 P1 R41
M73 Q1 S42
G1 X100.95 Y23.568 E6.3413
M204 S1000
; printing object Hex_Llama.stl id:0 copy 0
;WIPE_START
G1 F8640
G1 X101.696 Y20.362 E-.76
;WIPE_END
G1 E-.04 F2100
G1 Z.6 F720
G1 X109.276 Y64.842 F10800
G1 Z.2 F720
G1 E.8 F1500
M204 S800
;TYPE:Perimeter
;WIDTH:0.88584
G1 F1200
G1 X109.182 Y64.827 E.00669
;WIDTH:0.842116
G1 X109.088 Y64.812 E.00634
;WIDTH:0.798392
G1 X108.993 Y64.798 E.006
;WIDTH:0.754667
G1 X108.916 Y64.81 E.00462
;WIDTH:0.710944
G1 X108.839 Y64.823 E.00434
;WIDTH:0.66722
G1 X108.685 Y64.823 E.008
;WIDTH:0.710944
G1 X108.608 Y64.81 E.00434
;WIDTH:0.754667
G1 X108.531 Y64.798 E.00462
;WIDTH:0.798392
G1 X108.436 Y64.812 E.006
;WIDTH:0.842116
G1 X108.342 Y64.827 E.00634
;WIDTH:0.88584
G1 X108.248 Y64.842 E.00669
G1 X108.308 Y64.767 E.00669
;WIDTH:0.842116
G1 X108.368 Y64.693 E.00634
;WIDTH:0.798392
G1 X108.427 Y64.619 E.006
;WIDTH:0.754667
G1 X108.455 Y64.546 E.00462
;WIDTH:0.710944
G1 X108.483 Y64.473 E.00434
;WIDTH:0.66722
G1 X108.511 Y64.4 E.00405
;WIDTH:0.663303
G1 X108.551 Y64.355 E.0031
;WIDTH:0.70311
G1 X108.591 Y64.311 E.0033
;WIDTH:0.742917
G1 X108.632 Y64.266 E.00349
;WIDTH:0.782724
G1 X108.672 Y64.222 E.00369
;WIDTH:0.819715
G1 X108.702 Y64.162 E.00435
;WIDTH:0.856706
G1 X108.732 Y64.101 E.00456
;WIDTH:0.893696
G1 X108.762 Y64.041 E.00477
G1 X108.792 Y64.101 E.00477
;WIDTH:0.856706
G1 X108.822 Y64.162 E.00456
;WIDTH:0.819715
G1 X108.852 Y64.222 E.00435
;WIDTH:0.782724
G1 X108.892 Y64.266 E.00369
;WIDTH:0.742917
G1 X108.933 Y64.311 E.00349
;WIDTH:0.70311
G1 X108.973 Y64.355 E.0033
;WIDTH:0.663303
G1 X109.013 Y64.4 E.0031
;WIDTH:0.66722
G1 X109.041 Y64.473 E.00405
;WIDTH:0.710944
G1 X109.069 Y64.546 E.00434
;WIDTH:0.754667
G1 X109.097 Y64.619 E.00462
;WIDTH:0.798392
G1 X109.157 Y64.693 E.006
;WIDTH:0.842116
G1 X109.216 Y64.767 E.00634
;WIDTH:0.88584
G1 X109.22 Y64.772 E.00038
M204 S1000
;WIPE_START
G1 F8640
G1 X109.182 Y64.827 E-.0155
G1 X109.088 Y64.812 E-.02204
G1 X108.993 Y64.798 E-.02204
G1 X108.916 Y64.81 E-.01803
G1 X108.839 Y64.823 E-.01803
G1 X108.685 Y64.823 E-.0356
G1 X108.608 Y64.81 E-.01803
G1 X108.531 Y64.798 E-.01803
G1 X108.436 Y64.812 E-.02204
G1 X108.342 Y64.827 E-.02204
G1 X108.248 Y64.842 E-.02204
G1 X108.308 Y64.767 E-.02204
G1 X108.368 Y64.693 E-.02204
G1 X108.427 Y64.619 E-.02204
G1 X108.455 Y64.546 E-.01803
G1 X108.483 Y64.473 E-.01803
G1 X108.511 Y64.4 E-.01803
G1 X108.551 Y64.355 E-.01386
G1 X108.591 Y64.311 E-.01386
G1 X108.632 Y64.266 E-.01386
G1 X108.672 Y64.222 E-.01386
G1 X108.702 Y64.162 E-.01555
G1 X108.732 Y64.101 E-.01555
G1 X108.762 Y64.041 E-.01555
G1 X108.792 Y64.101 E-.01555
G1 X108.822 Y64.162 E-.01555
G1 X108.852 Y64.222 E-.01555
G1 X108.892 Y64.266 E-.01386
G1 X108.933 Y64.311 E-.01386
G1 X108.973 Y64.355 E-.01386
G1 X109.013 Y64.4 E-.01386
G1 X109.041 Y64.473 E-.01803
G1 X109.069 Y64.546 E-.01803
G1 X109.097 Y64.619 E-.01803
G1 X109.157 Y64.693 E-.02204
G1 X109.216 Y64.767 E-.02204
G1 X109.22 Y64.772 E-.00126
;WIPE_END
G1 E-.14266 F2100
G1 Z.6 F720
G1 X119.587 Y71.389 F10800
G1 Z.2 F720
G1 E.8 F1500
M204 S800
;WIDTH:0.885842
G1 F1200
G1 X119.553 Y71.3 E.00669
;WIDTH:0.842118
G1 X119.518 Y71.21 E.00634
;WIDTH:0.798394
G1 X119.484 Y71.121 E.006
;WIDTH:0.754669
G1 X119.435 Y71.061 E.00462
;WIDTH:0.710945
G1 X119.385 Y71 E.00434
;WIDTH:0.667221
G1 X119.336 Y70.94 E.00405
;WIDTH:0.663304
G1 X119.318 Y70.883 E.0031
;WIDTH:0.703111
G1 X119.299 Y70.825 E.0033
;WIDTH:0.742918
G1 X119.281 Y70.768 E.00349
;WIDTH:0.782725
G1 X119.263 Y70.711 E.00369
;WIDTH:0.819716
G1 X119.226 Y70.655 E.00435
;WIDTH:0.856707
G1 X119.188 Y70.599 E.00456
;WIDTH:0.893698
G1 X119.151 Y70.543 E.00477
G1 X119.218 Y70.547 E.00477
;WIDTH:0.856707
G1 X119.285 Y70.551 E.00456
;WIDTH:0.819716
G1 X119.353 Y70.555 E.00435
;WIDTH:0.782725
G1 X119.411 Y70.543 E.00369
;WIDTH:0.742918
G1 X119.47 Y70.53 E.00349
;WIDTH:0.703111
G1 X119.529 Y70.517 E.0033
;WIDTH:0.663304
G1 X119.587 Y70.504 E.0031
G1 X119.646 Y70.517 E.0031
;WIDTH:0.703111
G1 X119.705 Y70.53 E.0033
;WIDTH:0.742919
G1 X119.763 Y70.543 E.00349
;WIDTH:0.782726
G1 X119.822 Y70.555 E.00369
;WIDTH:0.819718
G1 X119.889 Y70.551 E.00435
;WIDTH:0.856709
G1 X119.956 Y70.547 E.00456
;WIDTH:0.8937
G1 X120.024 Y70.543 E.00477
G1 X119.986 Y70.599 E.00477
;WIDTH:0.856709
G1 X119.949 Y70.655 E.00456
;WIDTH:0.819718
G1 X119.912 Y70.711 E.00435
;WIDTH:0.782726
G1 X119.894 Y70.768 E.00369
;WIDTH:0.742919
G1 X119.875 Y70.825 E.00349
;WIDTH:0.703111
G1 X119.857 Y70.883 E.0033
;WIDTH:0.663304
G1 X119.839 Y70.94 E.0031
;WIDTH:0.667221
G1 X119.789 Y71 E.00405
;WIDTH:0.710945
G1 X119.74 Y71.061 E.00434
;WIDTH:0.754669
G1 X119.691 Y71.121 E.00462
;WIDTH:0.798394
G1 X119.656 Y71.21 E.006
;WIDTH:0.842118
G1 X119.622 Y71.3 E.00634
;WIDTH:0.885842
G1 X119.62 Y71.305 E.00038
M204 S1000
;WIPE_START
G1 F8640
G1 X119.553 Y71.3 E-.0155
G1 X119.518 Y71.21 E-.02204
G1 X119.484 Y71.121 E-.02204
G1 X119.435 Y71.061 E-.01803
G1 X119.385 Y71 E-.01803
G1 X119.336 Y70.94 E-.01803
G1 X119.318 Y70.883 E-.01386
G1 X119.299 Y70.825 E-.01386
G1 X119.281 Y70.768 E-.01386
G1 X119.263 Y70.711 E-.01386
G1 X119.226 Y70.655 E-.01555
G1 X119.188 Y70.599 E-.01555
G1 X119.151 Y70.543 E-.01555
G1 X119.218 Y70.547 E-.01555
G1 X119.285 Y70.551 E-.01555
G1 X119.353 Y70.555 E-.01555
G1 X119.411 Y70.543 E-.01386
G1 X119.47 Y70.53 E-.01386
G1 X119.529 Y70.517 E-.01386
G1 X119.587 Y70.504 E-.01386
G1 X119.646 Y70.517 E-.01386
G1 X119.705 Y70.53 E-.01386
G1 X119.763 Y70.543 E-.01386
G1 X119.822 Y70.555 E-.01386
G1 X119.889 Y70.551 E-.01555
G1 X119.956 Y70.547 E-.01555
G1 X120.024 Y70.543 E-.01555
G1 X119.986 Y70.599 E-.01555
G1 X119.949 Y70.655 E-.01555
G1 X119.912 Y70.711 E-.01555
G1 X119.894 Y70.768 E-.01386
G1 X119.875 Y70.825 E-.01386
G1 X119.857 Y70.883 E-.01386
G1 X119.839 Y70.94 E-.01386
G1 X119.789 Y71 E-.01803
G1 X119.74 Y71.061 E-.01803
G1 X119.691 Y71.121 E-.01803
G1 X119.656 Y71.21 E-.02204
G1 X119.622 Y71.3 E-.02204
G1 X119.62 Y71.305 E-.00126
;WIPE_END
G1 E-.17843 F2100
G1 Z.6 F720
G1 X120.102 Y83.592 F10800
G1 Z.2 F720
G1 E.8 F1500
M204 S800
;WIDTH:0.88584
G1 F1200
G1 X120.007 Y83.577 E.00669
;WIDTH:0.842116
G1 X119.913 Y83.562 E.00634
;WIDTH:0.798392
G1 X119.819 Y83.548 E.006
;WIDTH:0.754668
G1 X119.742 Y83.56 E.00462
;WIDTH:0.710944
G1 X119.664 Y83.573 E.00434
;WIDTH:0.66722
G1 X119.51 Y83.573 E.008
;WIDTH:0.710944
G1 X119.433 Y83.56 E.00434
;WIDTH:0.754668
G1 X119.356 Y83.548 E.00462
;WIDTH:0.798392
G1 X119.262 Y83.562 E.006
;WIDTH:0.842116
G1 X119.167 Y83.577 E.00634
;WIDTH:0.88584
G1 X119.073 Y83.592 E.00669
G1 X119.133 Y83.517 E.00669
;WIDTH:0.842116
G1 X119.193 Y83.443 E.00634
;WIDTH:0.798392
G1 X119.253 Y83.369 E.006
;WIDTH:0.754668
G1 X119.28 Y83.296 E.00462
;WIDTH:0.710944
G1 X119.308 Y83.223 E.00434
;WIDTH:0.66722
G1 X119.336 Y83.15 E.00405
;WIDTH:0.663304
G1 X119.376 Y83.105 E.0031
;WIDTH:0.703111
G1 X119.417 Y83.061 E.0033
;WIDTH:0.742918
G1 X119.457 Y83.016 E.00349
;WIDTH:0.782725
G1 X119.497 Y82.972 E.00369
;WIDTH:0.819716
G1 X119.527 Y82.912 E.00435
;WIDTH:0.856707
G1 X119.557 Y82.851 E.00456
;WIDTH:0.893698
G1 X119.587 Y82.791 E.00477
G1 X119.617 Y82.851 E.00477
;WIDTH:0.856707
G1 X119.647 Y82.912 E.00456
;WIDTH:0.819716
G1 X119.677 Y82.972 E.00435
;WIDTH:0.782725
G1 X119.718 Y83.016 E.00369
;WIDTH:0.742918
G1 X119.758 Y83.061 E.00349
;WIDTH:0.703111
G1 X119.798 Y83.105 E.0033
;WIDTH:0.663304
G1 X119.839 Y83.15 E.0031
;WIDTH:0.66722
G1 X119.866 Y83.223 E.00405
;WIDTH:0.710944
G1 X119.894 Y83.296 E.00434
;WIDTH:0.754668
G1 X119.922 Y83.369 E.00462
;WIDTH:0.798392
G1 X119.982 Y83.443 E.006
;WIDTH:0.842116
G1 X120.042 Y83.517 E.00634
;WIDTH:0.88584
G1 X120.045 Y83.522 E.00038
M204 S1000
;WIPE_START
G1 F8640
G1 X120.007 Y83.577 E-.0155
G1 X119.913 Y83.562 E-.02204
G1 X119.819 Y83.548 E-.02204
G1 X119.742 Y83.56 E-.01803
G1 X119.664 Y83.573 E-.01803
G1 X119.51 Y83.573 E-.0356
G1 X119.433 Y83.56 E-.01803
G1 X119.356 Y83.548 E-.01803
G1 X119.262 Y83.562 E-.02204
G1 X119.167 Y83.577 E-.02204
G1 X119.073 Y83.592 E-.02204
G1 X119.133 Y83.517 E-.02204
G1 X119.193 Y83.443 E-.02204
G1 X119.253 Y83.369 E-.02204
G1 X119.28 Y83.296 E-.01803
G1 X119.308 Y83.223 E-.01803
G1 X119.336 Y83.15 E-.01803
G1 X119.376 Y83.105 E-.01386
G1 X119.417 Y83.061 E-.01386
G1 X119.457 Y83.016 E-.01386
G1 X119.497 Y82.972 E-.01386
G1 X119.527 Y82.912 E-.01555
G1 X119.557 Y82.851 E-.01555
G1 X119.587 Y82.791 E-.01555
G1 X119.617 Y82.851 E-.01555
G1 X119.647 Y82.912 E-.01555
G1 X119.677 Y82.972 E-.01555
G1 X119.718 Y83.016 E-.01386
G1 X119.758 Y83.061 E-.01386
G1 X119.798 Y83.105 E-.01386
G1 X119.839 Y83.15 E-.01386
G1 X119.866 Y83.223 E-.01803
G1 X119.894 Y83.296 E-.01803
G1 X119.922 Y83.369 E-.01803
G1 X119.982 Y83.443 E-.02204
G1 X120.042 Y83.517 E-.02204
G1 X120.045 Y83.522 E-.00126
;WIPE_END
G1 E-.14266 F2100
G1 Z.6 F720
G1 X130.413 Y90.139 F10800
G1 Z.2 F720
G1 E.8 F1500
M204 S800
;WIDTH:0.885842
G1 F1200
G1 X130.378 Y90.049 E.00669
;WIDTH:0.842118
G1 X130.344 Y89.96 E.00634
;WIDTH:0.798393
G1 X130.309 Y89.871 E.006
;WIDTH:0.754668
G1 X130.26 Y89.811 E.00462
;WIDTH:0.710944
G1 X130.211 Y89.75 E.00434
;WIDTH:0.66722
G1 X130.161 Y89.69 E.00405
;WIDTH:0.663304
G1 X130.143 Y89.633 E.0031
;WIDTH:0.703111
G1 X130.125 Y89.575 E.0033
;WIDTH:0.742918
G1 X130.106 Y89.518 E.00349
;WIDTH:0.782725
G1 X130.088 Y89.461 E.00369
;WIDTH:0.819716
G1 X130.051 Y89.405 E.00435
;WIDTH:0.856707
G1 X130.014 Y89.349 E.00456
;WIDTH:0.893698
G1 X129.976 Y89.293 E.00477
G1 X130.044 Y89.297 E.00477
;WIDTH:0.856707
G1 X130.111 Y89.301 E.00456
;WIDTH:0.819716
G1 X130.178 Y89.305 E.00435
;WIDTH:0.782725
G1 X130.237 Y89.293 E.00369
;WIDTH:0.742918
G1 X130.295 Y89.28 E.00349
;WIDTH:0.703111
G1 X130.354 Y89.267 E.0033
;WIDTH:0.663304
G1 X130.413 Y89.254 E.0031
G1 X130.471 Y89.267 E.0031
;WIDTH:0.703111
G1 X130.53 Y89.28 E.0033
;WIDTH:0.742918
G1 X130.589 Y89.293 E.00349
;WIDTH:0.782725
G1 X130.647 Y89.305 E.00369
;WIDTH:0.819716
G1 X130.715 Y89.301 E.00435
;WIDTH:0.856707
G1 X130.782 Y89.297 E.00456
;WIDTH:0.893698
G1 X130.849 Y89.293 E.00477
G1 X130.812 Y89.349 E.00477
;WIDTH:0.856707
G1 X130.774 Y89.405 E.00456
;WIDTH:0.819716
G1 X130.737 Y89.461 E.00435
;WIDTH:0.782725
G1 X130.719 Y89.518 E.00369
;WIDTH:0.742918
G1 X130.701 Y89.575 E.00349
;WIDTH:0.703111
G1 X130.682 Y89.633 E.0033
;WIDTH:0.663304
G1 X130.664 Y89.69 E.0031
;WIDTH:0.66722
G1 X130.615 Y89.75 E.00405
;WIDTH:0.710944
G1 X130.565 Y89.811 E.00434
;WIDTH:0.754668
G1 X130.516 Y89.871 E.00462
;WIDTH:0.798393
G1 X130.482 Y89.96 E.006
;WIDTH:0.842118
G1 X130.447 Y90.049 E.00634
;WIDTH:0.885842
G1 X130.445 Y90.055 E.00038
M204 S1000
;WIPE_START
G1 F8640
G1 X130.378 Y90.049 E-.0155
G1 X130.344 Y89.96 E-.02204
G1 X130.309 Y89.871 E-.02204
G1 X130.26 Y89.811 E-.01803
G1 X130.211 Y89.75 E-.01803
G1 X130.161 Y89.69 E-.01803
G1 X130.143 Y89.633 E-.01386
G1 X130.125 Y89.575 E-.01386
G1 X130.106 Y89.518 E-.01386
G1 X130.088 Y89.461 E-.01386
G1 X130.051 Y89.405 E-.01555
G1 X130.014 Y89.349 E-.01555
G1 X129.976 Y89.293 E-.01555
G1 X130.044 Y89.297 E-.01555
G1 X130.111 Y89.301 E-.01555
G1 X130.178 Y89.305 E-.01555
G1 X130.237 Y89.293 E-.01386
G1 X130.295 Y89.28 E-.01386
G1 X130.354 Y89.267 E-.01386
G1 X130.413 Y89.254 E-.01386
G1 X130.471 Y89.267 E-.01386
G1 X130.53 Y89.28 E-.01386
G1 X130.589 Y89.293 E-.01386
G1 X130.647 Y89.305 E-.01386
G1 X130.715 Y89.301 E-.01555
G1 X130.782 Y89.297 E-.01555
G1 X130.849 Y89.293 E-.01555
G1 X130.812 Y89.349 E-.01555
G1 X130.774 Y89.405 E-.01555
G1 X130.737 Y89.461 E-.01555
G1 X130.719 Y89.518 E-.01386
G1 X130.701 Y89.575 E-.01386
G1 X130.682 Y89.633 E-.01386
G1 X130.664 Y89.69 E-.01386
G1 X130.615 Y89.75 E-.01803
G1 X130.565 Y89.811 E-.01803
G1 X130.516 Y89.871 E-.01803
G1 X130.482 Y89.96 E-.02204
G1 X130.447 Y90.049 E-.02204
G1 X130.445 Y90.055 E-.00126
;WIPE_END
G1 E-.17843 F2100
G1 Z.6 F720
G1 X141.752 Y83.592 F10800
G1 Z.2 F720
G1 E.8 F1500
M204 S800
;WIDTH:0.885836
G1 F1200
G1 X141.658 Y83.577 E.00669
;WIDTH:0.842113
G1 X141.564 Y83.562 E.00634
;WIDTH:0.798389
G1 X141.469 Y83.548 E.006
;WIDTH:0.754665
G1 X141.392 Y83.56 E.00462
;WIDTH:0.710942
G1 X141.315 Y83.573 E.00434
;WIDTH:0.66722
G1 X141.161 Y83.573 E.008
;WIDTH:0.710944
G1 X141.084 Y83.56 E.00434
;WIDTH:0.754668
G1 X141.007 Y83.548 E.00462
;WIDTH:0.798392
G1 X140.912 Y83.562 E.006
;WIDTH:0.842116
G1 X140.818 Y83.577 E.00634
;WIDTH:0.88584
G1 X140.724 Y83.592 E.00669
G1 X140.784 Y83.517 E.00669
;WIDTH:0.842116
G1 X140.843 Y83.443 E.00634
;WIDTH:0.798392
G1 X140.903 Y83.369 E.006
;WIDTH:0.754668
G1 X140.931 Y83.296 E.00462
;WIDTH:0.710944
G1 X140.959 Y83.223 E.00434
;WIDTH:0.66722
G1 X140.987 Y83.15 E.00405
;WIDTH:0.663304
G1 X141.027 Y83.105 E.0031
;WIDTH:0.703111
G1 X141.067 Y83.061 E.0033
;WIDTH:0.742918
G1 X141.108 Y83.016 E.00349
;WIDTH:0.782725
G1 X141.148 Y82.972 E.00369
;WIDTH:0.819716
G1 X141.178 Y82.912 E.00435
;WIDTH:0.856707
G1 X141.208 Y82.851 E.00456
;WIDTH:0.893698
G1 X141.238 Y82.791 E.00477
G1 X141.268 Y82.851 E.00477
;WIDTH:0.856707
G1 X141.298 Y82.912 E.00456
;WIDTH:0.819716
G1 X141.328 Y82.972 E.00435
;WIDTH:0.782725
G1 X141.368 Y83.016 E.00369
;WIDTH:0.742918
G1 X141.409 Y83.061 E.00349
;WIDTH:0.703111
G1 X141.449 Y83.105 E.0033
;WIDTH:0.663304
G1 X141.489 Y83.15 E.0031
;WIDTH:0.667219
G1 X141.517 Y83.223 E.00405
;WIDTH:0.710942
G1 X141.545 Y83.296 E.00434
;WIDTH:0.754665
G1 X141.573 Y83.369 E.00462
;WIDTH:0.798389
G1 X141.632 Y83.443 E.006
;WIDTH:0.842113
G1 X141.692 Y83.517 E.00634
;WIDTH:0.885836
G1 X141.696 Y83.522 E.00038
M204 S1000
;WIPE_START
G1 F8640
G1 X141.658 Y83.577 E-.0155
G1 X141.564 Y83.562 E-.02204
G1 X141.469 Y83.548 E-.02204
G1 X141.392 Y83.56 E-.01803
G1 X141.315 Y83.573 E-.01803
G1 X141.161 Y83.573 E-.0356
G1 X141.084 Y83.56 E-.01803
G1 X141.007 Y83.548 E-.01803
G1 X140.912 Y83.562 E-.02204
G1 X140.818 Y83.577 E-.02204
G1 X140.724 Y83.592 E-.02204
