; generated by PrusaSlicer 2.5.0+MacOS-arm64 on 2023-03-16 at 18:42:38 UTC


;
;
; 

; external perimeters extrusion width = 0.27mm
; perimeters extrusion width = 0.27mm
; infill extrusion width = 0.27mm
; solid infill extrusion width = 0.27mm
; top infill extrusion width = 0.25mm
; first layer extrusion width = 0.30mm

; external perimeters extrusion width = 0.27mm
; perimeters extrusion width = 0.27mm
; infill extrusion width = 0.27mm
; solid infill extrusion width = 0.27mm
; top infill extrusion width = 0.25mm
; first layer extrusion width = 0.30mm

M73 P0 R97
M73 Q0 S98
M201 X1000 Y1000 Z200 E5000 ; sets maximum accelerations, mm/sec^2
M203 X200 Y200 Z12 E120 ; sets maximum feedrates, mm / sec
M204 P1250 R1250 T1250 ; sets acceleration (P, T) and retract acceleration (R), mm/sec^2
M205 X8.00 Y8.00 Z0.40 E4.50 ; sets the jerk limits, mm/sec
M205 S0 T0 ; sets the minimum extruding and travel feed rate, mm/sec
M107
;TYPE:Custom
M862.3 P "MK3S" ; printer model check
M862.1 P0.25 ; nozzle diameter check
M115 U3.12.1 ; tell printer latest fw version
G90 ; use absolute coordinates
M83 ; extruder relative mode
M104 S230 ; set extruder temp
M140 S85 ; set bed temp
M190 S85 ; wait for bed temp
M109 S230 ; wait for extruder temp
G28 W ; home all without mesh bed level
G80 ; mesh bed leveling
G1 Z0.2 F720
G1 Y-3 F1000 ; go outside print area
G92 E0
G1 X60 E8 F700 ; intro line
G1 X100 E12.5 F700 ; intro line
G92 E0
M221 S95

; Don't change E value below. Excessive value can damage the printer.
M907 E430 ; set extruder motor current
G21 ; set units to millimeters
G90 ; use absolute coordinates
M83 ; use relative distances for extrusion
M900 K0.08 ; Filament gcode LA 1.5
M900 K45 ; Filament gcode LA 1.0
M107
;LAYER_CHANGE
;Z:0.2
;HEIGHT:0.2
;BEFORE_LAYER_CHANGE
G92 E0.0
;0.2


G1 E-1 F2100
G1 Z.2 F720
;AFTER_LAYER_CHANGE
;0.2
G1 Z.4
G1 X91.803 Y60.71 F10800
G1 Z.2 F720
G1 E1 F2100
M204 S500
;TYPE:Skirt/Brim
;WIDTH:0.3
G1 F1200
G1 X95.803 Y57.71 E.10688
G1 X97.157 Y57.258 E.03051
G1 X148.959 Y57.258 E1.10733
G1 X154.482 Y57.275 E.11806
G1 X156.002 Y57.6 E.03324
G1 X156.984 Y58.091 E.02346
G1 X157.491 Y58.46 E.01341
G1 X158.261 Y59.241 E.02345
G1 X158.852 Y60.167 E.02348
G1 X159.336 Y61.655 E.03346
G1 X163.54 Y114.084 E1.12431
G1 X163.533 Y141.061 E.57667
G1 X163.464 Y141.937 E.01878
G1 X163.203 Y143.141 E.02634
G1 X162.757 Y144.29 E.02634
G1 X162.137 Y145.354 E.02633
G1 X161.108 Y146.56 E.03388
G1 X160.153 Y147.339 E.02634
G1 X159.404 Y147.798 E.01879
G1 X157.94 Y148.404 E.03387
G1 X156.735 Y148.665 E.02634
G1 X155.682 Y148.741 E.02257
G1 X94.882 Y148.741 E1.29968
G1 X93.83 Y148.665 E.02257
G1 X92.625 Y148.404 E.02634
G1 X91.476 Y147.958 E.02634
G1 X90.412 Y147.339 E.02633
G1 X89.206 Y146.309 E.03388
G1 X88.636 Y145.641 E.01879
G1 X87.968 Y144.605 E.02634
G1 X87.362 Y143.141 E.03387
G1 X87.049 Y141.607 E.03347
G1 X87.025 Y114.084 E.58835
G1 X90.906 Y62.346 E1.10906
G1 X91.785 Y60.743 E.03909
M204 S1000
; printing object mangopi-frame.stl id:0 copy 0
;WIPE_START
G1 F8640
G1 X95.068 Y58.264 E-.95
;WIPE_END
G1 E-.05 F2100
G1 Z.4 F720
G1 X146.255 Y83.222 F10800
G1 Z.2 F720
G1 E1 F2100
M204 S500
;TYPE:Perimeter
;WIDTH:0.299999
G1 F1200
G1 X146.133 Y83.311 E.00322
G1 X145.862 Y83.591 E.00833
G1 X145.655 Y83.92 E.00832
G1 X145.522 Y84.286 E.00831
G1 X145.474 Y84.599 E.00678
G1 X145.482 Y84.952 E.00754
G1 X145.568 Y85.333 E.00835
G1 X145.783 Y85.777 E.01055
G1 X145.972 Y86.009 E.00639
G1 X145.862 Y86.131 E.00351
G1 X145.655 Y86.461 E.00832
G1 X145.522 Y86.826 E.00831
G1 X145.467 Y87.211 E.00832
G1 X145.492 Y87.588 E.00809
G1 X145.593 Y87.949 E.00799
G1 X145.783 Y88.317 E.00887
G1 X145.972 Y88.549 E.00639
G1 X145.862 Y88.671 E.00351
G1 X145.655 Y89.001 E.00832
G1 X145.539 Y89.312 E.00711
G1 X145.474 Y89.683 E.00806
G1 X145.494 Y90.141 E.00978
G1 X145.601 Y90.516 E.00835
G1 X145.779 Y90.851 E.00811
G1 X142.853 Y90.851 E.06255
G1 X142.972 Y90.455 E.00884
G1 X143.026 Y90.072 E.00828
G1 X143.006 Y89.743 E.00704
G1 X142.911 Y89.363 E.00838
G1 X142.724 Y88.988 E.00895
G1 X142.47 Y88.676 E.0086
G1 X142.154 Y88.426 E.0086
G1 X141.805 Y88.255 E.00831
G1 X141.672 Y88.082 E.00469
G1 X141.474 Y87.923 E.00541
G1 X141.178 Y87.851 E.00651
G1 X96.545 Y87.851 E.95408
G1 X95.93 Y87.838 E.01315
G1 X95.436 Y87.733 E.0108
G1 X94.991 Y87.535 E.01042
G1 X94.596 Y87.248 E.01042
G1 X94.27 Y86.886 E.01042
G1 X94.026 Y86.464 E.01042
G1 X93.876 Y86 E.01042
G1 X93.823 Y85.497 E.01081
G1 X93.887 Y84.238 E.02695
G1 X94.125 Y83.948 E.00802
G1 X94.319 Y83.481 E.01081
G1 X94.328 Y82.857 E.01335
G1 X94.09 Y82.277 E.01339
G1 X93.854 Y82.004 E.00773
G1 X93.879 Y81.726 E.00597
G1 X93.969 Y81.645 E.00257
G1 X94.125 Y81.429 E.00571
G1 X94.326 Y80.929 E.0115
G1 X94.335 Y80.435 E.01056
G1 X94.28 Y80.176 E.00567
G1 X94.103 Y79.778 E.0093
G1 X93.821 Y79.456 E.00914
G1 X93.821 Y72.019 E.15898
G1 X94.006 Y72.153 E.00488
G1 X94.353 Y72.324 E.00827
G1 X94.734 Y72.419 E.0084
G1 X95.122 Y72.433 E.0083
G1 X95.504 Y72.366 E.0083
G1 X95.867 Y72.22 E.00837
G1 X96.264 Y71.936 E.01043
G1 X96.546 Y72.153 E.00762
G1 X96.893 Y72.324 E.00827
G1 X97.274 Y72.419 E.0084
G1 X97.661 Y72.433 E.00827
G1 X98.044 Y72.367 E.00831
G1 X98.493 Y72.17 E.01047
G1 X98.493 Y81.887 E.2077
G1 X98.52 Y82.722 E.01787
G1 X98.648 Y82.955 E.00569
G1 X98.813 Y83.093 E.00459
G1 X99.135 Y83.179 E.00714
G1 X139.649 Y83.179 E.86602
G1 X139.81 Y83.375 E.00541
G1 X139.7 Y83.497 E.00351
G1 X139.493 Y83.827 E.00832
G1 X139.36 Y84.19 E.00828
G1 X139.305 Y84.58 E.00841
G1 X139.331 Y84.964 E.00822
G1 X139.439 Y85.341 E.0084
G1 X139.621 Y85.684 E.00828
G1 X139.871 Y85.983 E.00833
G1 X140.177 Y86.223 E.00832
G1 X140.656 Y86.436 E.0112
G1 X141.178 Y86.502 E.01126
G1 X141.676 Y86.436 E.01073
G1 X142.048 Y86.285 E.00859
G1 X142.462 Y85.981 E.01098
G1 X142.764 Y85.591 E.01054
G1 X142.939 Y85.199 E.00917
G1 X143.014 Y84.815 E.00837
G1 X143 Y84.323 E.01052
G1 X142.893 Y83.95 E.0083
G1 X142.709 Y83.604 E.00837
G1 X142.522 Y83.375 E.00633
G1 X142.63 Y83.254 E.00347
G1 X146.217 Y83.223 E.07669
M204 S1000
;WIPE_START
G1 F8640
G1 X146.133 Y83.311 E-.02819
G1 X145.862 Y83.591 E-.08994
G1 X145.655 Y83.92 E-.08985
G1 X145.522 Y84.286 E-.08978
G1 X145.474 Y84.599 E-.07325
G1 X145.482 Y84.952 E-.0814
G1 X145.568 Y85.333 E-.09024
G1 X145.783 Y85.777 E-.11395
G1 X145.972 Y86.009 E-.06899
G1 X145.862 Y86.131 E-.03795
G1 X145.655 Y86.461 E-.08984
G1 X145.522 Y86.826 E-.08979
G1 X145.518 Y86.855 E-.00681
;WIPE_END
G1 E-.05 F2100
G1 Z.4 F720
G1 X141.038 Y83.375 F10800
G1 Z.2 F720
G1 E1 F2100
M204 S500
;TYPE:External perimeter
;WIDTH:0.25542
G1 F1200
G1 X141.299 Y83.375 E.0046
M204 S1000
;WIPE_START
G1 F8640
G1 X141.038 Y83.375 E-.0601
;WIPE_END
G1 E-.9399 F2100
G1 Z.4 F720
M73 Q0 S97
G1 X147.2 Y86.009 F10800
G1 Z.2 F720
G1 E1 F2100
M204 S500
G1 F1200
G1 X147.456 Y86.009 E.00451
M204 S1000
;WIPE_START
G1 F8640
G1 X147.2 Y86.009 E-.05899
;WIPE_END
G1 E-.94101 F2100
G1 Z.4 F720
G1 X147.196 Y88.549 F10800
G1 Z.2 F720
G1 E1 F2100
M204 S500
G1 F1200
G1 X147.461 Y88.549 E.00468
M204 S1000
;WIPE_START
G1 F8640
G1 X147.196 Y88.549 E-.06122
;WIPE_END
G1 E-.93878 F2100
G1 Z.4 F720
G1 X148.683 Y86.009 F10800
G1 Z.2 F720
G1 E1 F2100
M204 S500
;TYPE:Perimeter
;WIDTH:0.299999
G1 F1200
G1 X148.793 Y85.886 E.00352
G1 X149 Y85.559 E.00828
G1 X149.134 Y85.191 E.00836
G1 X149.189 Y84.806 E.00832
G1 X149.162 Y84.419 E.00828
G1 X149.056 Y84.045 E.00832
G1 X148.871 Y83.698 E.0084
G1 X148.622 Y83.401 E.00828
G1 X148.376 Y83.204 E.00675
G1 X150.977 Y83.181 E.05562
G1 X151.391 Y83.143 E.00888
G1 X151.634 Y82.99 E.00614
G1 X151.797 Y82.71 E.00692
G1 X151.821 Y82.537 E.00375
G1 X151.821 Y65.494 E.36431
G1 X151.797 Y65.32 E.00374
G1 X151.634 Y65.041 E.00692
G1 X151.396 Y64.889 E.00604
G1 X151.178 Y64.851 E.00471
G1 X149.756 Y64.851 E.03041
G1 X149.603 Y64.394 E.0103
G1 X149.371 Y64.037 E.0091
G1 X149.364 Y63.918 E.00255
G1 X149.602 Y63.489 E.01049
G1 X149.736 Y63.124 E.00831
G1 X149.79 Y62.736 E.00837
G1 X149.764 Y62.352 E.00823
G1 X149.657 Y61.975 E.0084
G1 X149.475 Y61.632 E.00829
G1 X149.323 Y61.449 E.00507
G1 X149.357 Y61.319 E.00288
G1 X149.602 Y60.949 E.00949
G1 X149.736 Y60.586 E.00827
G1 X149.79 Y60.182 E.00871
G1 X154.4 Y60.196 E.09853
G1 X154.878 Y60.297 E.01044
G1 X155.323 Y60.496 E.01042
G1 X155.717 Y60.782 E.01042
G1 X156.044 Y61.144 E.01042
G1 X156.287 Y61.567 E.01042
G1 X156.438 Y62.03 E.01042
G1 X156.493 Y62.55 E.01117
G1 X156.493 Y85.48 E.49016
G1 X156.438 Y86 E.01117
G1 X156.287 Y86.464 E.01042
G1 X156.044 Y86.886 E.01042
G1 X155.717 Y87.248 E.01042
G1 X155.323 Y87.535 E.01042
G1 X154.878 Y87.733 E.01042
G1 X154.399 Y87.835 E.01046
G1 X151.474 Y87.85 E.06252
G1 X150.928 Y87.886 E.0117
G1 X150.676 Y88.045 E.00638
G1 X150.541 Y88.249 E.00522
G1 X150.493 Y88.494 E.00534
G1 X150.493 Y90.851 E.05039
G1 X148.876 Y90.851 E.03456
G1 X149 Y90.639 E.00525
G1 X149.134 Y90.271 E.00836
G1 X149.189 Y89.886 E.00832
G1 X149.134 Y89.368 E.01114
G1 X148.976 Y88.957 E.0094
G1 X148.683 Y88.549 E.01074
G1 X148.976 Y88.14 E.01074
G1 X149.101 Y87.835 E.00705
G1 X149.189 Y87.346 E.01062
G1 X149.162 Y86.958 E.00832
G1 X149.056 Y86.584 E.0083
G1 X148.871 Y86.238 E.00838
G1 X148.707 Y86.038 E.00554
M204 S1000
;WIPE_START
G1 F8640
G1 X148.793 Y85.886 E-.0402
G1 X149 Y85.559 E-.08942
G1 X149.134 Y85.191 E-.09033
G1 X149.189 Y84.806 E-.08987
G1 X149.162 Y84.419 E-.08944
G1 X149.056 Y84.045 E-.08983
G1 X148.871 Y83.698 E-.09078
G1 X148.622 Y83.401 E-.08946
G1 X148.376 Y83.204 E-.07296
G1 X149.275 Y83.196 E-.20771
;WIPE_END
G1 E-.05 F2100
G1 Z.4 F720
G1 X141.326 Y91.347 F10800
G1 Z.2 F720
G1 E1 F2100
M204 S500
;TYPE:External perimeter
;WIDTH:0.372912
G1 F1200
G1 X141.572 Y91.329 E.00677
M204 S1000
;WIPE_START
G1 F8640
G1 X141.326 Y91.347 E-.05698
;WIPE_END
G1 E-.94302 F2100
G1 Z.4 F720
G1 X151.245 Y65.128 F10800
G1 Z.2 F720
G1 E1 F2100
M204 S500
;TYPE:Perimeter
;WIDTH:0.299999
G1 F1200
G1 X151.178 Y65.108 E.00148
G1 X149.528 Y65.108 E.03528
G1 X149.509 Y64.918 E.00409
G1 X149.412 Y64.594 E.00722
G1 X149.252 Y64.301 E.00713
G1 X149.085 Y64.116 E.00533
G1 X149.124 Y63.737 E.00815
G1 X149.38 Y63.361 E.00971
G1 X149.492 Y63.044 E.00718
G1 X149.535 Y62.71 E.0072
G1 X149.509 Y62.379 E.00711
G1 X149.412 Y62.054 E.00723
G1 X149.252 Y61.76 E.00716
G1 X149.067 Y61.557 E.00588
G1 X149.065 Y61.247 E.00663
G1 X149.176 Y61.136 E.00335
G1 X149.38 Y60.821 E.00803
G1 X149.509 Y60.425 E.00891
G1 X149.517 Y59.924 E.0107
G1 X154.427 Y59.939 E.10495
G1 X154.957 Y60.051 E.01159
G1 X155.452 Y60.272 E.01158
G1 X155.89 Y60.59 E.01158
G1 X156.253 Y60.992 E.01158
G1 X156.524 Y61.462 E.01158
G1 X156.691 Y61.977 E.01158
G1 X156.75 Y62.537 E.01204
G1 X156.75 Y85.494 E.49074
G1 X156.691 Y86.054 E.01204
G1 X156.524 Y86.569 E.01158
G1 X156.253 Y87.038 E.01158
G1 X155.89 Y87.441 E.01158
G1 X155.452 Y87.759 E.01158
G1 X154.957 Y87.979 E.01158
G1 X154.427 Y88.092 E.0116
G1 X151.725 Y88.105 E.05776
G1 X151.011 Y88.129 E.01526
G1 X150.817 Y88.276 E.0052
G1 X150.75 Y88.494 E.00487
G1 X150.75 Y91.108 E.05588
G1 X148.276 Y91.108 E.05289
G1 X148.602 Y90.794 E.00968
G1 X148.777 Y90.509 E.00715
G1 X148.889 Y90.192 E.0072
G1 X148.933 Y89.859 E.00718
G1 X148.906 Y89.525 E.00717
G1 X148.811 Y89.203 E.00717
G1 X148.602 Y88.843 E.0089
G1 X148.302 Y88.549 E.00898
G1 X148.372 Y88.498 E.00184
G1 X148.649 Y88.19 E.00885
G1 X148.856 Y87.755 E.01029
G1 X148.933 Y87.319 E.00947
G1 X148.906 Y86.985 E.00717
G1 X148.811 Y86.663 E.00717
G1 X148.602 Y86.303 E.0089
G1 X148.302 Y86.009 E.00898
G1 X148.602 Y85.714 E.00898
G1 X148.777 Y85.429 E.00715
G1 X148.889 Y85.112 E.0072
G1 X148.933 Y84.779 E.00718
G1 X148.906 Y84.446 E.00713
G1 X148.811 Y84.124 E.00719
G1 X148.649 Y83.827 E.00722
G1 X148.431 Y83.573 E.00715
G1 X148.166 Y83.369 E.00715
G1 X147.863 Y83.224 E.00719
G1 X147.456 Y83.157 E.00882
G1 X146.871 Y83.199 E.01253
G1 X146.56 Y83.329 E.00721
G1 X146.284 Y83.519 E.00716
G1 X146.053 Y83.763 E.00718
G1 X145.878 Y84.049 E.00717
G1 X145.749 Y84.444 E.00889
G1 X145.738 Y84.925 E.01027
G1 X145.846 Y85.356 E.0095
G1 X146.053 Y85.714 E.00885
G1 X146.353 Y86.009 E.00899
G1 X146.053 Y86.303 E.00899
G1 X145.862 Y86.619 E.00789
G1 X145.739 Y87.084 E.01029
G1 X145.748 Y87.561 E.0102
G1 X145.837 Y87.869 E.00683
G1 X146.053 Y88.254 E.00945
G1 X146.353 Y88.549 E.00899
G1 X146.053 Y88.843 E.00899
G1 X145.878 Y89.129 E.00717
G1 X145.784 Y89.392 E.00597
G1 X145.729 Y89.711 E.00691
G1 X145.749 Y90.114 E.00863
G1 X145.846 Y90.436 E.00719
G1 X146.053 Y90.794 E.00885
G1 X146.38 Y91.108 E.00969
G1 X142.325 Y91.108 E.08667
G1 X142.615 Y90.695 E.01079
G1 X142.727 Y90.376 E.00723
G1 X142.771 Y90.045 E.00714
G1 X142.75 Y89.77 E.00589
G1 X142.666 Y89.442 E.00724
G1 X142.501 Y89.117 E.00778
G1 X142.278 Y88.848 E.00748
G1 X141.974 Y88.615 E.00818
G1 X141.56 Y88.455 E.00949
G1 X141.523 Y88.32 E.00299
G1 X141.356 Y88.151 E.00507
G1 X141.178 Y88.108 E.0039
G1 X96.545 Y88.108 E.95408
G1 X95.897 Y88.094 E.01387
G1 X95.356 Y87.979 E.01181
G1 X94.862 Y87.759 E.01158
G1 X94.423 Y87.441 E.01158
G1 X94.061 Y87.038 E.01158
G1 X93.79 Y86.569 E.01158
G1 X93.623 Y86.054 E.01158
G1 X93.565 Y85.504 E.01181
G1 X93.635 Y84.118 E.02967
G1 X93.884 Y83.856 E.00772
G1 X94.068 Y83.424 E.01005
G1 X94.074 Y82.896 E.01129
G1 X93.869 Y82.408 E.0113
G1 X93.585 Y82.116 E.00871
G1 X93.632 Y81.602 E.01103
G1 X93.825 Y81.426 E.00558
G1 X94.045 Y80.974 E.01073
G1 X94.078 Y80.818 E.00341
G1 X94.045 Y80.279 E.01154
G1 X93.824 Y79.826 E.01079
G1 X93.564 Y79.584 E.0076
G1 X93.564 Y71.622 E.17018
G1 X93.792 Y71.622 E.00488
G1 X94.157 Y71.945 E.01041
G1 X94.458 Y72.089 E.00714
G1 X94.787 Y72.168 E.00723
G1 X95.122 Y72.176 E.00716
G1 X95.451 Y72.115 E.00716
G1 X95.791 Y71.97 E.00789
G1 X96.164 Y71.667 E.01028
G1 X96.351 Y71.645 E.00402
G1 X96.418 Y71.727 E.00225
G1 X96.697 Y71.945 E.00758
G1 X96.998 Y72.089 E.00714
G1 X97.327 Y72.168 E.00723
G1 X97.661 Y72.176 E.00714
G1 X97.991 Y72.115 E.00717
G1 X98.302 Y71.985 E.00721
G1 X98.75 Y71.662 E.01181
G1 X98.75 Y82.537 E.23246
G1 X98.8 Y82.727 E.00422
G1 X98.942 Y82.87 E.0043
G1 X99.135 Y82.922 E.00428
G1 X139.795 Y82.922 E.86915
G1 X139.887 Y83.076 E.00383
G1 X140.191 Y83.375 E.00911
G1 X139.891 Y83.669 E.00899
G1 X139.716 Y83.955 E.00717
G1 X139.604 Y84.27 E.00715
G1 X139.561 Y84.606 E.00723
G1 X139.587 Y84.937 E.00711
G1 X139.683 Y85.262 E.00723
G1 X139.843 Y85.555 E.00715
G1 X140.062 Y85.811 E.00718
G1 X140.329 Y86.015 E.00718
G1 X140.709 Y86.184 E.00891
G1 X141.178 Y86.245 E.01012
G1 X141.623 Y86.184 E.00959
G1 X141.934 Y86.055 E.00721
G1 X142.21 Y85.864 E.00716
G1 X142.441 Y85.62 E.00719
G1 X142.649 Y85.26 E.00888
G1 X142.759 Y84.79 E.01032
G1 X142.744 Y84.35 E.00941
G1 X142.649 Y84.029 E.00716
G1 X142.441 Y83.67 E.00887
G1 X142.141 Y83.375 E.009
G1 X142.21 Y83.324 E.00183
G1 X142.498 Y82.998 E.0093
G1 X146.48 Y82.963 E.08514
G1 X147.199 Y82.938 E.01538
G1 X147.81 Y82.952 E.01305
G1 X151.182 Y82.922 E.07208
G1 X151.386 Y82.861 E.00457
G1 X151.51 Y82.734 E.00379
G1 X151.564 Y82.537 E.00437
G1 X151.564 Y65.494 E.36431
G1 X151.51 Y65.297 E.00437
G1 X151.388 Y65.17 E.00376
G1 X151.281 Y65.138 E.00238
M204 S1000
G1 X151.178 Y65.365 F10800
M204 S500
;TYPE:External perimeter
G1 F1200
G1 X149.259 Y65.365 E.04103
G1 X149.253 Y64.944 E.00901
G1 X149.168 Y64.674 E.00604
G1 X149.03 Y64.429 E.00601
G1 X148.817 Y64.211 E.00651
G1 X148.877 Y63.627 E.01256
G1 X149.014 Y63.475 E.00437
M73 P0 R96
G1 X149.157 Y63.233 E.00602
G1 X149.247 Y62.965 E.00604
G1 X149.279 Y62.684 E.00603
G1 X149.253 Y62.405 E.006
G1 X149.168 Y62.134 E.00606
G1 X149.029 Y61.889 E.00602
G1 X148.81 Y61.664 E.0067
G1 X148.807 Y61.14 E.01121
G1 X148.995 Y60.954 E.00566
G1 X149.157 Y60.692 E.00657
G1 X149.247 Y60.426 E.00602
G1 X149.279 Y60.144 E.00606
G1 X149.253 Y59.865 E.006
G1 X149.179 Y59.666 E.00453
G1 X154.455 Y59.682 E.11277
G1 X155.037 Y59.806 E.01274
G1 X155.581 Y60.048 E.01273
G1 X156.063 Y60.398 E.01273
G1 X156.462 Y60.841 E.01273
G1 X156.76 Y61.356 E.01273
G1 X156.944 Y61.923 E.01273
G1 X157.007 Y62.523 E.0129
G1 X157.007 Y85.507 E.49132
G1 X156.944 Y86.108 E.0129
G1 X156.76 Y86.674 E.01273
G1 X156.462 Y87.19 E.01273
G1 X156.063 Y87.633 E.01273
G1 X155.581 Y87.983 E.01273
