; generated by PrusaSlicer 2.5.0+MacOS-arm64 on 2023-03-16 at 17:54:30 UTC

; 

; external perimeters extrusion width = 0.45mm
; perimeters extrusion width = 0.45mm
; infill extrusion width = 0.45mm
; solid infill extrusion width = 0.45mm
; top infill extrusion width = 0.40mm
; first layer extrusion width = 0.42mm

M73 P0 R13
M73 Q0 S13
M107
;TYPE:Custom
M862.3 P "MK3S" ; printer model check
M862.1 P0.4 ; nozzle diameter check
M115 U3.8.1 ; tell printer latest fw version
G90 ; use absolute coordinates
M83 ; extruder relative mode
M104 S230 ; set extruder temp
M140 S85 ; set bed temp
M190 S85 ; wait for bed temp
M109 S230 ; wait for extruder temp
G28 W ; home all without mesh bed level
G80 ; mesh bed leveling
G1 Y-3.0 F1000.0 ; go outside print area
G92 E0.0
G1 X60.0 E9.0 F1000.0 ; intro line
G1 X100.0 E12.5 F1000.0 ; intro line
G92 E0.0
M221 S95
G21 ; set units to millimeters
G90 ; use absolute coordinates
M83 ; use relative distances for extrusion
M900 K30 ; Filament gcode
M107
;LAYER_CHANGE
;Z:0.2
;HEIGHT:0.2
;BEFORE_LAYER_CHANGE
G92 E0.0
;0.2


G1 E-1 F2100
G1 Z.2 F10800
;AFTER_LAYER_CHANGE
;0.2
G1 Z.4
G1 X89.155 Y85.993
G1 Z.2
G1 E1 F2100
M204 S1000
;TYPE:Skirt/Brim
;WIDTH:0.42
G1 F1200
G1 X89.838 Y85.4 E.02838
G1 X90.997 Y84.641 E.04344
G1 X91.794 Y84.26 E.02769
G1 X92.828 Y83.912 E.0342
G1 X93.679 Y83.735 E.02726
G1 X94.988 Y83.625 E.04118
G1 X155.229 Y83.635 E1.88881
G1 X156.65 Y83.789 E.04483
M73 P1 R13
M73 Q1 S13
G1 X158.206 Y84.26 E.05096
G1 X159.696 Y85.06 E.05303
G1 X160.845 Y85.993 E.04642
G1 X161.954 Y87.319 E.0542
G1 X162.754 Y88.809 E.05303
G1 X163.226 Y90.391 E.05177
G1 X163.379 Y91.786 E.04399
G1 X163.389 Y117.997 E.82185
G1 X163.279 Y119.306 E.04118
G1 X162.842 Y120.969 E.0539
G1 X162.432 Y121.882 E.03139
G1 X161.953 Y122.684 E.02929
G1 X160.845 Y124.007 E.0541
G1 X160.162 Y124.6 E.02838
G1 X159.003 Y125.359 E.04344
G1 X158.206 Y125.74 E.02769
G1 X157.243 Y126.068 E.03191
G1 X156.248 Y126.271 E.03183
G1 X155.012 Y126.375 E.03889
G1 X94.771 Y126.365 E1.88881
G1 X93.679 Y126.265 E.03438
G1 X92.643 Y126.038 E.03325
G1 X91.794 Y125.74 E.02822
G1 X90.506 Y125.072 E.04551
G1 X89.677 Y124.474 E.03203
G1 X88.978 Y123.831 E.02978
G1 X88.387 Y123.149 E.02831
G1 X87.625 Y121.986 E.04357
G1 X87.246 Y121.191 E.02763
G1 X86.917 Y120.228 E.03191
M73 Q2 S13
G1 X86.714 Y119.234 E.03183
G1 X86.611 Y117.997 E.03889
G1 X86.621 Y91.786 E.82185
M73 P2 R13
G1 X86.746 Y90.538 E.03931
G1 X86.981 Y89.548 E.03191
G1 X87.478 Y88.298 E.04217
G1 X87.914 Y87.52 E.02796
G1 X88.512 Y86.692 E.03203
G1 X89.114 Y86.037 E.0279
;WIPE_START
G1 F8640
G1 X89.838 Y85.4 E-.22276
G1 X90.997 Y84.641 E-.31993
G1 X91.794 Y84.26 E-.20388
G1 X92.629 Y83.979 E-.20343
;WIPE_END
G1 E-.05 F2100
G1 Z.4 F10800
G1 X92.271 Y88.978
G1 Z.2
G1 E1 F2100
;TYPE:Perimeter
;WIDTH:0.419999
G1 F1200
G1 X92.597 Y88.704 E.01336
G1 X93.089 Y88.393 E.01825
G1 X93.68 Y88.145 E.0201
G1 X94.205 Y88.001 E.01708
G1 X95.076 Y87.921 E.0274
G1 X154.988 Y87.927 E1.87851
G1 X155.79 Y88 E.02525
G1 X156.331 Y88.147 E.01759
G1 X156.911 Y88.393 E.01974
G1 X157.405 Y88.706 E.01834
G1 X157.896 Y89.118 E.0201
G1 X158.305 Y89.604 E.01989
G1 X158.649 Y90.158 E.02044
G1 X158.861 Y90.666 E.01727
G1 X159.02 Y91.281 E.01991
G1 X159.094 Y92.09 E.02549
G1 X159.094 Y117.91 E.80956
G1 X159.014 Y118.775 E.02725
G1 X158.864 Y119.327 E.01792
G1 X158.649 Y119.843 E.01754
G1 X158.304 Y120.398 E.02049
G1 X157.893 Y120.885 E.01998
G1 X157.4 Y121.296 E.02011
G1 X156.911 Y121.607 E.01818
G1 X156.344 Y121.849 E.01931
G1 X155.735 Y122.005 E.01972
G1 X154.924 Y122.079 E.02553
G1 X95.076 Y122.079 E1.87651
G1 X94.209 Y122 E.0273
M73 P3 R13
M73 Q3 S13
G1 X93.656 Y121.849 E.01798
G1 X93.143 Y121.634 E.01742
G1 X92.589 Y121.29 E.02044
G1 X92.104 Y120.882 E.0199
G1 X91.691 Y120.391 E.0201
G1 X91.379 Y119.897 E.01832
G1 X91.137 Y119.33 E.01934
G1 X90.981 Y118.721 E.01972
G1 X90.906 Y117.91 E.02553
G1 X90.906 Y92.09 E.80956
G1 X90.981 Y91.279 E.02553
G1 X91.139 Y90.663 E.01996
G1 X91.351 Y90.158 E.01718
G1 X91.695 Y89.604 E.02044
G1 X92.104 Y89.118 E.01989
G1 X92.225 Y89.017 E.00495
;WIPE_START
G1 F8640
G1 X92.597 Y88.704 E-.11226
G1 X93.089 Y88.393 E-.13442
G1 X93.68 Y88.145 E-.14802
G1 X94.205 Y88.001 E-.12575
G1 X95.076 Y87.921 E-.20177
G1 X96.062 Y87.921 E-.22778
;WIPE_END
G1 E-.05 F2100
G1 Z.4 F10800
G1 X94.145 Y87.627
G1 Z.2
G1 E1 F2100
G1 F1200
G1 X95.058 Y87.544 E.02877
G1 X155.005 Y87.55 E1.87959
G1 X155.852 Y87.627 E.02665
G1 X156.452 Y87.79 E.0195
G1 X157.085 Y88.059 E.02157
G1 X157.627 Y88.401 E.02011
G1 X158.163 Y88.851 E.02194
G1 X158.609 Y89.382 E.02173
G1 X158.985 Y89.985 E.02228
G1 X159.218 Y90.545 E.01903
G1 X159.393 Y91.221 E.02191
G1 X159.471 Y92.073 E.02681
G1 X159.471 Y117.927 E.81064
G1 X159.412 Y118.573 E.02033
M73 P4 R13
M73 Q4 S13
G1 X159.325 Y119.095 E.0166
G1 X159.156 Y119.639 E.01784
G1 X158.887 Y120.185 E.01911
G1 X158.608 Y120.621 E.01621
G1 X158.161 Y121.152 E.02177
G1 X157.624 Y121.599 E.02191
G1 X157.085 Y121.941 E.02001
G1 X156.466 Y122.205 E.02111
G1 X155.794 Y122.378 E.02175
G1 X154.942 Y122.456 E.02684
G1 X95.058 Y122.456 E1.87759
G1 X94.406 Y122.397 E.02054
G1 X93.894 Y122.312 E.01625
G1 X93.348 Y122.142 E.01794
G1 X92.8 Y121.872 E.01916
G1 X92.367 Y121.595 E.01611
G1 X91.837 Y121.149 E.02173
G1 X91.387 Y120.614 E.02192
G1 X91.044 Y120.072 E.0201
G1 X90.78 Y119.451 E.02114
G1 X90.607 Y118.779 E.02176
G1 X90.529 Y117.927 E.02684
G1 X90.529 Y92.073 E.81064
G1 X90.583 Y91.486 E.01848
G1 X90.717 Y90.734 E.02395
G1 X90.934 Y90.164 E.01913
G1 X91.259 Y89.562 E.02147
G1 X91.667 Y89.042 E.02069
G1 X92.049 Y88.663 E.01688
G1 X92.55 Y88.272 E.01994
G1 X93.143 Y87.953 E.0211
G1 X93.658 Y87.755 E.0173
G1 X94.087 Y87.643 E.0139
G1 X94.084 Y87.254 F10800
G1 F1200
G1 X95.041 Y87.167 E.03014
G1 X155.022 Y87.172 E1.88067
G1 X155.914 Y87.254 E.02806
M73 P5 R13
M73 Q5 S13
G1 X156.372 Y87.365 E.01478
G1 X156.997 Y87.602 E.02096
G1 X157.453 Y87.837 E.01608
G1 X158.033 Y88.23 E.02198
G1 X158.43 Y88.584 E.01669
G1 X158.914 Y89.159 E.02356
G1 X159.187 Y89.581 E.01576
G1 X159.419 Y90.029 E.01581
G1 X159.646 Y90.631 E.02018
G1 X159.766 Y91.162 E.01707
G1 X159.848 Y92.056 E.02813
G1 X159.848 Y117.944 E.81172
G1 X159.76 Y118.899 E.03006
G1 X159.649 Y119.357 E.01478
G1 X159.416 Y119.978 E.0208
G1 X159.179 Y120.433 E.01606
G1 X158.785 Y121.018 E.02213
G1 X158.429 Y121.418 E.0168
G1 X157.886 Y121.874 E.02223
G1 X157.446 Y122.167 E.01657
G1 X156.981 Y122.405 E.01637
G1 X156.383 Y122.632 E.02007
G1 X155.853 Y122.751 E.01704
G1 X154.959 Y122.833 E.02815
G1 X95.041 Y122.833 E1.87867
G1 X94.086 Y122.746 E.03009
G1 X93.628 Y122.636 E.01474
G1 X93.013 Y122.404 E.02062
G1 X92.552 Y122.164 E.01631
G1 X91.967 Y121.77 E.0221
G1 X91.57 Y121.416 E.01669
G1 X91.215 Y121.018 E.01671
G1 X90.821 Y120.436 E.02203
G1 X90.581 Y119.967 E.01654
G1 X90.353 Y119.368 E.02007
G1 X90.234 Y118.838 E.01704
G1 X90.152 Y117.944 E.02815
G1 X90.152 Y92.056 E.81172
G1 X90.234 Y91.162 E.02815
M73 P5 R12
G1 X90.426 Y90.42 E.02402
G1 X90.68 Y89.812 E.02065
G1 X90.943 Y89.356 E.01652
G1 X91.385 Y88.791 E.02247
G1 X91.798 Y88.381 E.01826
G1 X92.343 Y87.956 E.02168
G1 X92.985 Y87.611 E.02283
G1 X93.539 Y87.398 E.01862
G1 X94.026 Y87.27 E.01579
G1 X94.023 Y86.881 F10800
G1 F1200
G1 X95.024 Y86.79 E.03152
G1 X155.04 Y86.795 E1.88175
G1 X155.975 Y86.881 E.02946
M73 P6 R12
M73 Q6 S13
G1 X156.662 Y87.065 E.02228
G1 X157.155 Y87.26 E.01662
G1 X157.643 Y87.511 E.01721
G1 X158.072 Y87.792 E.01607
G1 X158.474 Y88.118 E.01622
G1 X158.897 Y88.541 E.01876
G1 X159.219 Y88.937 E.01601
G1 X159.514 Y89.393 E.01702
G1 X159.762 Y89.873 E.01694
G1 X160.009 Y90.529 E.02198
G1 X160.139 Y91.103 E.01846
G1 X160.225 Y92.038 E.02945
G1 X160.225 Y117.962 E.8128
G1 X160.133 Y118.961 E.03147
G1 X159.949 Y119.647 E.02228
G1 X159.752 Y120.15 E.01693
G1 X159.506 Y120.621 E.01665
G1 X159.217 Y121.066 E.01664
G1 X158.875 Y121.484 E.01695
G1 X158.497 Y121.864 E.01678
G1 X158.072 Y122.206 E.01711
G1 X157.636 Y122.493 E.01636
G1 X157.14 Y122.747 E.0175
G1 X156.485 Y122.996 E.02194
G1 X155.912 Y123.125 E.01844
G1 X154.976 Y123.21 E.02946
G1 X95.024 Y123.21 E1.87975
G1 X94.024 Y123.119 E.03149
G1 X93.334 Y122.934 E.02241
G1 X92.837 Y122.738 E.01674
G1 X92.363 Y122.491 E.01676
G1 X91.923 Y122.204 E.01648
G1 X91.526 Y121.882 E.01601
G1 X91.103 Y121.459 E.01875
G1 X90.778 Y121.059 E.01618
G1 X90.495 Y120.626 E.01619
G1 X90.238 Y120.125 E.01766
G1 X89.99 Y119.471 E.02194
G1 X89.861 Y118.897 E.01844
G1 X89.775 Y117.962 E.02946
G1 X89.775 Y92.038 E.8128
G1 X89.861 Y91.103 E.02946
M73 P7 R12
M73 Q7 S12
G1 X89.99 Y90.529 E.01844
G1 X90.247 Y89.851 E.02273
G1 X90.495 Y89.378 E.01676
G1 X90.781 Y88.937 E.01647
G1 X91.103 Y88.541 E.01601
G1 X91.526 Y88.118 E.01876
G1 X91.93 Y87.79 E.01631
G1 X92.357 Y87.511 E.01598
G1 X92.826 Y87.269 E.01657
G1 X93.42 Y87.04 E.01994
G1 X93.965 Y86.896 E.01768
G1 X93.962 Y86.508 F10800
;TYPE:External perimeter
G1 F1200
G1 X95.007 Y86.413 E.03289
G1 X155.057 Y86.418 E1.88283
G1 X156.037 Y86.508 E.03087
G1 X156.582 Y86.64 E.01757
G1 X157.069 Y86.805 E.01613
G1 X157.609 Y87.055 E.01865
G1 X158.07 Y87.324 E.01674
G1 X158.507 Y87.642 E.01694
G1 X158.965 Y88.05 E.01922
G1 X159.372 Y88.508 E.01922
G1 X159.69 Y88.944 E.01692
G1 X159.992 Y89.467 E.01892
G1 X160.209 Y89.945 E.01647
G1 X160.373 Y90.427 E.01595
G1 X160.513 Y91.044 E.01985
G1 X160.602 Y92.021 E.03077
G1 X160.602 Y117.979 E.81388
G1 X160.506 Y119.023 E.03287
G1 X160.375 Y119.567 E.01757
G1 X160.209 Y120.055 E.01615
G1 X159.992 Y120.533 E.01647
G1 X159.69 Y121.057 E.01895
G1 X159.372 Y121.492 E.01689
G1 X158.964 Y121.951 E.01924
G1 X158.562 Y122.313 E.01698
G1 X158.07 Y122.676 E.01918
G1 X157.609 Y122.945 E.01672
G1 X157.069 Y123.195 E.01866
G1 X156.588 Y123.359 E.01594
G1 X155.971 Y123.498 E.01984
G1 X154.993 Y123.588 E.03077
G1 X95.007 Y123.588 E1.88083
G1 X93.962 Y123.492 E.03288
M73 P8 R12
M73 Q8 S12
G1 X93.418 Y123.361 E.01755
G1 X92.93 Y123.195 E.01616
G1 X92.452 Y122.977 E.01648
G1 X91.929 Y122.676 E.01892
G1 X91.493 Y122.358 E.01692
G1 X91.035 Y121.95 E.01922
G1 X90.628 Y121.492 E.01922
G1 X90.309 Y121.057 E.01691
G1 X90.04 Y120.595 E.01676
G1 X89.79 Y120.055 E.01867
G1 X89.627 Y119.573 E.01594
G1 X89.487 Y118.956 E.01984
G1 X89.398 Y117.979 E.03077
G1 X89.398 Y92.021 E.81388
G1 X89.456 Y91.383 E.0201
G1 X89.569 Y90.684 E.02219
G1 X89.712 Y90.177 E.01653
G1 X89.904 Y89.695 E.01626
G1 X90.168 Y89.189 E.0179
G1 X90.477 Y88.715 E.01774
G1 X90.822 Y88.29 E.01715
G1 X91.297 Y87.817 E.02101
G1 X91.708 Y87.486 E.01658
G1 X92.167 Y87.186 E.01718
G1 X92.668 Y86.926 E.0177
G1 X93.301 Y86.682 E.02126
G1 X93.904 Y86.523 E.01957
G1 X94.216 Y86.817 F10800
;WIPE_START
G1 F8640
G1 X95.007 Y86.413 E-.25589
G1 X98.013 Y86.413 E-.69411
;WIPE_END
G1 E-.05 F2100
G1 Z.4 F10800
G1 X91.789 Y89.994
G1 Z.2
G1 E1 F2100
;TYPE:Internal infill
;WIDTH:0.42
G1 F1200
G1 X91.728 Y90.1 E.00384
G1 X91.924 Y89.904 E.00868
G1 X91.903 Y89.825 E.00257
G1 X92.035 Y89.643 E.00707
G1 X92.315 Y89.329 E.01317
G1 X92.628 Y89.05 E.01317
G1 X92.92 Y88.837 E.01133
G1 X93.227 Y88.658 E.01115
G1 X93.596 Y88.487 E.01275
G1 X93.976 Y88.361 E.01254
G1 X94.253 Y88.295 E.00894
G1 X95.089 Y88.219 E.02631
G1 X97.091 Y88.219 E.06278
G1 X97.167 Y88.499 E.00911
G1 X94.784 Y90.882 E.10562
G1 X92.212 Y90.192 E.08352
G1 X91.333 Y91.071 E.03897
G1 X91.275 Y91.326 E.0082
G1 X91.204 Y92.104 E.02449
G1 X91.204 Y95.541 E.10778
G1 X93.38 Y96.124 E.07062
G1 X95.762 Y93.742 E.10562
G1 X95.072 Y91.169 E.08352
G1 X97.454 Y88.787 E.10562
G1 X100.027 Y89.477 E.08352
G1 X101.285 Y88.219 E.05576
G1 X101.86 Y88.219 E.01805
G1 X100.315 Y89.765 E.06852
G1 X101.005 Y92.337 E.08352
G1 X98.622 Y94.719 E.10562
G1 X96.05 Y94.03 E.08352
G1 X93.668 Y96.412 E.10562
G1 X94.357 Y98.985 E.08352
G1 X91.975 Y101.367 E.10562
G1 X91.204 Y101.161 E.02502
G1 X91.204 Y98.718 E.07658
;WIPE_START
G1 F8640
G1 X91.204 Y101.161 E-.56397
G1 X91.975 Y101.367 E-.18425
G1 X92.593 Y100.749 E-.20177
;WIPE_END
G1 E-.05 F2100
G1 Z.4 F10800
G1 X91.204 Y106.755
G1 Z.2
G1 E1 F2100
G1 F1200
G1 X91.204 Y108.19 E.04498
G1 X91.547 Y109.471 E.04158
G1 X91.204 Y109.814 E.01522
G1 X91.204 Y110.389 E.01805
G1 X91.835 Y109.758 E.02798
G1 X94.408 Y110.448 E.08352
G1 X96.79 Y108.066 E.10562
G1 X96.101 Y105.493 E.08352
G1 X98.483 Y103.111 E.10562
G1 X101.056 Y103.8 E.08352
G1 X103.438 Y101.418 E.10562
G1 X102.748 Y98.845 E.08352
M73 P9 R12
G1 X105.13 Y96.463 E.10562
G1 X107.703 Y97.153 E.08352
G1 X110.085 Y94.771 E.10562
M73 Q9 S12
G1 X109.396 Y92.198 E.08352
G1 X111.778 Y89.816 E.10562
G1 X114.351 Y90.505 E.08352
G1 X116.635 Y88.221 E.10129
G1 X111.14 Y88.22 E.17231
G1 X111.49 Y89.528 E.04245
G1 X109.108 Y91.91 E.10562
G1 X106.535 Y91.22 E.08352
G1 X104.153 Y93.603 E.10562
G1 X104.842 Y96.175 E.08352
G1 X102.46 Y98.557 E.10562
G1 X99.888 Y97.868 E.08352
G1 X97.506 Y100.25 E.10562
G1 X98.195 Y102.823 E.08352
G1 X95.813 Y105.205 E.10562
G1 X93.24 Y104.516 E.08352
G1 X91.204 Y106.552 E.09027
G1 X91.204 Y105.976 E.01805
G1 X92.952 Y104.228 E.07751
G1 X92.263 Y101.655 E.08352
G1 X94.645 Y99.273 E.10562
G1 X97.218 Y99.962 E.08352
G1 X99.6 Y97.58 E.10562
G1 X98.91 Y95.007 E.08352
G1 X101.292 Y92.625 E.10562
G1 X103.865 Y93.315 E.08352
G1 X106.247 Y90.933 E.10562
G1 X105.558 Y88.36 E.08352
G1 X105.698 Y88.22 E.00621
G1 X108.14 Y88.22 E.07658
;WIPE_START
G1 F8640
G1 X105.698 Y88.22 E-.56397
G1 X105.558 Y88.36 E-.04575
G1 X105.939 Y89.783 E-.34027
;WIPE_END
G1 E-.05 F2100
G1 Z.4 F10800
G1 X136.602 Y88.223
G1 Z.2
G1 E1 F2100
G1 F1200
G1 X137.289 Y88.223 E.02154
G1 X139.16 Y88.724 E.06071
G1 X139.661 Y88.223 E.02221
G1 X140.236 Y88.223 E.01805
G1 X139.448 Y89.012 E.03497
G1 X140.137 Y91.585 E.08352
G1 X137.755 Y93.967 E.10562
G1 X135.182 Y93.277 E.08352
G1 X132.8 Y95.659 E.10562
G1 X133.49 Y98.232 E.08352
G1 X131.107 Y100.614 E.10562
G1 X128.535 Y99.925 E.08352
G1 X126.153 Y102.307 E.10562
G1 X126.842 Y104.88 E.08352
G1 X124.46 Y107.262 E.10562
G1 X121.887 Y106.572 E.08352
G1 X119.505 Y108.954 E.10562
G1 X120.194 Y111.527 E.08352
G1 X117.812 Y113.909 E.10562
G1 X115.239 Y113.22 E.08352
G1 X112.857 Y115.602 E.10562
M73 P10 R12
G1 X113.547 Y118.175 E.08352
G1 X111.165 Y120.557 E.10562
G1 X108.592 Y119.868 E.08352
G1 X106.678 Y121.781 E.08486
M73 Q10 S12
G1 X106.102 Y121.781 E.01805
G1 X108.304 Y119.58 E.09763
G1 X107.615 Y117.007 E.08352
G1 X109.997 Y114.625 E.10562
G1 X112.57 Y115.314 E.08352
G1 X114.952 Y112.932 E.10562
G1 X114.262 Y110.359 E.08352
G1 X116.644 Y107.977 E.10562
G1 X119.217 Y108.667 E.08352
G1 X121.599 Y106.285 E.10562
G1 X120.91 Y103.712 E.08352
G1 X123.292 Y101.33 E.10562
G1 X125.865 Y102.019 E.08352
G1 X128.247 Y99.637 E.10562
G1 X127.557 Y97.064 E.08352
G1 X129.939 Y94.682 E.10562
G1 X132.512 Y95.371 E.08352
G1 X134.894 Y92.989 E.10562
G1 X134.205 Y90.417 E.08352
G1 X136.399 Y88.223 E.09728
G1 X135.823 Y88.223 E.01805
G1 X133.917 Y90.129 E.08452
G1 X131.344 Y89.439 E.08352
G1 X128.962 Y91.821 E.10562
G1 X129.652 Y94.394 E.08352
G1 X127.27 Y96.776 E.10562
G1 X124.697 Y96.087 E.08352
G1 X122.315 Y98.469 E.10562
G1 X123.004 Y101.042 E.08352
G1 X120.622 Y103.424 E.10562
G1 X118.049 Y102.734 E.08352
G1 X115.667 Y105.116 E.10562
G1 X116.356 Y107.689 E.08352
G1 X113.974 Y110.071 E.10562
G1 X111.401 Y109.382 E.08352
G1 X109.019 Y111.764 E.10562
G1 X109.709 Y114.337 E.08352
G1 X107.327 Y116.719 E.10562
G1 X104.754 Y116.03 E.08352
G1 X102.372 Y118.412 E.10562
G1 X103.061 Y120.984 E.08352
G1 X102.264 Y121.781 E.03533
G1 X102.84 Y121.781 E.01805
G1 X103.349 Y121.272 E.02257
G1 X105.249 Y121.781 E.06167
G1 X105.899 Y121.781 E.02038
;WIPE_START
G1 F8640
G1 X105.249 Y121.781 E-.15008
G1 X103.349 Y121.272 E-.45413
G1 X102.84 Y121.781 E-.16622
G1 X102.264 Y121.781 E-.13293
G1 X102.407 Y121.639 E-.04664
;WIPE_END
G1 E-.05 F2100
G1 Z.4 F10800
G1 X114.146 Y121.781
G1 Z.2
G1 E1 F2100
G1 F1200
G1 X111.704 Y121.781 E.07658
G1 X111.453 Y120.845 E.0304
G1 X113.835 Y118.463 E.10562
G1 X116.408 Y119.152 E.08352
G1 X118.79 Y116.77 E.10562
G1 X118.1 Y114.197 E.08352
G1 X120.482 Y111.815 E.10562
M73 P11 R12
G1 X123.055 Y112.505 E.08352
G1 X125.437 Y110.123 E.10562
G1 X124.748 Y107.55 E.08352
M73 Q11 S12
